(G-code generated by FlatCAM Evo vUnstable - Version Date: 2023/6/31)

(Name: ForwardCEWBPCBDesign-PTH.drl_edit_cnc)
(Type: G-code from Excellon)
(Units: MM)

(Created on Wednesday, 25 March 2026 at 15:00)

(This preprocessor is used with a motion controller loaded with GRBL firmware.)
(It is configured to be compatible with almost any version of GRBL firmware. No M6 command.)


(TOOLS DIAMETER: )
(Tool: 1 -> Dia: 1.0)

(FEEDRATE Z: )
(Tool: 1 -> Feedrate: 300)

(FEEDRATE RAPIDS: )
(Tool: 1 -> Feedrate Rapids: 1500)

(Z_CUT: )
(Tool: 1 -> Z_Cut: -3.0)

(Tools Offset: )
(Tool: 1 -> Offset Z: 0.0)

(Z_MOVE: )
(Tool: 1 -> Z_Move: 2)

(Z Start: None mm)
(Z End: 15 mm)
(X,Y End: None mm)
(Steps per circle: 16)
(Steps per circle: 16)
(Preprocessor Excellon: GRBL_11_no_M6)

(X range:    2.1495 ...   76.4135  mm)
(Y range:    6.0115 ...   55.2715  mm)

(Spindle Speed: 0 RPM)
G21
G90
G17
G94


G01 F300.00
G00 Z2.0000

M03
G00 X22.7995 Y15.0395
G01 Z-3.0000
G01 Z0
G00 Z2.0000
G00 X22.7995 Y12.4995
G01 Z-3.0000
G01 Z0
G00 Z2.0000
G00 X22.7995 Y9.9595
G01 Z-3.0000
G01 Z0
G00 Z2.0000
G00 X22.7995 Y7.4195
G01 Z-3.0000
G01 Z0
G00 Z2.0000
G00 X31.2095 Y6.5115
G01 Z-3.0000
G01 Z0
G00 Z2.0000
G00 X33.7495 Y6.5115
G01 Z-3.0000
G01 Z0
G00 Z2.0000
G00 X36.2895 Y6.5115
G01 Z-3.0000
G01 Z0
G00 Z2.0000
G00 X38.8295 Y6.5115
G01 Z-3.0000
G01 Z0
G00 Z2.0000
G00 X41.3695 Y6.5115
G01 Z-3.0000
G01 Z0
G00 Z2.0000
G00 X43.9095 Y6.5115
G01 Z-3.0000
G01 Z0
G00 Z2.0000
G00 X46.4495 Y6.5115
G01 Z-3.0000
G01 Z0
G00 Z2.0000
G00 X48.9895 Y6.5115
G01 Z-3.0000
G01 Z0
G00 Z2.0000
G00 X53.0535 Y6.5115
G01 Z-3.0000
G01 Z0
G00 Z2.0000
G00 X55.5935 Y6.5115
G01 Z-3.0000
G01 Z0
G00 Z2.0000
G00 X58.1335 Y6.5115
G01 Z-3.0000
G01 Z0
G00 Z2.0000
G00 X60.6735 Y6.5115
G01 Z-3.0000
G01 Z0
G00 Z2.0000
G00 X63.2135 Y6.5115
G01 Z-3.0000
G01 Z0
G00 Z2.0000
G00 X65.7535 Y6.5115
G01 Z-3.0000
G01 Z0
G00 Z2.0000
G00 X68.2935 Y6.5115
G01 Z-3.0000
G01 Z0
G00 Z2.0000
G00 X70.8335 Y6.5115
G01 Z-3.0000
G01 Z0
G00 Z2.0000
G00 X73.3735 Y6.5115
G01 Z-3.0000
G01 Z0
G00 Z2.0000
G00 X75.9135 Y6.5115
G01 Z-3.0000
G01 Z0
G00 Z2.0000
G00 X66.7695 Y54.7715
G01 Z-3.0000
G01 Z0
G00 Z2.0000
G00 X64.2295 Y54.7715
G01 Z-3.0000
G01 Z0
G00 Z2.0000
G00 X61.6895 Y54.7715
G01 Z-3.0000
G01 Z0
G00 Z2.0000
G00 X59.1495 Y54.7715
G01 Z-3.0000
G01 Z0
G00 Z2.0000
G00 X56.6095 Y54.7715
G01 Z-3.0000
G01 Z0
G00 Z2.0000
G00 X54.0695 Y54.7715
G01 Z-3.0000
G01 Z0
G00 Z2.0000
G00 X51.5295 Y54.7715
G01 Z-3.0000
G01 Z0
G00 Z2.0000
G00 X48.9895 Y54.7715
G01 Z-3.0000
G01 Z0
G00 Z2.0000
G00 X43.9095 Y54.7715
G01 Z-3.0000
G01 Z0
G00 Z2.0000
G00 X41.3695 Y54.7715
G01 Z-3.0000
G01 Z0
G00 Z2.0000
G00 X38.8295 Y54.7715
G01 Z-3.0000
G01 Z0
G00 Z2.0000
G00 X36.2895 Y54.7715
G01 Z-3.0000
G01 Z0
G00 Z2.0000
G00 X33.7495 Y54.7715
G01 Z-3.0000
G01 Z0
G00 Z2.0000
G00 X31.2095 Y54.7715
G01 Z-3.0000
G01 Z0
G00 Z2.0000
G00 X20.5195 Y48.6095
G01 Z-3.0000
G01 Z0
G00 Z2.0000
G00 X17.9795 Y48.6095
G01 Z-3.0000
G01 Z0
G00 Z2.0000
G00 X20.5305 Y41.7295
G01 Z-3.0000
G01 Z0
G00 Z2.0000
G00 X17.0245 Y41.7295
G01 Z-3.0000
G01 Z0
G00 Z2.0000
G00 X11.8945 Y41.7295
G01 Z-3.0000
G01 Z0
G00 Z2.0000
G00 X11.4695 Y48.6395
G01 Z-3.0000
G01 Z0
G00 Z2.0000
G00 X8.9295 Y48.6395
G01 Z-3.0000
G01 Z0
G00 Z2.0000
G00 X8.3885 Y41.7295
G01 Z-3.0000
G01 Z0
G00 Z2.0000
G00 X10.6495 Y23.9495
G01 Z-3.0000
G01 Z0
G00 Z2.0000
G00 X2.6495 Y12.6395
G01 Z-3.0000
G01 Z0
G00 Z2.0000
G00 X7.7295 Y12.6395
G01 Z-3.0000
G01 Z0
G00 Z2.0000
G00 X11.8295 Y7.5295
G01 Z-3.0000
G01 Z0
G00 Z2.0000
G00 X11.8295 Y10.0695
G01 Z-3.0000
G01 Z0
G00 Z2.0000
G00 X11.8295 Y12.6095
G01 Z-3.0000
G01 Z0
G00 Z2.0000
G00 X11.8295 Y15.1495
G01 Z-3.0000
G01 Z0
G00 Z2.0000
G00 X13.1895 Y23.9495
G01 Z-3.0000
G01 Z0
G00 Z2.0000
G00 X15.7295 Y23.9495
G01 Z-3.0000
G01 Z0
G00 Z2.0000
G00 X18.2695 Y23.9495
G01 Z-3.0000
G01 Z0
G00 Z2.0000
G00 X30.5795 Y27.7595
G01 Z-3.0000
G01 Z0
G00 Z2.0000
G00 X30.5795 Y17.5995
G01 Z-3.0000
G01 Z0
G00 Z2.0000
M05
G00 Z15.00


