(G-code generated by FlatCAM Evo vUnstable - Version Date: 2023/6/31)

(Name: ForwardCEWBPCBDesign-B_Cu.gbr_iso_combined_cnc)
(Type: G-code from Geometry)
(Units: MM)

(Created on Wednesday, 25 March 2026 at 14:58)

(This preprocessor is used with a motion controller loaded with GRBL firmware.)
(It is configured to be compatible with almost any version of GRBL firmware. No M6 command.)

(TOOL DIAMETER: 0.475 mm)
(Feedrate_XY: 60.0 mm/min)
(Feedrate_Z: 60.0 mm/min)
(Feedrate rapids 1500.0 mm/min)

(Z_Cut: -0.12 mm)
(Z_Move: 2.0 mm)
(Z Start: None mm)
(Z End: 15.0 mm)
(X,Y End: None mm)
(Steps per circle: 16)
(Steps per circle: 16)
(Preprocessor Geometry: GRBL_11_no_M6)

(X range:   -0.2375 ...   80.2465  mm)
(Y range:   -0.2375 ...   57.4065  mm)

(Spindle Speed: 0.0 RPM)
G21
G90
G17
G94


G01 F60.00
G00 Z2.0000

M03
G01 F60.00
G00 X10.8295 Y6.2920
G01 F60.00
G01 Z-0.1200
G01 F60.00
G01 X10.7433 Y6.3082 F60.00
G01 X10.6809 Y6.3443 F60.00
G01 X10.6219 Y6.4142 F60.00
G01 X10.5944 Y6.4956 F60.00
G01 X10.5920 Y8.5295 F60.00
G01 X10.6082 Y8.6157 F60.00
G01 X10.6443 Y8.6781 F60.00
G01 X10.6809 Y8.7147 F60.00
G01 X10.7259 Y8.7432 F60.00
G01 X10.7621 Y8.7572 F60.00
G01 X10.8295 Y8.7670 F60.00
G01 X12.8295 Y8.7670 F60.00
G01 X12.8969 Y8.7572 F60.00
G01 X12.9448 Y8.7371 F60.00
G01 X12.9974 Y8.6974 F60.00
G01 X13.0266 Y8.6620 F60.00
G01 X13.0508 Y8.6157 F60.00
G01 X13.0646 Y8.5634 F60.00
G01 X13.0670 Y7.3353 F60.00
G01 X17.8251 Y2.5773 F60.00
G01 X62.8539 Y2.5773 F60.00
G01 X65.0157 Y4.7391 F60.00
G01 X65.0157 Y5.2740 F60.00
G01 X64.7535 Y5.2740 F60.00
G01 X64.6673 Y5.2902 F60.00
G01 X64.6210 Y5.3144 F60.00
G01 X64.5683 Y5.3629 F60.00
G01 X64.5322 Y5.4253 F60.00
G01 X64.5184 Y5.4776 F60.00
G01 X64.5160 Y7.5115 F60.00
G01 X64.5322 Y7.5977 F60.00
G01 X64.5683 Y7.6601 F60.00
G01 X64.6049 Y7.6967 F60.00
G01 X64.6499 Y7.7252 F60.00
G01 X64.6861 Y7.7392 F60.00
G01 X64.7535 Y7.7490 F60.00
G01 X66.7535 Y7.7490 F60.00
G01 X66.8397 Y7.7328 F60.00
G01 X66.8860 Y7.7086 F60.00
G01 X66.9214 Y7.6794 F60.00
G01 X66.9506 Y7.6439 F60.00
G01 X66.9748 Y7.5977 F60.00
G01 X66.9910 Y7.5115 F60.00
G01 X66.9886 Y5.4776 F60.00
G01 X66.9748 Y5.4253 F60.00
G01 X66.9387 Y5.3629 F60.00
G01 X66.8860 Y5.3144 F60.00
G01 X66.8397 Y5.2902 F60.00
G01 X66.7535 Y5.2740 F60.00
G01 X66.4913 Y5.2740 F60.00
G01 X66.4886 Y4.3728 F60.00
G01 X66.4626 Y4.2306 F60.00
G01 X66.3984 Y4.0756 F60.00
G01 X66.3310 Y3.9747 F60.00
G01 X66.2752 Y3.9118 F60.00
G01 X63.6727 Y1.3098 F60.00
G01 X63.5595 Y1.2198 F60.00
G01 X63.4309 Y1.1537 F60.00
G01 X63.2948 Y1.1144 F60.00
G01 X63.1595 Y1.1017 F60.00
G01 X17.4356 Y1.1067 F60.00
G01 X17.3166 Y1.1304 F60.00
G01 X17.1821 Y1.1836 F60.00
G01 X17.1001 Y1.2328 F60.00
G01 X16.9978 Y1.3178 F60.00
G01 X12.0237 Y6.2920 F60.00
G01 X10.8295 Y6.2920 F60.00
G00 Z2.0000
G00 X13.0523 Y13.6918
G01 F60.00
G01 Z-0.1200
G01 F60.00
G01 X13.0670 Y13.6095 F60.00
G01 X13.0670 Y11.6095 F60.00
G01 X13.0508 Y11.5233 F60.00
G01 X13.0147 Y11.4609 F60.00
G01 X12.9620 Y11.4124 F60.00
G01 X12.8977 Y11.3820 F60.00
G01 X12.8295 Y11.3720 F60.00
G01 X10.7956 Y11.3744 F60.00
G01 X10.7433 Y11.3882 F60.00
G01 X10.6809 Y11.4243 F60.00
G01 X10.6324 Y11.4770 F60.00
G01 X10.6082 Y11.5233 F60.00
G01 X10.5920 Y11.6095 F60.00
G01 X10.5920 Y11.8717 F60.00
G01 X8.9670 Y11.8717 F60.00
G01 X8.9670 Y11.6395 F60.00
G01 X8.9508 Y11.5533 F60.00
G01 X8.9266 Y11.5070 F60.00
G01 X8.8781 Y11.4543 F60.00
G01 X8.8157 Y11.4182 F60.00
G01 X8.7634 Y11.4044 F60.00
G01 X6.6956 Y11.4044 F60.00
G01 X6.6433 Y11.4182 F60.00
G01 X6.5809 Y11.4543 F60.00
G01 X6.5324 Y11.5070 F60.00
G01 X6.5020 Y11.5713 F60.00
G01 X6.4920 Y11.6395 F60.00
G01 X6.4920 Y13.6395 F60.00
G01 X6.5082 Y13.7257 F60.00
G01 X6.5443 Y13.7881 F60.00
G01 X6.5970 Y13.8366 F60.00
G01 X6.6613 Y13.8670 F60.00
G01 X6.7295 Y13.8770 F60.00
G01 X8.7295 Y13.8770 F60.00
G01 X8.7969 Y13.8672 F60.00
G01 X8.8448 Y13.8471 F60.00
G01 X8.8974 Y13.8074 F60.00
G01 X8.9371 Y13.7548 F60.00
G01 X8.9570 Y13.7077 F60.00
G01 X8.9670 Y13.6395 F60.00
G01 X8.9670 Y13.3473 F60.00
G01 X10.5920 Y13.3473 F60.00
G01 X10.5920 Y13.6095 F60.00
G01 X10.6082 Y13.6957 F60.00
G01 X10.6324 Y13.7420 F60.00
G01 X10.6809 Y13.7947 F60.00
G01 X10.7433 Y13.8308 F60.00
G01 X10.7956 Y13.8446 F60.00
G01 X12.8295 Y13.8470 F60.00
G01 X12.8977 Y13.8370 F60.00
G01 X12.9620 Y13.8066 F60.00
G01 X13.0147 Y13.7581 F60.00
G01 X13.0523 Y13.6918 F60.00
G00 Z2.0000
G00 X14.6956 Y22.7144
G01 F60.00
G01 Z-0.1200
G01 F60.00
G01 X14.6142 Y22.7419 F60.00
G01 X14.5443 Y22.8009 F60.00
G01 X14.5082 Y22.8633 F60.00
G01 X14.4920 Y22.9495 F60.00
G01 X14.4920 Y24.9495 F60.00
G01 X14.5082 Y25.0357 F60.00
G01 X14.5443 Y25.0981 F60.00
G01 X14.5809 Y25.1347 F60.00
G01 X14.6259 Y25.1632 F60.00
G01 X14.6621 Y25.1772 F60.00
G01 X14.7295 Y25.1870 F60.00
G01 X16.7295 Y25.1870 F60.00
G01 X16.8157 Y25.1708 F60.00
G01 X16.8781 Y25.1347 F60.00
G01 X16.9371 Y25.0648 F60.00
G01 X16.9646 Y24.9834 F60.00
G01 X16.9670 Y22.9495 F60.00
G01 X16.9570 Y22.8813 F60.00
G01 X16.9266 Y22.8170 F60.00
G01 X16.8781 Y22.7643 F60.00
G01 X16.8331 Y22.7358 F60.00
G01 X16.7969 Y22.7218 F60.00
G01 X16.7295 Y22.7120 F60.00
G01 X16.4673 Y22.7120 F60.00
G01 X16.4673 Y21.5173 F60.00
G01 X43.3255 Y21.5173 F60.00
G01 X43.4579 Y21.5051 F60.00
G01 X43.5969 Y21.4653 F60.00
G01 X43.7255 Y21.3992 F60.00
G01 X43.8472 Y21.3012 F60.00
G01 X56.1562 Y8.9883 F60.00
G01 X56.2132 Y8.9115 F60.00
G01 X56.2704 Y8.8045 F60.00
G01 X56.3026 Y8.7144 F60.00
G01 X56.3263 Y8.5954 F60.00
G01 X56.3313 Y7.7490 F60.00
G01 X56.5935 Y7.7490 F60.00
G01 X56.6797 Y7.7328 F60.00
G01 X56.7260 Y7.7086 F60.00
G01 X56.7787 Y7.6601 F60.00
G01 X56.8081 Y7.6132 F60.00
G01 X56.8273 Y7.5533 F60.00
G01 X56.8310 Y5.5115 F60.00
G01 X56.8148 Y5.4253 F60.00
G01 X56.7787 Y5.3629 F60.00
G01 X56.7260 Y5.3144 F60.00
G01 X56.6617 Y5.2840 F60.00
G01 X56.5935 Y5.2740 F60.00
G01 X54.5935 Y5.2740 F60.00
G01 X54.5073 Y5.2902 F60.00
G01 X54.4610 Y5.3144 F60.00
G01 X54.4256 Y5.3436 F60.00
G01 X54.3964 Y5.3790 F60.00
G01 X54.3722 Y5.4253 F60.00
G01 X54.3560 Y5.5115 F60.00
G01 X54.3584 Y7.5454 F60.00
G01 X54.3722 Y7.5977 F60.00
G01 X54.4083 Y7.6601 F60.00
G01 X54.4610 Y7.7086 F60.00
G01 X54.5073 Y7.7328 F60.00
G01 X54.5935 Y7.7490 F60.00
G01 X54.8557 Y7.7490 F60.00
G01 X54.8557 Y8.2059 F60.00
G01 X43.0199 Y20.0417 F60.00
G01 X15.6688 Y20.0444 F60.00
G01 X15.5742 Y20.0585 F60.00
G01 X15.4581 Y20.0937 F60.00
G01 X15.3101 Y20.1728 F60.00
G01 X15.2163 Y20.2498 F60.00
G01 X15.1520 Y20.3207 F60.00
G01 X15.0846 Y20.4216 F60.00
G01 X15.0437 Y20.5081 F60.00
G01 X15.0044 Y20.6442 F60.00
G01 X14.9917 Y20.7795 F60.00
G01 X14.9917 Y22.7120 F60.00
G01 X14.6956 Y22.7144 F60.00
G00 Z2.0000
G00 X14.4123 Y25.0318
G01 F60.00
G01 Z-0.1200
G01 F60.00
G01 X14.4270 Y24.9495 F60.00
G01 X14.4270 Y22.9495 F60.00
G01 X14.4108 Y22.8633 F60.00
G01 X14.3866 Y22.8170 F60.00
G01 X14.3574 Y22.7816 F60.00
G01 X14.3220 Y22.7524 F60.00
G01 X14.2757 Y22.7282 F60.00
G01 X14.1895 Y22.7120 F60.00
G01 X12.1895 Y22.7120 F60.00
G01 X12.1033 Y22.7282 F60.00
G01 X12.0570 Y22.7524 F60.00
G01 X12.0216 Y22.7816 F60.00
G01 X11.9924 Y22.8170 F60.00
G01 X11.9682 Y22.8633 F60.00
G01 X11.9520 Y22.9495 F60.00
G01 X11.9520 Y24.9495 F60.00
G01 X11.9682 Y25.0357 F60.00
G01 X11.9924 Y25.0820 F60.00
G01 X12.0216 Y25.1174 F60.00
G01 X12.0570 Y25.1466 F60.00
G01 X12.1033 Y25.1708 F60.00
G01 X12.1895 Y25.1870 F60.00
G01 X14.1895 Y25.1870 F60.00
G01 X14.2577 Y25.1770 F60.00
G01 X14.3220 Y25.1466 F60.00
G01 X14.3747 Y25.0981 F60.00
G01 X14.4123 Y25.0318 F60.00
G00 Z2.0000
G00 X2.0846 Y21.2638
G01 F60.00
G01 Z-0.1200
G01 F60.00
G01 X9.2578 Y28.4412 F60.00
G01 X9.3601 Y28.5262 F60.00
G01 X9.4421 Y28.5754 F60.00
G01 X9.5766 Y28.6286 F60.00
G01 X9.6956 Y28.6523 F60.00
G01 X18.2495 Y28.6573 F60.00
G01 X18.4048 Y28.6405 F60.00
G01 X18.5209 Y28.6053 F60.00
G01 X18.5869 Y28.5754 F60.00
G01 X18.6689 Y28.5262 F60.00
G01 X18.7627 Y28.4492 F60.00
G01 X20.8241 Y26.3883 F60.00
G01 X46.0745 Y26.3883 F60.00
G01 X46.1584 Y26.3833 F60.00
G01 X46.2774 Y26.3596 F60.00
G01 X46.4324 Y26.2954 F60.00
G01 X46.5333 Y26.2280 F60.00
G01 X46.5962 Y26.1722 F60.00
G01 X63.7762 Y8.9883 F60.00
G01 X63.8332 Y8.9115 F60.00
G01 X63.8904 Y8.8045 F60.00
G01 X63.9226 Y8.7144 F60.00
G01 X63.9463 Y8.5954 F60.00
G01 X63.9513 Y7.7490 F60.00
G01 X64.2135 Y7.7490 F60.00
G01 X64.2997 Y7.7328 F60.00
G01 X64.3460 Y7.7086 F60.00
G01 X64.3987 Y7.6601 F60.00
G01 X64.4281 Y7.6132 F60.00
G01 X64.4473 Y7.5533 F60.00
G01 X64.4510 Y5.5115 F60.00
G01 X64.4412 Y5.4441 F60.00
G01 X64.4106 Y5.3790 F60.00
G01 X64.3621 Y5.3262 F60.00
G01 X64.2997 Y5.2902 F60.00
G01 X64.2135 Y5.2740 F60.00
G01 X62.2135 Y5.2740 F60.00
G01 X62.1273 Y5.2902 F60.00
G01 X62.0810 Y5.3144 F60.00
G01 X62.0456 Y5.3436 F60.00
G01 X62.0164 Y5.3790 F60.00
G01 X61.9922 Y5.4253 F60.00
G01 X61.9760 Y5.5115 F60.00
G01 X61.9784 Y7.5454 F60.00
G01 X61.9922 Y7.5977 F60.00
G01 X62.0283 Y7.6601 F60.00
G01 X62.0810 Y7.7086 F60.00
G01 X62.1273 Y7.7328 F60.00
G01 X62.2135 Y7.7490 F60.00
G01 X62.4757 Y7.7490 F60.00
G01 X62.4757 Y8.2059 F60.00
G01 X45.7689 Y24.9127 F60.00
G01 X20.4578 Y24.9154 F60.00
G01 X20.3632 Y24.9295 F60.00
G01 X20.2255 Y24.9736 F60.00
G01 X20.1185 Y25.0308 F60.00
G01 X20.0416 Y25.0878 F60.00
G01 X17.9439 Y27.1817 F60.00
G01 X10.0851 Y27.1817 F60.00
G01 X3.3873 Y20.4839 F60.00
G01 X3.3873 Y13.8770 F60.00
G01 X3.6495 Y13.8770 F60.00
G01 X3.7169 Y13.8672 F60.00
G01 X3.7531 Y13.8532 F60.00
G01 X3.7981 Y13.8247 F60.00
G01 X3.8466 Y13.7720 F60.00
G01 X3.8770 Y13.7077 F60.00
G01 X3.8870 Y13.6395 F60.00
G01 X3.8846 Y11.6056 F60.00
G01 X3.8632 Y11.5359 F60.00
G01 X3.8174 Y11.4716 F60.00
G01 X3.7531 Y11.4258 F60.00
G01 X3.6834 Y11.4044 F60.00
G01 X1.6156 Y11.4044 F60.00
G01 X1.5459 Y11.4258 F60.00
G01 X1.4816 Y11.4716 F60.00
G01 X1.4358 Y11.5359 F60.00
G01 X1.4144 Y11.6056 F60.00
G01 X1.4120 Y13.6395 F60.00
G01 X1.4218 Y13.7069 F60.00
G01 X1.4419 Y13.7548 F60.00
G01 X1.4816 Y13.8074 F60.00
G01 X1.5170 Y13.8366 F60.00
G01 X1.5633 Y13.8608 F60.00
G01 X1.6495 Y13.8770 F60.00
G01 X1.9117 Y13.8770 F60.00
G01 X1.9117 Y20.7895 F60.00
G01 X1.9239 Y20.9219 F60.00
G01 X1.9637 Y21.0609 F60.00
G01 X2.0046 Y21.1474 F60.00
G01 X2.0846 Y21.2638 F60.00
G00 Z2.0000
G00 X1.3884 Y13.6919
G01 F60.00
G01 Z-0.1200
G01 F60.00
G01 X1.3865 Y11.6044 F60.00
G01 X1.4163 Y11.5122 F60.00
G01 X1.4616 Y11.4516 F60.00
G01 X1.5222 Y11.4063 F60.00
G01 X1.6144 Y11.3765 F60.00
G01 X3.6846 Y11.3765 F60.00
G01 X3.7768 Y11.4063 F60.00
G01 X3.8374 Y11.4516 F60.00
G01 X3.8827 Y11.5122 F60.00
G01 X3.9125 Y11.6044 F60.00
G01 X3.9106 Y13.6919 F60.00
G01 X3.8827 Y13.7668 F60.00
G01 X3.8374 Y13.8274 F60.00
G01 X3.7768 Y13.8727 F60.00
G01 X3.6260 Y13.9267 F60.00
G01 X3.5886 Y13.9475 F60.00
G01 X3.4877 Y14.0368 F60.00
G01 X3.4477 Y14.1051 F60.00
G01 X3.4132 Y14.2388 F60.00
G01 X3.4125 Y20.3237 F60.00
G01 X3.4202 Y20.3980 F60.00
G01 X3.4323 Y20.4383 F60.00
G01 X3.4875 Y20.5412 F60.00
G01 X3.5184 Y20.5793 F60.00
G01 X10.0086 Y27.0676 F60.00
G01 X10.0582 Y27.1043 F60.00
G01 X10.0988 Y27.1231 F60.00
G01 X10.1987 Y27.1519 F60.00
G01 X10.2453 Y27.1565 F60.00
G01 X17.7837 Y27.1565 F60.00
G01 X17.8580 Y27.1488 F60.00
G01 X17.9239 Y27.1246 F60.00
G01 X18.0299 Y27.0596 F60.00
G01 X19.2930 Y25.7914 F60.00
G01 X19.3435 Y25.6903 F60.00
G01 X19.3600 Y25.6397 F60.00
G01 X19.3650 Y25.5916 F60.00
G01 X19.3526 Y25.4887 F60.00
G01 X19.3189 Y25.3966 F60.00
G01 X19.2444 Y25.3066 F60.00
G01 X19.2051 Y25.2731 F60.00
G01 X19.1387 Y25.2418 F60.00
G01 X19.0224 Y25.2132 F60.00
G01 X17.2343 Y25.2125 F60.00
G01 X17.0928 Y25.1663 F60.00
G01 X17.0259 Y25.1567 F60.00
G01 X16.8986 Y25.1687 F60.00
G01 X16.7646 Y25.2125 F60.00
G01 X14.6943 Y25.2125 F60.00
G01 X14.5528 Y25.1663 F60.00
G01 X14.4859 Y25.1567 F60.00
G01 X14.3586 Y25.1687 F60.00
G01 X14.2246 Y25.2125 F60.00
G01 X12.1543 Y25.2125 F60.00
G01 X12.0622 Y25.1827 F60.00
G01 X12.0016 Y25.1374 F60.00
G01 X11.9563 Y25.0768 F60.00
G01 X11.9284 Y25.0019 F60.00
G01 X11.9265 Y22.9144 F60.00
G01 X11.9563 Y22.8222 F60.00
G01 X12.0016 Y22.7616 F60.00
G01 X12.0622 Y22.7163 F60.00
G01 X12.1544 Y22.6865 F60.00
G01 X14.2246 Y22.6865 F60.00
G01 X14.3618 Y22.7316 F60.00
G01 X14.4331 Y22.7423 F60.00
G01 X14.5233 Y22.7371 F60.00
G01 X14.5757 Y22.7260 F60.00
G01 X14.7453 Y22.6656 F60.00
G01 X14.8042 Y22.6313 F60.00
G01 X14.8724 Y22.5722 F60.00
G01 X14.9107 Y22.5254 F60.00
G01 X14.9372 Y22.4665 F60.00
G01 X14.9658 Y22.3502 F60.00
G01 X14.9665 Y20.7044 F60.00
G01 X14.9958 Y20.5569 F60.00
G01 X15.0533 Y20.4181 F60.00
G01 X15.1368 Y20.2931 F60.00
G01 X15.2431 Y20.1868 F60.00
G01 X15.3681 Y20.1033 F60.00
G01 X15.5069 Y20.0458 F60.00
G01 X15.6544 Y20.0165 F60.00
G01 X42.8597 Y20.0165 F60.00
G01 X42.9560 Y20.0031 F60.00
G01 X43.0612 Y19.9511 F60.00
G01 X43.1153 Y19.9106 F60.00
G01 X54.6621 Y8.3639 F60.00
G01 X54.7103 Y8.3033 F60.00
G01 X54.7429 Y8.2353 F60.00
G01 X54.7676 Y8.0994 F60.00
G01 X54.7555 Y8.0243 F60.00
G01 X54.7155 Y7.9225 F60.00
G01 X54.6737 Y7.8660 F60.00
G01 X54.5770 Y7.7915 F60.00
G01 X54.4014 Y7.7243 F60.00
G01 X54.3323 Y7.7161 F60.00
G01 X54.2565 Y7.7248 F60.00
G01 X54.0886 Y7.7745 F60.00
G01 X52.0183 Y7.7745 F60.00
G01 X51.9262 Y7.7447 F60.00
G01 X51.8656 Y7.6994 F60.00
G01 X51.8203 Y7.6388 F60.00
G01 X51.7905 Y7.5466 F60.00
G01 X51.7905 Y5.4763 F60.00
G01 X51.8203 Y5.3842 F60.00
G01 X51.8656 Y5.3236 F60.00
G01 X51.9262 Y5.2783 F60.00
G01 X52.0184 Y5.2485 F60.00
G01 X54.0886 Y5.2485 F60.00
G01 X54.2302 Y5.2947 F60.00
G01 X54.2971 Y5.3043 F60.00
G01 X54.4244 Y5.2923 F60.00
G01 X54.5584 Y5.2485 F60.00
G01 X56.6286 Y5.2485 F60.00
G01 X56.7702 Y5.2947 F60.00
G01 X56.8371 Y5.3043 F60.00
G01 X56.9644 Y5.2923 F60.00
G01 X57.0984 Y5.2485 F60.00
G01 X59.1686 Y5.2485 F60.00
G01 X59.3102 Y5.2947 F60.00
G01 X59.3771 Y5.3043 F60.00
G01 X59.5044 Y5.2923 F60.00
G01 X59.6384 Y5.2485 F60.00
G01 X61.7086 Y5.2485 F60.00
G01 X61.8502 Y5.2947 F60.00
G01 X61.9171 Y5.3043 F60.00
G01 X62.0444 Y5.2923 F60.00
G01 X62.1784 Y5.2485 F60.00
G01 X64.2486 Y5.2485 F60.00
G01 X64.3874 Y5.2940 F60.00
G01 X64.4571 Y5.3043 F60.00
G01 X64.5901 Y5.2909 F60.00
G01 X64.7602 Y5.2300 F60.00
G01 X64.8443 Y5.1822 F60.00
G01 X64.9287 Y5.0845 F60.00
G01 X64.9609 Y5.0280 F60.00
G01 X64.9772 Y4.9620 F60.00
G01 X64.9837 Y4.8702 F60.00
G01 X64.9783 Y4.8196 F60.00
G01 X64.9623 Y4.7708 F60.00
G01 X64.9193 Y4.6898 F60.00
G01 X64.8864 Y4.6456 F60.00
G01 X62.9493 Y2.7084 F60.00
G01 X62.8572 Y2.6427 F60.00
G01 X62.7114 Y2.6032 F60.00
G01 X38.8723 Y2.6025 F60.00
G01 X38.8210 Y2.6066 F60.00
G01 X38.7150 Y2.6422 F60.00
G01 X38.6706 Y2.6643 F60.00
G01 X38.6300 Y2.6968 F60.00
G01 X38.5391 Y2.8242 F60.00
G01 X38.5198 Y2.8970 F60.00
G01 X38.5136 Y2.9904 F60.00
G01 X38.5212 Y3.0498 F60.00
G01 X38.5347 Y3.0882 F60.00
G01 X38.5857 Y3.1815 F60.00
G01 X38.6167 Y3.2196 F60.00
G01 X39.4222 Y4.0251 F60.00
G01 X39.5057 Y4.1501 F60.00
G01 X39.5632 Y4.2889 F60.00
G01 X39.5925 Y4.4363 F60.00
G01 X39.5930 Y4.9057 F60.00
G01 X39.6045 Y4.9852 F60.00
G01 X39.6193 Y5.0302 F60.00
G01 X39.6661 Y5.1132 F60.00
G01 X39.7337 Y5.1811 F60.00
G01 X39.8204 Y5.2302 F60.00
G01 X40.0216 Y5.2987 F60.00
G01 X40.0930 Y5.3070 F60.00
G01 X40.1355 Y5.3032 F60.00
G01 X40.2003 Y5.2923 F60.00
G01 X40.3343 Y5.2485 F60.00
G01 X42.4046 Y5.2485 F60.00
G01 X42.5462 Y5.2947 F60.00
G01 X42.6131 Y5.3043 F60.00
G01 X42.7403 Y5.2923 F60.00
G01 X42.8743 Y5.2485 F60.00
G01 X44.9446 Y5.2485 F60.00
G01 X45.0862 Y5.2947 F60.00
G01 X45.1531 Y5.3043 F60.00
G01 X45.2803 Y5.2923 F60.00
G01 X45.4143 Y5.2485 F60.00
G01 X47.4846 Y5.2485 F60.00
G01 X47.6262 Y5.2947 F60.00
G01 X47.6931 Y5.3043 F60.00
G01 X47.8203 Y5.2923 F60.00
G01 X47.9543 Y5.2485 F60.00
G01 X50.0246 Y5.2485 F60.00
G01 X50.1168 Y5.2783 F60.00
G01 X50.1774 Y5.3236 F60.00
G01 X50.2227 Y5.3842 F60.00
G01 X50.2525 Y5.4764 F60.00
G01 X50.2525 Y7.5466 F60.00
G01 X50.2227 Y7.6388 F60.00
G01 X50.1774 Y7.6994 F60.00
G01 X50.1168 Y7.7447 F60.00
G01 X50.0246 Y7.7745 F60.00
G01 X47.9543 Y7.7745 F60.00
G01 X47.8128 Y7.7283 F60.00
G01 X47.7458 Y7.7186 F60.00
G01 X47.6186 Y7.7307 F60.00
G01 X47.4846 Y7.7745 F60.00
G01 X45.4143 Y7.7745 F60.00
G01 X45.2728 Y7.7283 F60.00
G01 X45.2058 Y7.7186 F60.00
G01 X45.0786 Y7.7307 F60.00
G01 X44.9446 Y7.7745 F60.00
G01 X42.8743 Y7.7745 F60.00
G01 X42.7328 Y7.7283 F60.00
G01 X42.6658 Y7.7186 F60.00
G01 X42.5386 Y7.7307 F60.00
G01 X42.4046 Y7.7745 F60.00
G01 X40.3343 Y7.7745 F60.00
G01 X40.1928 Y7.7283 F60.00
G01 X40.1258 Y7.7186 F60.00
G01 X39.9986 Y7.7307 F60.00
G01 X39.8646 Y7.7745 F60.00
G01 X37.7943 Y7.7745 F60.00
G01 X37.6528 Y7.7283 F60.00
G01 X37.5858 Y7.7186 F60.00
G01 X37.4586 Y7.7307 F60.00
G01 X37.3419 Y7.7726 F60.00
G01 X37.1173 Y7.7745 F60.00
G01 X37.0430 Y7.7822 F60.00
G01 X36.9771 Y7.8064 F60.00
G01 X36.8997 Y7.8494 F60.00
G01 X36.8617 Y7.8804 F60.00
G01 X31.6499 Y13.0922 F60.00
G01 X31.5249 Y13.1757 F60.00
G01 X31.3860 Y13.2332 F60.00
G01 X31.2386 Y13.2625 F60.00
G01 X24.4165 Y13.2625 F60.00
G01 X24.3258 Y13.2745 F60.00
G01 X24.2808 Y13.2893 F60.00
G01 X24.1570 Y13.3734 F60.00
G01 X24.1080 Y13.4389 F60.00
G01 X24.0327 Y13.6268 F60.00
G01 X23.9538 Y13.7409 F60.00
G01 X23.9200 Y13.8237 F60.00
G01 X23.9091 Y13.8776 F60.00
G01 X23.9232 Y14.0148 F60.00
G01 X23.9482 Y14.0819 F60.00
G01 X24.0289 Y14.1824 F60.00
G01 X24.0682 Y14.2159 F60.00
G01 X24.1172 Y14.2413 F60.00
G01 X24.2220 Y14.2719 F60.00
G01 X24.2686 Y14.2765 F60.00
G01 X28.0947 Y14.2765 F60.00
G01 X28.2421 Y14.3058 F60.00
G01 X28.3809 Y14.3633 F60.00
G01 X28.5059 Y14.4468 F60.00
G01 X30.2897 Y16.2306 F60.00
G01 X30.3582 Y16.2843 F60.00
G01 X30.4113 Y16.3072 F60.00
G01 X30.5276 Y16.3358 F60.00
G01 X31.6146 Y16.3365 F60.00
G01 X31.7068 Y16.3663 F60.00
G01 X31.7674 Y16.4116 F60.00
G01 X31.8127 Y16.4722 F60.00
G01 X31.8425 Y16.5644 F60.00
G01 X31.8425 Y18.6347 F60.00
G01 X31.8127 Y18.7268 F60.00
G01 X31.7674 Y18.7874 F60.00
G01 X31.7068 Y18.8327 F60.00
G01 X31.6146 Y18.8625 F60.00
G01 X29.5443 Y18.8625 F60.00
G01 X29.4522 Y18.8327 F60.00
G01 X29.3916 Y18.7874 F60.00
G01 X29.3463 Y18.7268 F60.00
G01 X29.3184 Y18.6519 F60.00
G01 X29.3155 Y17.5437 F60.00
G01 X29.2967 Y17.4507 F60.00
G01 X29.2415 Y17.3478 F60.00
G01 X27.7993 Y15.8989 F60.00
G01 X27.7172 Y15.8427 F60.00
G01 X27.6003 Y15.8071 F60.00
G01 X24.1843 Y15.8037 F60.00
G01 X24.0563 Y15.8422 F60.00
G01 X23.9968 Y15.8747 F60.00
G01 X23.9493 Y15.9222 F60.00
G01 X23.8374 Y16.0774 F60.00
G01 X23.7768 Y16.1227 F60.00
G01 X23.6846 Y16.1525 F60.00
G01 X21.8971 Y16.1506 F60.00
G01 X21.8222 Y16.1227 F60.00
G01 X21.7616 Y16.0774 F60.00
G01 X21.7183 Y16.0259 F60.00
G01 X21.6439 Y15.9645 F60.00
G01 X21.5241 Y15.9221 F60.00
G01 X21.4572 Y15.9125 F60.00
G01 X13.2352 Y15.9127 F60.00
G01 X13.1591 Y15.9252 F60.00
G01 X13.0729 Y15.9577 F60.00
G01 X13.0268 Y15.9847 F60.00
G01 X12.9793 Y16.0322 F60.00
G01 X12.8674 Y16.1874 F60.00
G01 X12.8068 Y16.2327 F60.00
G01 X12.7319 Y16.2606 F60.00
G01 X10.9443 Y16.2625 F60.00
G01 X10.8522 Y16.2327 F60.00
G01 X10.7916 Y16.1874 F60.00
G01 X10.7463 Y16.1268 F60.00
G01 X10.7165 Y16.0346 F60.00
G01 X10.7165 Y14.2644 F60.00
G01 X10.7569 Y14.1177 F60.00
G01 X10.7461 Y13.9668 F60.00
G01 X10.7161 Y13.8970 F60.00
G01 X10.5963 Y13.7368 F60.00
G01 X10.5423 Y13.5860 F60.00
G01 X10.5215 Y13.5486 F60.00
G01 X10.4522 Y13.4666 F60.00
G01 X10.3891 Y13.4190 F60.00
G01 X10.2794 Y13.3821 F60.00
G01 X10.2125 Y13.3725 F60.00
G01 X9.3497 Y13.3725 F60.00
G01 X9.2417 Y13.3890 F60.00
G01 X9.1860 Y13.4141 F60.00
G01 X9.1177 Y13.4611 F60.00
G01 X9.0631 Y13.5137 F60.00
G01 X9.0070 Y13.6299 F60.00
G01 X8.9627 Y13.7668 F60.00
G01 X8.9174 Y13.8274 F60.00
G01 X8.8568 Y13.8727 F60.00
G01 X8.7646 Y13.9025 F60.00
G01 X6.6943 Y13.9025 F60.00
G01 X6.6022 Y13.8727 F60.00
G01 X6.5416 Y13.8274 F60.00
G01 X6.4963 Y13.7668 F60.00
G01 X6.4665 Y13.6746 F60.00
G01 X6.4665 Y11.6044 F60.00
G01 X6.4963 Y11.5122 F60.00
G01 X6.5416 Y11.4516 F60.00
G01 X6.6022 Y11.4063 F60.00
G01 X6.6944 Y11.3765 F60.00
G01 X8.7819 Y11.3784 F60.00
G01 X8.8568 Y11.4063 F60.00
G01 X8.9174 Y11.4516 F60.00
G01 X8.9627 Y11.5122 F60.00
G01 X9.0062 Y11.6274 F60.00
G01 X9.0391 Y11.6835 F60.00
G01 X9.1187 Y11.7713 F60.00
G01 X9.1618 Y11.8000 F60.00
G01 X9.2044 Y11.8172 F60.00
G01 X9.2918 Y11.8419 F60.00
G01 X9.3384 Y11.8465 F60.00
G01 X10.2125 Y11.8465 F60.00
G01 X10.3032 Y11.8345 F60.00
G01 X10.3482 Y11.8197 F60.00
G01 X10.4720 Y11.7356 F60.00
G01 X10.5210 Y11.6701 F60.00
G01 X10.5963 Y11.4822 F60.00
G01 X10.6416 Y11.4216 F60.00
G01 X10.7022 Y11.3763 F60.00
G01 X10.7771 Y11.3484 F60.00
G01 X12.8646 Y11.3465 F60.00
G01 X12.9568 Y11.3763 F60.00
G01 X13.0174 Y11.4216 F60.00
G01 X13.0627 Y11.4822 F60.00
G01 X13.0925 Y11.5744 F60.00
G01 X13.0925 Y13.6447 F60.00
G01 X13.0627 Y13.7368 F60.00
G01 X12.9799 Y13.8598 F60.00
G01 X12.9500 Y13.9337 F60.00
G01 X12.9383 Y14.0074 F60.00
G01 X12.9532 Y14.1248 F60.00
G01 X12.9844 Y14.2024 F60.00
G01 X13.0789 Y14.3113 F60.00
G01 X13.1472 Y14.3513 F60.00
G01 X13.2520 Y14.3819 F60.00
G01 X13.2986 Y14.3865 F60.00
G01 X21.3957 Y14.3824 F60.00
G01 X21.5301 Y14.3340 F60.00
G01 X21.5611 Y14.3143 F60.00
G01 X21.6086 Y14.2668 F60.00
G01 X21.6775 Y14.1648 F60.00
G01 X21.7135 Y14.0679 F60.00
G01 X21.7297 Y13.9879 F60.00
G01 X21.7220 Y13.8907 F60.00
G01 X21.7027 Y13.8179 F60.00
G01 X21.6683 Y13.7557 F60.00
G01 X21.5663 Y13.6268 F60.00
G01 X21.5365 Y13.5346 F60.00
G01 X21.5365 Y11.4644 F60.00
G01 X21.5663 Y11.3722 F60.00
G01 X21.6116 Y11.3116 F60.00
G01 X21.6722 Y11.2663 F60.00
G01 X21.7644 Y11.2365 F60.00
G01 X23.8519 Y11.2384 F60.00
G01 X23.9268 Y11.2663 F60.00
G01 X23.9874 Y11.3116 F60.00
G01 X24.0327 Y11.3722 F60.00
G01 X24.0867 Y11.5230 F60.00
G01 X24.1075 Y11.5604 F60.00
G01 X24.1968 Y11.6613 F60.00
G01 X24.2651 Y11.7013 F60.00
G01 X24.3988 Y11.7358 F60.00
G01 X30.6977 Y11.7365 F60.00
G01 X30.7720 Y11.7288 F60.00
G01 X30.8379 Y11.7046 F60.00
G01 X30.9152 Y11.6615 F60.00
G01 X30.9533 Y11.6306 F60.00
G01 X34.1945 Y8.3894 F60.00
G01 X34.2428 Y8.3234 F60.00
G01 X34.2795 Y8.2430 F60.00
G01 X34.2956 Y8.1785 F60.00
G01 X34.2957 Y8.1296 F60.00
G01 X34.2770 Y8.0162 F60.00
G01 X34.2509 Y7.9586 F60.00
G01 X34.1764 Y7.8686 F60.00
G01 X34.1296 Y7.8303 F60.00
G01 X34.0881 Y7.8096 F60.00
G01 X33.9719 Y7.7771 F60.00
G01 X32.7143 Y7.7745 F60.00
G01 X32.5728 Y7.7283 F60.00
G01 X32.5058 Y7.7186 F60.00
G01 X32.3786 Y7.7307 F60.00
G01 X32.2446 Y7.7745 F60.00
G01 X30.1743 Y7.7745 F60.00
G01 X30.0821 Y7.7447 F60.00
G01 X30.0216 Y7.6994 F60.00
G01 X29.9763 Y7.6388 F60.00
G01 X29.9465 Y7.5466 F60.00
G01 X29.9465 Y5.4763 F60.00
G01 X29.9763 Y5.3842 F60.00
G01 X30.0216 Y5.3236 F60.00
G01 X30.1867 Y5.1949 F60.00
G01 X30.2233 Y5.1414 F60.00
G01 X30.2674 Y5.0399 F60.00
G01 X30.2774 Y4.9716 F60.00
G01 X30.2574 Y4.8342 F60.00
G01 X30.2313 Y4.7766 F60.00
G01 X30.1568 Y4.6866 F60.00
G01 X30.1175 Y4.6531 F60.00
G01 X30.0685 Y4.6277 F60.00
G01 X29.9637 Y4.5971 F60.00
G01 X29.9172 Y4.5925 F60.00
G01 X26.8553 Y4.5925 F60.00
G01 X26.7810 Y4.6002 F60.00
G01 X26.7373 Y4.6137 F60.00
G01 X26.6378 Y4.6675 F60.00
G01 X26.5997 Y4.6984 F60.00
G01 X24.1684 Y7.1297 F60.00
G01 X24.1297 Y7.1757 F60.00
G01 X24.0959 Y7.2388 F60.00
G01 X24.0632 Y7.3676 F60.00
G01 X24.0625 Y8.4547 F60.00
G01 X24.0327 Y8.5468 F60.00
G01 X23.9874 Y8.6074 F60.00
G01 X23.9268 Y8.6527 F60.00
G01 X23.8346 Y8.6825 F60.00
G01 X21.7471 Y8.6806 F60.00
G01 X21.6722 Y8.6527 F60.00
G01 X21.6116 Y8.6074 F60.00
G01 X21.5663 Y8.5468 F60.00
G01 X21.5365 Y8.4546 F60.00
G01 X21.5365 Y6.3844 F60.00
G01 X21.5663 Y6.2922 F60.00
G01 X21.6116 Y6.2316 F60.00
G01 X21.6722 Y6.1863 F60.00
G01 X21.7471 Y6.1584 F60.00
G01 X22.8553 Y6.1555 F60.00
G01 X22.9483 Y6.1367 F60.00
G01 X23.0639 Y6.0727 F60.00
G01 X25.9322 Y3.2070 F60.00
G01 X25.9860 Y3.1296 F60.00
G01 X26.0236 Y3.0065 F60.00
G01 X26.0188 Y2.8976 F60.00
G01 X25.9966 Y2.8208 F60.00
G01 X25.9645 Y2.7623 F60.00
G01 X25.8844 Y2.6777 F60.00
G01 X25.8413 Y2.6490 F60.00
G01 X25.7656 Y2.6174 F60.00
G01 X25.6647 Y2.6025 F60.00
G01 X17.9853 Y2.6025 F60.00
G01 X17.9110 Y2.6102 F60.00
G01 X17.8673 Y2.6237 F60.00
G01 X17.7678 Y2.6775 F60.00
G01 X17.7297 Y2.7084 F60.00
G01 X13.1814 Y7.2586 F60.00
G01 X13.1327 Y7.3318 F60.00
G01 X13.0951 Y7.4601 F60.00
G01 X13.0925 Y8.5646 F60.00
G01 X13.0627 Y8.6568 F60.00
G01 X13.0174 Y8.7174 F60.00
G01 X12.9568 Y8.7627 F60.00
G01 X12.8646 Y8.7925 F60.00
G01 X10.7943 Y8.7925 F60.00
G01 X10.7022 Y8.7627 F60.00
G01 X10.6416 Y8.7174 F60.00
G01 X10.5963 Y8.6568 F60.00
G01 X10.5665 Y8.5646 F60.00
G01 X10.5665 Y6.4944 F60.00
G01 X10.5963 Y6.4022 F60.00
G01 X10.6416 Y6.3416 F60.00
G01 X10.7022 Y6.2963 F60.00
G01 X10.7944 Y6.2665 F60.00
G01 X11.9155 Y6.2623 F60.00
G01 X11.9817 Y6.2453 F60.00
G01 X12.0939 Y6.1827 F60.00
G01 X17.0331 Y1.2468 F60.00
G01 X17.1581 Y1.1633 F60.00
G01 X17.2969 Y1.1058 F60.00
G01 X17.4444 Y1.0765 F60.00
G01 X63.2346 Y1.0765 F60.00
G01 X63.3821 Y1.1058 F60.00
G01 X63.5209 Y1.1633 F60.00
G01 X63.6459 Y1.2468 F60.00
G01 X66.2190 Y3.8200 F60.00
G01 X66.3462 Y3.9471 F60.00
G01 X66.4297 Y4.0721 F60.00
G01 X66.4872 Y4.2109 F60.00
G01 X66.5165 Y4.3583 F60.00
G01 X66.5165 Y4.8945 F60.00
G01 X66.5285 Y4.9852 F60.00
G01 X66.5433 Y5.0302 F60.00
G01 X66.6102 Y5.1336 F60.00
G01 X66.6577 Y5.1811 F60.00
G01 X66.7624 Y5.2350 F60.00
G01 X66.8808 Y5.2783 F60.00
G01 X66.9414 Y5.3236 F60.00
G01 X66.9867 Y5.3842 F60.00
G01 X67.0146 Y5.4591 F60.00
G01 X67.0165 Y7.5466 F60.00
G01 X66.9867 Y7.6388 F60.00
G01 X66.9414 Y7.6994 F60.00
G01 X66.8808 Y7.7447 F60.00
G01 X66.7886 Y7.7745 F60.00
G01 X64.7183 Y7.7745 F60.00
G01 X64.5614 Y7.7243 F60.00
G01 X64.5099 Y7.7186 F60.00
G01 X64.4197 Y7.7239 F60.00
G01 X64.3636 Y7.7363 F60.00
G01 X64.1845 Y7.8012 F60.00
G01 X64.1388 Y7.8297 F60.00
G01 X64.0706 Y7.8888 F60.00
G01 X64.0371 Y7.9281 F60.00
G01 X64.0149 Y7.9689 F60.00
G01 X63.9791 Y8.0933 F60.00
G01 X63.9765 Y8.5866 F60.00
G01 X63.9472 Y8.7341 F60.00
G01 X63.8897 Y8.8729 F60.00
G01 X63.8062 Y8.9979 F60.00
G01 X46.5609 Y26.2432 F60.00
G01 X46.4243 Y26.3344 F60.00
G01 X46.3613 Y26.3881 F60.00
G01 X46.3238 Y26.4385 F60.00
G01 X46.2823 Y26.5280 F60.00
G01 X46.2662 Y26.5925 F60.00
G01 X46.2661 Y26.6414 F60.00
G01 X46.2932 Y26.7782 F60.00
G01 X46.3241 Y26.8313 F60.00
G01 X46.3855 Y26.9024 F60.00
G01 X46.4247 Y26.9359 F60.00
G01 X46.4656 Y26.9581 F60.00
G01 X46.6075 Y26.9958 F60.00
G01 X53.3247 Y26.9965 F60.00
G01 X53.4721 Y27.0258 F60.00
G01 X53.6109 Y27.0833 F60.00
G01 X53.7359 Y27.1668 F60.00
G01 X57.2022 Y30.6331 F60.00
G01 X57.2857 Y30.7581 F60.00
G01 X57.3432 Y30.8969 F60.00
G01 X57.3725 Y31.0443 F60.00
G01 X57.3725 Y53.1545 F60.00
G01 X57.3890 Y53.2625 F60.00
G01 X57.4462 Y53.3732 F60.00
G01 X57.5137 Y53.4411 F60.00
G01 X57.6004 Y53.4902 F60.00
G01 X57.7884 Y53.5553 F60.00
G01 X57.8730 Y53.5670 F60.00
G01 X57.9804 Y53.5523 F60.00
G01 X58.1144 Y53.5085 F60.00
G01 X60.1846 Y53.5085 F60.00
G01 X60.3262 Y53.5547 F60.00
G01 X60.3931 Y53.5643 F60.00
G01 X60.5204 Y53.5523 F60.00
G01 X60.6544 Y53.5085 F60.00
G01 X62.7246 Y53.5085 F60.00
G01 X62.8662 Y53.5547 F60.00
G01 X62.9331 Y53.5643 F60.00
G01 X63.0604 Y53.5523 F60.00
G01 X63.1944 Y53.5085 F60.00
G01 X65.2646 Y53.5085 F60.00
G01 X65.4062 Y53.5547 F60.00
G01 X65.4731 Y53.5643 F60.00
G01 X65.6004 Y53.5523 F60.00
G01 X65.7344 Y53.5085 F60.00
G01 X67.8219 Y53.5103 F60.00
G01 X67.8968 Y53.5383 F60.00
G01 X67.9574 Y53.5836 F60.00
G01 X68.0027 Y53.6442 F60.00
G01 X68.0325 Y53.7364 F60.00
G01 X68.0325 Y55.8066 F60.00
G01 X68.0027 Y55.8988 F60.00
G01 X67.9574 Y55.9594 F60.00
G01 X67.8968 Y56.0047 F60.00
G01 X67.8046 Y56.0345 F60.00
G01 X65.7343 Y56.0345 F60.00
G01 X65.5928 Y55.9883 F60.00
G01 X65.5259 Y55.9786 F60.00
G01 X65.3986 Y55.9907 F60.00
G01 X65.2646 Y56.0345 F60.00
G01 X63.1943 Y56.0345 F60.00
G01 X63.0528 Y55.9883 F60.00
G01 X62.9859 Y55.9786 F60.00
G01 X62.8586 Y55.9907 F60.00
G01 X62.7246 Y56.0345 F60.00
G01 X60.6543 Y56.0345 F60.00
G01 X60.5128 Y55.9883 F60.00
G01 X60.4459 Y55.9786 F60.00
G01 X60.3186 Y55.9907 F60.00
G01 X60.1846 Y56.0345 F60.00
G01 X58.1143 Y56.0345 F60.00
G01 X57.9728 Y55.9883 F60.00
G01 X57.9059 Y55.9786 F60.00
G01 X57.7786 Y55.9907 F60.00
G01 X57.6446 Y56.0345 F60.00
G01 X55.5743 Y56.0345 F60.00
G01 X55.4822 Y56.0047 F60.00
G01 X55.4216 Y55.9594 F60.00
G01 X55.3763 Y55.8988 F60.00
G01 X55.3465 Y55.8066 F60.00
G01 X55.3484 Y53.7191 F60.00
G01 X55.3763 Y53.6442 F60.00
G01 X55.4216 Y53.5836 F60.00
G01 X55.4822 Y53.5383 F60.00
G01 X55.6330 Y53.4843 F60.00
G01 X55.6704 Y53.4635 F60.00
G01 X55.7713 Y53.3742 F60.00
G01 X55.8113 Y53.3059 F60.00
G01 X55.8419 Y53.2011 F60.00
G01 X55.8465 Y53.1545 F60.00
G01 X55.8455 Y31.5637 F60.00
G01 X55.8253 Y31.4673 F60.00
G01 X55.7715 Y31.3678 F60.00
G01 X55.7406 Y31.3297 F60.00
G01 X53.0393 Y28.6284 F60.00
G01 X52.9708 Y28.5747 F60.00
G01 X52.8506 Y28.5321 F60.00
G01 X52.7837 Y28.5225 F60.00
G01 X32.1965 Y28.5225 F60.00
G01 X32.1058 Y28.5345 F60.00
G01 X32.0608 Y28.5493 F60.00
G01 X31.9370 Y28.6334 F60.00
G01 X31.8880 Y28.6989 F60.00
G01 X31.8127 Y28.8868 F60.00
G01 X31.7674 Y28.9474 F60.00
G01 X31.7068 Y28.9927 F60.00
G01 X31.6319 Y29.0206 F60.00
G01 X29.5443 Y29.0225 F60.00
G01 X29.4522 Y28.9927 F60.00
G01 X29.3916 Y28.9474 F60.00
G01 X29.3463 Y28.8868 F60.00
G01 X29.3184 Y28.8119 F60.00
G01 X29.3155 Y26.7535 F60.00
G01 X29.2913 Y26.6432 F60.00
G01 X29.2634 Y26.5888 F60.00
G01 X29.1747 Y26.4887 F60.00
G01 X29.1316 Y26.4600 F60.00
G01 X29.0890 Y26.4428 F60.00
G01 X29.0016 Y26.4181 F60.00
G01 X28.9550 Y26.4135 F60.00
G01 X20.9843 Y26.4135 F60.00
G01 X20.9100 Y26.4212 F60.00
G01 X20.8697 Y26.4333 F60.00
G01 X20.7381 Y26.5104 F60.00
G01 X18.7359 Y28.5122 F60.00
G01 X18.6109 Y28.5957 F60.00
G01 X18.4721 Y28.6532 F60.00
G01 X18.3247 Y28.6825 F60.00
G01 X9.7043 Y28.6825 F60.00
G01 X9.5569 Y28.6532 F60.00
G01 X9.4181 Y28.5957 F60.00
G01 X9.2931 Y28.5122 F60.00
G01 X2.0568 Y21.2759 F60.00
G01 X1.9733 Y21.1509 F60.00
G01 X1.9158 Y21.0121 F60.00
G01 X1.8865 Y20.8646 F60.00
G01 X1.8850 Y14.2297 F60.00
G01 X1.8597 Y14.1208 F60.00
G01 X1.7756 Y13.9970 F60.00
G01 X1.7101 Y13.9480 F60.00
G01 X1.5222 Y13.8727 F60.00
G01 X1.4616 Y13.8274 F60.00
G01 X1.4163 Y13.7668 F60.00
G01 X1.3884 Y13.6919 F60.00
G00 Z2.0000
G00 X21.7995 Y6.1820
G01 F60.00
G01 Z-0.1200
G01 F60.00
G01 X21.7133 Y6.1982 F60.00
G01 X21.6509 Y6.2343 F60.00
G01 X21.5919 Y6.3042 F60.00
G01 X21.5644 Y6.3856 F60.00
G01 X21.5620 Y8.4195 F60.00
G01 X21.5782 Y8.5057 F60.00
G01 X21.6143 Y8.5681 F60.00
G01 X21.6509 Y8.6047 F60.00
G01 X21.6959 Y8.6332 F60.00
G01 X21.7321 Y8.6472 F60.00
G01 X21.7995 Y8.6570 F60.00
G01 X23.8334 Y8.6546 F60.00
G01 X23.9031 Y8.6332 F60.00
G01 X23.9674 Y8.5874 F60.00
G01 X24.0132 Y8.5231 F60.00
G01 X24.0346 Y8.4534 F60.00
G01 X24.0370 Y7.2253 F60.00
G01 X26.6951 Y4.5673 F60.00
G01 X37.8419 Y4.5673 F60.00
G01 X38.0917 Y4.8171 F60.00
G01 X38.0917 Y5.2740 F60.00
G01 X37.8295 Y5.2740 F60.00
G01 X37.7433 Y5.2902 F60.00
G01 X37.6970 Y5.3144 F60.00
G01 X37.6442 Y5.3629 F60.00
G01 X37.6082 Y5.4253 F60.00
G01 X37.5944 Y5.4776 F60.00
G01 X37.5920 Y7.5115 F60.00
G01 X37.6082 Y7.5977 F60.00
G01 X37.6442 Y7.6601 F60.00
G01 X37.6809 Y7.6967 F60.00
G01 X37.7259 Y7.7252 F60.00
G01 X37.7621 Y7.7392 F60.00
G01 X37.8295 Y7.7490 F60.00
G01 X39.8295 Y7.7490 F60.00
G01 X39.9157 Y7.7328 F60.00
G01 X39.9619 Y7.7086 F60.00
G01 X39.9974 Y7.6794 F60.00
G01 X40.0441 Y7.6132 F60.00
G01 X40.0661 Y7.5325 F60.00
G01 X40.0670 Y5.5115 F60.00
G01 X40.0508 Y5.4253 F60.00
G01 X40.0266 Y5.3790 F60.00
G01 X39.9974 Y5.3436 F60.00
G01 X39.9448 Y5.3039 F60.00
G01 X39.8977 Y5.2840 F60.00
G01 X39.8295 Y5.2740 F60.00
G01 X39.5672 Y5.2740 F60.00
G01 X39.5623 Y4.4276 F60.00
G01 X39.5386 Y4.3086 F60.00
G01 X39.5064 Y4.2185 F60.00
G01 X39.4491 Y4.1115 F60.00
G01 X39.4070 Y4.0527 F60.00
G01 X38.6063 Y3.2520 F60.00
G01 X38.5054 Y3.1846 F60.00
G01 X38.4189 Y3.1437 F60.00
G01 X38.3028 Y3.1085 F60.00
G01 X38.2082 Y3.0944 F60.00
G01 X26.3895 Y3.0917 F60.00
G01 X26.2571 Y3.1039 F60.00
G01 X26.1643 Y3.1272 F60.00
G01 X26.0521 Y3.1736 F60.00
G01 X25.9701 Y3.2228 F60.00
G01 X25.8763 Y3.2998 F60.00
G01 X22.9937 Y6.1820 F60.00
G01 X21.7995 Y6.1820 F60.00
G00 Z2.0000
G00 X23.8846 Y14.1556
G01 F60.00
G01 Z-0.1200
G01 F60.00
G01 X23.8632 Y14.0859 F60.00
G01 X23.8174 Y14.0216 F60.00
G01 X23.7531 Y13.9758 F60.00
G01 X23.6834 Y13.9544 F60.00
G01 X21.9495 Y13.9520 F60.00
G01 X21.8813 Y13.9620 F60.00
G01 X21.8170 Y13.9924 F60.00
G01 X21.7643 Y14.0409 F60.00
G01 X21.7358 Y14.0859 F60.00
G01 X21.7144 Y14.1556 F60.00
G01 X21.7120 Y14.4117 F60.00
G01 X12.9170 Y14.4117 F60.00
G01 X12.9146 Y14.2656 F60.00
G01 X12.8871 Y14.1842 F60.00
G01 X12.8474 Y14.1316 F60.00
G01 X12.8120 Y14.1024 F60.00
G01 X12.7657 Y14.0782 F60.00
G01 X12.7134 Y14.0644 F60.00
G01 X10.9456 Y14.0644 F60.00
G01 X10.8759 Y14.0858 F60.00
G01 X10.8116 Y14.1316 F60.00
G01 X10.7658 Y14.1959 F60.00
G01 X10.7444 Y14.2656 F60.00
G01 X10.7444 Y16.0334 F60.00
G01 X10.7658 Y16.1031 F60.00
G01 X10.8116 Y16.1674 F60.00
G01 X10.8759 Y16.2132 F60.00
G01 X10.9456 Y16.2346 F60.00
G01 X12.6795 Y16.2370 F60.00
G01 X12.7469 Y16.2272 F60.00
G01 X12.7948 Y16.2071 F60.00
G01 X12.8474 Y16.1674 F60.00
G01 X12.8766 Y16.1320 F60.00
G01 X12.9008 Y16.0857 F60.00
G01 X12.9146 Y16.0334 F60.00
G01 X12.9170 Y15.8873 F60.00
G01 X21.7120 Y15.8873 F60.00
G01 X21.7282 Y15.9757 F60.00
G01 X21.7643 Y16.0381 F60.00
G01 X21.8342 Y16.0971 F60.00
G01 X21.9156 Y16.1246 F60.00
G01 X23.6495 Y16.1270 F60.00
G01 X23.7169 Y16.1172 F60.00
G01 X23.7648 Y16.0971 F60.00
G01 X23.8174 Y16.0574 F60.00
G01 X23.8466 Y16.0220 F60.00
G01 X23.8708 Y15.9757 F60.00
G01 X23.8846 Y15.9234 F60.00
G01 X23.8870 Y15.7773 F60.00
G01 X27.7139 Y15.7773 F60.00
G01 X29.3420 Y17.4053 F60.00
G01 X29.3444 Y18.6334 F60.00
G01 X29.3582 Y18.6857 F60.00
G01 X29.3824 Y18.7320 F60.00
G01 X29.4470 Y18.7966 F60.00
G01 X29.5113 Y18.8270 F60.00
G01 X29.5795 Y18.8370 F60.00
G01 X31.5795 Y18.8370 F60.00
G01 X31.6469 Y18.8272 F60.00
G01 X31.6948 Y18.8071 F60.00
G01 X31.7474 Y18.7674 F60.00
G01 X31.7871 Y18.7148 F60.00
G01 X31.8087 Y18.6618 F60.00
G01 X31.8170 Y18.5995 F60.00
G01 X31.8170 Y16.5995 F60.00
G01 X31.8008 Y16.5133 F60.00
G01 X31.7647 Y16.4509 F60.00
G01 X31.7281 Y16.4143 F60.00
G01 X31.6831 Y16.3858 F60.00
G01 X31.6469 Y16.3718 F60.00
G01 X31.5795 Y16.3620 F60.00
G01 X30.3853 Y16.3620 F60.00
G01 X28.5412 Y14.5178 F60.00
G01 X28.4783 Y14.4620 F60.00
G01 X28.3774 Y14.3946 F60.00
G01 X28.2224 Y14.3304 F60.00
G01 X28.1034 Y14.3067 F60.00
G01 X28.0195 Y14.3017 F60.00
G01 X23.8870 Y14.3017 F60.00
G01 X23.8846 Y14.1556 F60.00
G00 Z2.0000
G00 X31.6378 Y13.0644
G01 F60.00
G01 Z-0.1200
G01 F60.00
G01 X36.8112 Y7.8952 F60.00
G01 X36.8670 Y7.8323 F60.00
G01 X36.9238 Y7.7490 F60.00
G01 X37.3234 Y7.7466 F60.00
G01 X37.4048 Y7.7191 F60.00
G01 X37.4747 Y7.6601 F60.00
G01 X37.5123 Y7.5938 F60.00
G01 X37.5270 Y7.5115 F60.00
G01 X37.5270 Y5.5115 F60.00
G01 X37.5172 Y5.4441 F60.00
G01 X37.5032 Y5.4079 F60.00
G01 X37.4747 Y5.3629 F60.00
G01 X37.4381 Y5.3262 F60.00
G01 X37.3757 Y5.2902 F60.00
G01 X37.2895 Y5.2740 F60.00
G01 X35.2895 Y5.2740 F60.00
G01 X35.2033 Y5.2902 F60.00
G01 X35.1570 Y5.3144 F60.00
G01 X35.1216 Y5.3436 F60.00
G01 X35.0924 Y5.3790 F60.00
G01 X35.0682 Y5.4253 F60.00
G01 X35.0520 Y5.5115 F60.00
G01 X35.0520 Y7.5115 F60.00
G01 X35.0580 Y7.5617 F60.00
G01 X30.8579 Y11.7617 F60.00
G01 X24.0370 Y11.7617 F60.00
G01 X24.0370 Y11.4995 F60.00
G01 X24.0272 Y11.4321 F60.00
G01 X24.0132 Y11.3959 F60.00
G01 X23.9847 Y11.3509 F60.00
G01 X23.9320 Y11.3024 F60.00
G01 X23.8677 Y11.2720 F60.00
G01 X23.7995 Y11.2620 F60.00
G01 X21.7656 Y11.2644 F60.00
G01 X21.6959 Y11.2858 F60.00
G01 X21.6316 Y11.3316 F60.00
G01 X21.5858 Y11.3959 F60.00
G01 X21.5644 Y11.4656 F60.00
G01 X21.5644 Y13.5334 F60.00
G01 X21.5858 Y13.6031 F60.00
G01 X21.6316 Y13.6674 F60.00
G01 X21.6959 Y13.7132 F60.00
G01 X21.7656 Y13.7346 F60.00
G01 X23.7995 Y13.7370 F60.00
G01 X23.8669 Y13.7272 F60.00
G01 X23.9148 Y13.7071 F60.00
G01 X23.9674 Y13.6674 F60.00
G01 X23.9966 Y13.6320 F60.00
G01 X24.0208 Y13.5857 F60.00
G01 X24.0370 Y13.4995 F60.00
G01 X24.0370 Y13.2373 F60.00
G01 X31.1635 Y13.2373 F60.00
G01 X31.2959 Y13.2251 F60.00
G01 X31.4349 Y13.1853 F60.00
G01 X31.5214 Y13.1444 F60.00
G01 X31.6378 Y13.0644 F60.00
G00 Z2.0000
G00 X32.4323 Y7.5938
G01 F60.00
G01 Z-0.1200
G01 F60.00
G01 X32.4470 Y7.5115 F60.00
G01 X32.4470 Y5.5115 F60.00
G01 X32.4308 Y5.4253 F60.00
G01 X32.4066 Y5.3790 F60.00
G01 X32.3774 Y5.3436 F60.00
G01 X32.3419 Y5.3144 F60.00
G01 X32.2957 Y5.2902 F60.00
G01 X32.2095 Y5.2740 F60.00
G01 X30.2095 Y5.2740 F60.00
G01 X30.1233 Y5.2902 F60.00
G01 X30.0770 Y5.3144 F60.00
G01 X30.0416 Y5.3436 F60.00
G01 X30.0124 Y5.3790 F60.00
G01 X29.9882 Y5.4253 F60.00
G01 X29.9720 Y5.5115 F60.00
G01 X29.9720 Y7.5115 F60.00
G01 X29.9882 Y7.5977 F60.00
G01 X30.0124 Y7.6439 F60.00
G01 X30.0416 Y7.6794 F60.00
G01 X30.0770 Y7.7086 F60.00
G01 X30.1233 Y7.7328 F60.00
G01 X30.2095 Y7.7490 F60.00
G01 X32.2095 Y7.7490 F60.00
G01 X32.2777 Y7.7390 F60.00
G01 X32.3419 Y7.7086 F60.00
G01 X32.3947 Y7.6601 F60.00
G01 X32.4323 Y7.5938 F60.00
G00 Z2.0000
G00 X34.9723 Y7.5938
G01 F60.00
G01 Z-0.1200
G01 F60.00
G01 X34.9870 Y7.5115 F60.00
G01 X34.9870 Y5.5115 F60.00
G01 X34.9708 Y5.4253 F60.00
G01 X34.9466 Y5.3790 F60.00
G01 X34.9174 Y5.3436 F60.00
G01 X34.8819 Y5.3144 F60.00
G01 X34.8357 Y5.2902 F60.00
G01 X34.7495 Y5.2740 F60.00
G01 X32.7495 Y5.2740 F60.00
G01 X32.6633 Y5.2902 F60.00
G01 X32.6170 Y5.3144 F60.00
G01 X32.5816 Y5.3436 F60.00
G01 X32.5524 Y5.3790 F60.00
G01 X32.5282 Y5.4253 F60.00
G01 X32.5120 Y5.5115 F60.00
G01 X32.5120 Y7.5115 F60.00
G01 X32.5282 Y7.5977 F60.00
G01 X32.5524 Y7.6439 F60.00
G01 X32.5816 Y7.6794 F60.00
G01 X32.6170 Y7.7086 F60.00
G01 X32.6633 Y7.7328 F60.00
G01 X32.7495 Y7.7490 F60.00
G01 X34.7495 Y7.7490 F60.00
G01 X34.8177 Y7.7390 F60.00
G01 X34.8819 Y7.7086 F60.00
G01 X34.9347 Y7.6601 F60.00
G01 X34.9723 Y7.5938 F60.00
G00 Z2.0000
G00 X42.5923 Y7.5938
G01 F60.00
G01 Z-0.1200
G01 F60.00
G01 X42.6070 Y7.5115 F60.00
G01 X42.6070 Y5.5115 F60.00
G01 X42.5908 Y5.4253 F60.00
G01 X42.5666 Y5.3790 F60.00
G01 X42.5374 Y5.3436 F60.00
G01 X42.5019 Y5.3144 F60.00
G01 X42.4557 Y5.2902 F60.00
G01 X42.3695 Y5.2740 F60.00
G01 X40.3695 Y5.2740 F60.00
G01 X40.2833 Y5.2902 F60.00
G01 X40.2370 Y5.3144 F60.00
G01 X40.2016 Y5.3436 F60.00
G01 X40.1724 Y5.3790 F60.00
G01 X40.1482 Y5.4253 F60.00
G01 X40.1320 Y5.5115 F60.00
G01 X40.1320 Y7.5115 F60.00
G01 X40.1482 Y7.5977 F60.00
G01 X40.1724 Y7.6439 F60.00
G01 X40.2016 Y7.6794 F60.00
G01 X40.2370 Y7.7086 F60.00
G01 X40.2833 Y7.7328 F60.00
G01 X40.3695 Y7.7490 F60.00
G01 X42.3695 Y7.7490 F60.00
G01 X42.4377 Y7.7390 F60.00
G01 X42.5019 Y7.7086 F60.00
G01 X42.5547 Y7.6601 F60.00
G01 X42.5923 Y7.5938 F60.00
G00 Z2.0000
G00 X45.1323 Y7.5938
G01 F60.00
G01 Z-0.1200
G01 F60.00
G01 X45.1470 Y7.5115 F60.00
G01 X45.1470 Y5.5115 F60.00
G01 X45.1308 Y5.4253 F60.00
G01 X45.1066 Y5.3790 F60.00
G01 X45.0774 Y5.3436 F60.00
G01 X45.0419 Y5.3144 F60.00
G01 X44.9957 Y5.2902 F60.00
G01 X44.9095 Y5.2740 F60.00
G01 X42.9095 Y5.2740 F60.00
G01 X42.8233 Y5.2902 F60.00
G01 X42.7770 Y5.3144 F60.00
G01 X42.7416 Y5.3436 F60.00
G01 X42.7124 Y5.3790 F60.00
G01 X42.6882 Y5.4253 F60.00
G01 X42.6720 Y5.5115 F60.00
G01 X42.6720 Y7.5115 F60.00
G01 X42.6882 Y7.5977 F60.00
G01 X42.7124 Y7.6439 F60.00
G01 X42.7416 Y7.6794 F60.00
G01 X42.7770 Y7.7086 F60.00
G01 X42.8233 Y7.7328 F60.00
G01 X42.9095 Y7.7490 F60.00
G01 X44.9095 Y7.7490 F60.00
G01 X44.9777 Y7.7390 F60.00
G01 X45.0419 Y7.7086 F60.00
G01 X45.0947 Y7.6601 F60.00
G01 X45.1323 Y7.5938 F60.00
G00 Z2.0000
G00 X47.6741 Y7.5881
G01 F60.00
G01 Z-0.1200
G01 F60.00
G01 X47.6870 Y7.5115 F60.00
G01 X47.6870 Y5.5115 F60.00
G01 X47.6708 Y5.4253 F60.00
G01 X47.6466 Y5.3790 F60.00
G01 X47.6174 Y5.3436 F60.00
G01 X47.5819 Y5.3144 F60.00
G01 X47.5357 Y5.2902 F60.00
G01 X47.4495 Y5.2740 F60.00
G01 X45.4495 Y5.2740 F60.00
G01 X45.3633 Y5.2902 F60.00
G01 X45.3170 Y5.3144 F60.00
G01 X45.2816 Y5.3436 F60.00
G01 X45.2524 Y5.3790 F60.00
G01 X45.2282 Y5.4253 F60.00
G01 X45.2120 Y5.5115 F60.00
G01 X45.2120 Y7.5115 F60.00
G01 X45.2282 Y7.5977 F60.00
G01 X45.2524 Y7.6439 F60.00
G01 X45.2816 Y7.6794 F60.00
G01 X45.3170 Y7.7086 F60.00
G01 X45.3633 Y7.7328 F60.00
G01 X45.4495 Y7.7490 F60.00
G01 X47.4495 Y7.7490 F60.00
G01 X47.5177 Y7.7390 F60.00
G01 X47.5819 Y7.7086 F60.00
G01 X47.6347 Y7.6601 F60.00
G01 X47.6741 Y7.5881 F60.00
G00 Z2.0000
G00 X50.2141 Y7.5881
G01 F60.00
G01 Z-0.1200
G01 F60.00
G01 X50.2270 Y7.5115 F60.00
G01 X50.2270 Y5.5115 F60.00
G01 X50.2108 Y5.4253 F60.00
G01 X50.1866 Y5.3790 F60.00
G01 X50.1574 Y5.3436 F60.00
G01 X50.1219 Y5.3144 F60.00
G01 X50.0757 Y5.2902 F60.00
G01 X49.9895 Y5.2740 F60.00
G01 X47.9895 Y5.2740 F60.00
G01 X47.9033 Y5.2902 F60.00
G01 X47.8570 Y5.3144 F60.00
G01 X47.8216 Y5.3436 F60.00
G01 X47.7924 Y5.3790 F60.00
G01 X47.7682 Y5.4253 F60.00
G01 X47.7520 Y5.5115 F60.00
G01 X47.7520 Y7.5115 F60.00
G01 X47.7682 Y7.5977 F60.00
G01 X47.7924 Y7.6439 F60.00
G01 X47.8216 Y7.6794 F60.00
G01 X47.8570 Y7.7086 F60.00
G01 X47.9033 Y7.7328 F60.00
G01 X47.9895 Y7.7490 F60.00
G01 X49.9895 Y7.7490 F60.00
G01 X50.0577 Y7.7390 F60.00
G01 X50.1219 Y7.7086 F60.00
G01 X50.1747 Y7.6601 F60.00
G01 X50.2141 Y7.5881 F60.00
G00 Z2.0000
G00 X54.2763 Y7.5938
G01 F60.00
G01 Z-0.1200
G01 F60.00
G01 X54.2910 Y7.5115 F60.00
G01 X54.2910 Y5.5115 F60.00
G01 X54.2748 Y5.4253 F60.00
G01 X54.2506 Y5.3790 F60.00
G01 X54.2214 Y5.3436 F60.00
G01 X54.1860 Y5.3144 F60.00
G01 X54.1397 Y5.2902 F60.00
G01 X54.0535 Y5.2740 F60.00
G01 X52.0535 Y5.2740 F60.00
G01 X51.9673 Y5.2902 F60.00
G01 X51.9210 Y5.3144 F60.00
G01 X51.8856 Y5.3436 F60.00
G01 X51.8564 Y5.3790 F60.00
G01 X51.8322 Y5.4253 F60.00
G01 X51.8160 Y5.5115 F60.00
G01 X51.8160 Y7.5115 F60.00
G01 X51.8322 Y7.5977 F60.00
G01 X51.8564 Y7.6439 F60.00
G01 X51.8856 Y7.6794 F60.00
G01 X51.9210 Y7.7086 F60.00
G01 X51.9673 Y7.7328 F60.00
G01 X52.0535 Y7.7490 F60.00
G01 X54.0535 Y7.7490 F60.00
G01 X54.1217 Y7.7390 F60.00
G01 X54.1860 Y7.7086 F60.00
G01 X54.2387 Y7.6601 F60.00
G01 X54.2763 Y7.5938 F60.00
G00 Z2.0000
G00 X61.8963 Y7.5938
G01 F60.00
G01 Z-0.1200
G01 F60.00
G01 X61.9110 Y7.5115 F60.00
G01 X61.9110 Y5.5115 F60.00
G01 X61.8948 Y5.4253 F60.00
G01 X61.8706 Y5.3790 F60.00
G01 X61.8414 Y5.3436 F60.00
G01 X61.8060 Y5.3144 F60.00
G01 X61.7597 Y5.2902 F60.00
G01 X61.6735 Y5.2740 F60.00
G01 X59.6735 Y5.2740 F60.00
G01 X59.5873 Y5.2902 F60.00
G01 X59.5410 Y5.3144 F60.00
G01 X59.5056 Y5.3436 F60.00
G01 X59.4764 Y5.3790 F60.00
G01 X59.4522 Y5.4253 F60.00
G01 X59.4360 Y5.5115 F60.00
G01 X59.4360 Y7.5115 F60.00
G01 X59.4522 Y7.5977 F60.00
G01 X59.4764 Y7.6439 F60.00
G01 X59.5056 Y7.6794 F60.00
G01 X59.5410 Y7.7086 F60.00
G01 X59.5873 Y7.7328 F60.00
G01 X59.6735 Y7.7490 F60.00
G01 X61.6735 Y7.7490 F60.00
G01 X61.7417 Y7.7390 F60.00
G01 X61.8060 Y7.7086 F60.00
G01 X61.8587 Y7.6601 F60.00
G01 X61.8963 Y7.5938 F60.00
G00 Z2.0000
G00 X69.6003 Y5.3842
G01 F60.00
G01 Z-0.1200
G01 F60.00
G01 X69.6456 Y5.3236 F60.00
G01 X69.7062 Y5.2783 F60.00
G01 X69.7983 Y5.2485 F60.00
G01 X71.8686 Y5.2485 F60.00
G01 X72.0102 Y5.2947 F60.00
G01 X72.0771 Y5.3043 F60.00
G01 X72.2043 Y5.2923 F60.00
G01 X72.3383 Y5.2485 F60.00
G01 X74.4086 Y5.2485 F60.00
G01 X74.5502 Y5.2947 F60.00
G01 X74.6171 Y5.3043 F60.00
G01 X74.7443 Y5.2923 F60.00
G01 X74.8783 Y5.2485 F60.00
G01 X76.9659 Y5.2503 F60.00
G01 X77.0408 Y5.2783 F60.00
G01 X77.1014 Y5.3236 F60.00
G01 X77.1467 Y5.3842 F60.00
G01 X77.1765 Y5.4764 F60.00
G01 X77.1746 Y7.5639 F60.00
G01 X77.1467 Y7.6388 F60.00
G01 X77.1014 Y7.6994 F60.00
G01 X77.0408 Y7.7447 F60.00
G01 X76.9486 Y7.7745 F60.00
G01 X74.8783 Y7.7745 F60.00
G01 X74.7368 Y7.7283 F60.00
G01 X74.6698 Y7.7186 F60.00
G01 X74.5426 Y7.7307 F60.00
G01 X74.4086 Y7.7745 F60.00
G01 X72.3383 Y7.7745 F60.00
G01 X72.1968 Y7.7283 F60.00
G01 X72.1298 Y7.7186 F60.00
G01 X72.0026 Y7.7307 F60.00
G01 X71.8686 Y7.7745 F60.00
G01 X69.7811 Y7.7726 F60.00
G01 X69.7061 Y7.7447 F60.00
G01 X69.6456 Y7.6994 F60.00
G01 X69.6003 Y7.6388 F60.00
G01 X69.5705 Y7.5466 F60.00
G01 X69.5705 Y5.4763 F60.00
G01 X69.6003 Y5.3842 F60.00
G00 Z2.0000
G00 X72.0563 Y7.5938
G01 F60.00
G01 Z-0.1200
G01 F60.00
G01 X72.0710 Y7.5115 F60.00
G01 X72.0710 Y5.5115 F60.00
G01 X72.0548 Y5.4253 F60.00
G01 X72.0306 Y5.3790 F60.00
G01 X72.0014 Y5.3436 F60.00
G01 X71.9659 Y5.3144 F60.00
G01 X71.9197 Y5.2902 F60.00
G01 X71.8335 Y5.2740 F60.00
G01 X69.8335 Y5.2740 F60.00
G01 X69.7473 Y5.2902 F60.00
G01 X69.7010 Y5.3144 F60.00
G01 X69.6656 Y5.3436 F60.00
G01 X69.6364 Y5.3790 F60.00
G01 X69.6122 Y5.4253 F60.00
G01 X69.5960 Y5.5115 F60.00
G01 X69.5960 Y7.5115 F60.00
G01 X69.6122 Y7.5977 F60.00
G01 X69.6364 Y7.6439 F60.00
G01 X69.6656 Y7.6794 F60.00
G01 X69.7010 Y7.7086 F60.00
G01 X69.7473 Y7.7328 F60.00
G01 X69.8335 Y7.7490 F60.00
G01 X71.8335 Y7.7490 F60.00
G01 X71.9017 Y7.7390 F60.00
G01 X71.9659 Y7.7086 F60.00
G01 X72.0187 Y7.6601 F60.00
G01 X72.0563 Y7.5938 F60.00
G00 Z2.0000
G00 X74.5963 Y7.5938
G01 F60.00
G01 Z-0.1200
G01 F60.00
G01 X74.6110 Y7.5115 F60.00
G01 X74.6110 Y5.5115 F60.00
G01 X74.5948 Y5.4253 F60.00
G01 X74.5706 Y5.3790 F60.00
G01 X74.5414 Y5.3436 F60.00
G01 X74.5059 Y5.3144 F60.00
G01 X74.4597 Y5.2902 F60.00
G01 X74.3735 Y5.2740 F60.00
G01 X72.3735 Y5.2740 F60.00
G01 X72.2873 Y5.2902 F60.00
G01 X72.2410 Y5.3144 F60.00
G01 X72.2056 Y5.3436 F60.00
G01 X72.1764 Y5.3790 F60.00
G01 X72.1522 Y5.4253 F60.00
G01 X72.1360 Y5.5115 F60.00
G01 X72.1360 Y7.5115 F60.00
G01 X72.1522 Y7.5977 F60.00
G01 X72.1764 Y7.6439 F60.00
G01 X72.2056 Y7.6794 F60.00
G01 X72.2410 Y7.7086 F60.00
G01 X72.2873 Y7.7328 F60.00
G01 X72.3735 Y7.7490 F60.00
G01 X74.3735 Y7.7490 F60.00
G01 X74.4417 Y7.7390 F60.00
G01 X74.5059 Y7.7086 F60.00
G01 X74.5587 Y7.6601 F60.00
G01 X74.5963 Y7.5938 F60.00
G00 Z2.0000
G00 X77.1363 Y7.5938
G01 F60.00
G01 Z-0.1200
G01 F60.00
G01 X77.1510 Y7.5115 F60.00
G01 X77.1510 Y5.5115 F60.00
G01 X77.1348 Y5.4253 F60.00
G01 X77.1106 Y5.3790 F60.00
G01 X77.0814 Y5.3436 F60.00
G01 X77.0459 Y5.3144 F60.00
G01 X76.9997 Y5.2902 F60.00
G01 X76.9135 Y5.2740 F60.00
G01 X74.9135 Y5.2740 F60.00
G01 X74.8273 Y5.2902 F60.00
G01 X74.7810 Y5.3144 F60.00
G01 X74.7456 Y5.3436 F60.00
G01 X74.7164 Y5.3790 F60.00
G01 X74.6922 Y5.4253 F60.00
G01 X74.6760 Y5.5115 F60.00
G01 X74.6760 Y7.5115 F60.00
G01 X74.6922 Y7.5977 F60.00
G01 X74.7164 Y7.6439 F60.00
G01 X74.7456 Y7.6794 F60.00
G01 X74.7810 Y7.7086 F60.00
G01 X74.8273 Y7.7328 F60.00
G01 X74.9135 Y7.7490 F60.00
G01 X76.9135 Y7.7490 F60.00
G01 X76.9817 Y7.7390 F60.00
G01 X77.0459 Y7.7086 F60.00
G01 X77.0987 Y7.6601 F60.00
G01 X77.1363 Y7.5938 F60.00
G00 Z2.0000
G00 X43.1698 Y24.5144
G01 F60.00
G01 Z-0.1200
G01 F60.00
G01 X58.6962 Y8.9883 F60.00
G01 X58.7532 Y8.9115 F60.00
G01 X58.8104 Y8.8045 F60.00
G01 X58.8426 Y8.7144 F60.00
G01 X58.8663 Y8.5954 F60.00
G01 X58.8713 Y7.7490 F60.00
G01 X59.1335 Y7.7490 F60.00
G01 X59.2197 Y7.7328 F60.00
G01 X59.2660 Y7.7086 F60.00
G01 X59.3187 Y7.6601 F60.00
G01 X59.3481 Y7.6132 F60.00
G01 X59.3673 Y7.5533 F60.00
G01 X59.3710 Y5.5115 F60.00
G01 X59.3612 Y5.4441 F60.00
G01 X59.3472 Y5.4079 F60.00
G01 X59.3187 Y5.3629 F60.00
G01 X59.2821 Y5.3262 F60.00
G01 X59.2197 Y5.2902 F60.00
G01 X59.1335 Y5.2740 F60.00
G01 X57.1335 Y5.2740 F60.00
G01 X57.0473 Y5.2902 F60.00
G01 X57.0010 Y5.3144 F60.00
G01 X56.9656 Y5.3436 F60.00
G01 X56.9364 Y5.3790 F60.00
G01 X56.9122 Y5.4253 F60.00
G01 X56.8960 Y5.5115 F60.00
G01 X56.8984 Y7.5454 F60.00
G01 X56.9122 Y7.5977 F60.00
G01 X56.9483 Y7.6601 F60.00
G01 X57.0010 Y7.7086 F60.00
G01 X57.0473 Y7.7328 F60.00
G01 X57.1335 Y7.7490 F60.00
G01 X57.3957 Y7.7490 F60.00
G01 X57.3957 Y8.2059 F60.00
G01 X42.3899 Y23.2117 F60.00
G01 X19.5070 Y23.2117 F60.00
G01 X19.5070 Y22.9495 F60.00
G01 X19.4972 Y22.8821 F60.00
G01 X19.4832 Y22.8459 F60.00
G01 X19.4547 Y22.8009 F60.00
G01 X19.4020 Y22.7524 F60.00
G01 X19.3377 Y22.7220 F60.00
G01 X19.2695 Y22.7120 F60.00
G01 X17.2356 Y22.7144 F60.00
G01 X17.1542 Y22.7419 F60.00
G01 X17.0843 Y22.8009 F60.00
G01 X17.0482 Y22.8633 F60.00
G01 X17.0320 Y22.9495 F60.00
G01 X17.0344 Y24.9834 F60.00
G01 X17.0619 Y25.0648 F60.00
G01 X17.1209 Y25.1347 F60.00
G01 X17.1833 Y25.1708 F60.00
G01 X17.2695 Y25.1870 F60.00
G01 X19.2695 Y25.1870 F60.00
G01 X19.3369 Y25.1772 F60.00
G01 X19.3848 Y25.1571 F60.00
G01 X19.4374 Y25.1174 F60.00
G01 X19.4666 Y25.0820 F60.00
G01 X19.4908 Y25.0357 F60.00
G01 X19.5070 Y24.9495 F60.00
G01 X19.5070 Y24.6873 F60.00
G01 X42.6955 Y24.6873 F60.00
G01 X42.8279 Y24.6751 F60.00
G01 X42.9669 Y24.6353 F60.00
G01 X43.0534 Y24.5944 F60.00
G01 X43.1698 Y24.5144 F60.00
G00 Z2.0000
G00 X31.8170 Y26.7595
G01 F60.00
G01 Z-0.1200
G01 F60.00
G01 X31.8008 Y26.6733 F60.00
G01 X31.7647 Y26.6109 F60.00
G01 X31.6948 Y26.5519 F60.00
G01 X31.6134 Y26.5244 F60.00
G01 X29.5795 Y26.5220 F60.00
G01 X29.4933 Y26.5382 F60.00
G01 X29.4309 Y26.5743 F60.00
G01 X29.3943 Y26.6109 F60.00
G01 X29.3658 Y26.6559 F60.00
G01 X29.3518 Y26.6921 F60.00
G01 X29.3420 Y26.7595 F60.00
G01 X29.3420 Y28.7595 F60.00
G01 X29.3582 Y28.8457 F60.00
G01 X29.3943 Y28.9081 F60.00
G01 X29.4309 Y28.9447 F60.00
G01 X29.4759 Y28.9732 F60.00
G01 X29.5121 Y28.9872 F60.00
G01 X29.5795 Y28.9970 F60.00
G01 X31.6134 Y28.9946 F60.00
G01 X31.6657 Y28.9808 F60.00
G01 X31.7281 Y28.9447 F60.00
G01 X31.7766 Y28.8920 F60.00
G01 X31.8008 Y28.8457 F60.00
G01 X31.8170 Y28.7595 F60.00
G01 X31.8170 Y28.4973 F60.00
G01 X52.9439 Y28.4973 F60.00
G01 X55.8717 Y31.4251 F60.00
G01 X55.8717 Y53.5340 F60.00
G01 X55.6095 Y53.5340 F60.00
G01 X55.5233 Y53.5502 F60.00
G01 X55.4770 Y53.5744 F60.00
G01 X55.4416 Y53.6036 F60.00
G01 X55.4019 Y53.6561 F60.00
G01 X55.3818 Y53.7041 F60.00
G01 X55.3720 Y53.7715 F60.00
G01 X55.3744 Y55.8054 F60.00
G01 X55.4019 Y55.8868 F60.00
G01 X55.4609 Y55.9567 F60.00
G01 X55.5233 Y55.9928 F60.00
G01 X55.6095 Y56.0090 F60.00
G01 X57.6095 Y56.0090 F60.00
G01 X57.6957 Y55.9928 F60.00
G01 X57.7581 Y55.9567 F60.00
G01 X57.7947 Y55.9201 F60.00
G01 X57.8232 Y55.8751 F60.00
G01 X57.8418 Y55.8208 F60.00
G01 X57.8470 Y55.7715 F60.00
G01 X57.8446 Y53.7376 F60.00
G01 X57.8308 Y53.6853 F60.00
G01 X57.7947 Y53.6229 F60.00
G01 X57.7420 Y53.5744 F60.00
G01 X57.6957 Y53.5502 F60.00
G01 X57.6095 Y53.5340 F60.00
G01 X57.3473 Y53.5340 F60.00
G01 X57.3473 Y31.1195 F60.00
G01 X57.3351 Y30.9871 F60.00
G01 X57.2953 Y30.8481 F60.00
G01 X57.2544 Y30.7616 F60.00
G01 X57.1744 Y30.6452 F60.00
G01 X53.7712 Y27.2378 F60.00
G01 X53.6689 Y27.1528 F60.00
G01 X53.5869 Y27.1036 F60.00
G01 X53.4747 Y27.0572 F60.00
G01 X53.3819 Y27.0339 F60.00
G01 X53.2495 Y27.0217 F60.00
G01 X31.8170 Y27.0217 F60.00
G01 X31.8170 Y26.7595 F60.00
G00 Z2.0000
G00 X21.7529 Y42.8118
G01 F60.00
G01 Z-0.1200
G01 F60.00
G01 X21.7676 Y42.7295 F60.00
G01 X21.7676 Y40.7295 F60.00
G01 X21.7514 Y40.6433 F60.00
G01 X21.7272 Y40.5970 F60.00
G01 X21.6980 Y40.5616 F60.00
G01 X21.6626 Y40.5324 F60.00
G01 X21.6163 Y40.5082 F60.00
G01 X21.5301 Y40.4920 F60.00
G01 X19.5301 Y40.4920 F60.00
G01 X19.4439 Y40.5082 F60.00
G01 X19.3976 Y40.5324 F60.00
G01 X19.3622 Y40.5616 F60.00
G01 X19.3330 Y40.5970 F60.00
G01 X19.3088 Y40.6433 F60.00
G01 X19.2926 Y40.7295 F60.00
G01 X19.2950 Y42.7634 F60.00
G01 X19.3088 Y42.8157 F60.00
G01 X19.3449 Y42.8781 F60.00
G01 X19.3976 Y42.9266 F60.00
G01 X19.4439 Y42.9508 F60.00
G01 X19.5301 Y42.9670 F60.00
G01 X19.7817 Y42.9670 F60.00
G01 X19.7817 Y47.3720 F60.00
G01 X19.5195 Y47.3720 F60.00
G01 X19.4521 Y47.3818 F60.00
G01 X19.4159 Y47.3958 F60.00
G01 X19.3709 Y47.4243 F60.00
G01 X19.3224 Y47.4770 F60.00
G01 X19.2920 Y47.5413 F60.00
G01 X19.2820 Y47.6095 F60.00
G01 X19.2844 Y49.6434 F60.00
G01 X19.2982 Y49.6957 F60.00
G01 X19.3343 Y49.7581 F60.00
G01 X19.3870 Y49.8066 F60.00
G01 X19.4513 Y49.8370 F60.00
G01 X19.5195 Y49.8470 F60.00
G01 X21.5195 Y49.8470 F60.00
G01 X21.6057 Y49.8308 F60.00
G01 X21.6681 Y49.7947 F60.00
G01 X21.7166 Y49.7420 F60.00
G01 X21.7470 Y49.6777 F60.00
G01 X21.7570 Y49.6095 F60.00
G01 X21.7546 Y47.5756 F60.00
G01 X21.7408 Y47.5233 F60.00
G01 X21.7047 Y47.4609 F60.00
G01 X21.6520 Y47.4124 F60.00
G01 X21.6057 Y47.3882 F60.00
G01 X21.5195 Y47.3720 F60.00
G01 X21.2573 Y47.3720 F60.00
G01 X21.2573 Y42.9670 F60.00
G01 X21.5301 Y42.9670 F60.00
G01 X21.5983 Y42.9570 F60.00
G01 X21.6454 Y42.9371 F60.00
G01 X21.6980 Y42.8974 F60.00
G01 X21.7272 Y42.8620 F60.00
G01 X21.7529 Y42.8118 F60.00
G00 Z2.0000
G00 X18.2526 Y40.6621
G01 F60.00
G01 Z-0.1200
G01 F60.00
G01 X18.2220 Y40.5970 F60.00
G01 X18.1735 Y40.5443 F60.00
G01 X18.1111 Y40.5082 F60.00
G01 X18.0588 Y40.4944 F60.00
G01 X16.0249 Y40.4920 F60.00
G01 X15.9387 Y40.5082 F60.00
G01 X15.8763 Y40.5443 F60.00
G01 X15.8173 Y40.6142 F60.00
G01 X15.7898 Y40.6956 F60.00
G01 X15.7874 Y42.7295 F60.00
G01 X15.7974 Y42.7977 F60.00
G01 X15.8278 Y42.8620 F60.00
G01 X15.8924 Y42.9266 F60.00
G01 X15.9387 Y42.9508 F60.00
G01 X15.9910 Y42.9646 F60.00
G01 X17.2191 Y42.9670 F60.00
G01 X17.2417 Y42.9897 F60.00
G01 X17.2417 Y47.5220 F60.00
G01 X17.0956 Y47.5244 F60.00
G01 X17.0433 Y47.5382 F60.00
G01 X16.9970 Y47.5624 F60.00
G01 X16.9616 Y47.5916 F60.00
G01 X16.9219 Y47.6442 F60.00
G01 X16.9018 Y47.6921 F60.00
G01 X16.8920 Y47.7595 F60.00
G01 X16.8944 Y49.4934 F60.00
G01 X16.9158 Y49.5631 F60.00
G01 X16.9616 Y49.6274 F60.00
G01 X17.0259 Y49.6732 F60.00
G01 X17.0956 Y49.6946 F60.00
G01 X18.8634 Y49.6946 F60.00
G01 X18.9331 Y49.6732 F60.00
G01 X18.9974 Y49.6274 F60.00
G01 X19.0432 Y49.5631 F60.00
G01 X19.0650 Y49.4906 F60.00
G01 X19.0646 Y47.7256 F60.00
G01 X19.0508 Y47.6733 F60.00
G01 X19.0266 Y47.6270 F60.00
G01 X18.9974 Y47.5916 F60.00
G01 X18.9448 Y47.5519 F60.00
G01 X18.8634 Y47.5244 F60.00
G01 X18.7173 Y47.5220 F60.00
G01 X18.7146 Y42.6234 F60.00
G01 X18.6818 Y42.4589 F60.00
G01 X18.6564 Y42.3911 F60.00
G01 X18.5992 Y42.2841 F60.00
G01 X18.5092 Y42.1709 F60.00
G01 X18.2624 Y41.9237 F60.00
G01 X18.2624 Y40.7295 F60.00
G01 X18.2526 Y40.6621 F60.00
G00 Z2.0000
G00 X15.7917 Y40.6022
G01 F60.00
G01 Z-0.1200
G01 F60.00
G01 X15.8370 Y40.5416 F60.00
G01 X15.8976 Y40.4963 F60.00
G01 X15.9898 Y40.4665 F60.00
G01 X18.0600 Y40.4665 F60.00
G01 X18.1522 Y40.4963 F60.00
G01 X18.2128 Y40.5416 F60.00
G01 X18.2581 Y40.6022 F60.00
G01 X18.2860 Y40.6771 F60.00
G01 X18.2879 Y41.7637 F60.00
G01 X18.2956 Y41.8380 F60.00
G01 X18.3077 Y41.8783 F60.00
G01 X18.3717 Y41.9939 F60.00
G01 X18.5722 Y42.1977 F60.00
G01 X18.6587 Y42.3099 F60.00
G01 X18.7091 Y42.3474 F60.00
G01 X18.7986 Y42.3888 F60.00
G01 X18.8880 Y42.4063 F60.00
G01 X19.0254 Y42.3863 F60.00
G01 X19.1019 Y42.3471 F60.00
G01 X19.1730 Y42.2857 F60.00
G01 X19.2065 Y42.2464 F60.00
G01 X19.2319 Y42.1974 F60.00
G01 X19.2575 Y42.1130 F60.00
G01 X19.2671 Y42.0461 F60.00
G01 X19.2671 Y40.6944 F60.00
G01 X19.2969 Y40.6022 F60.00
G01 X19.3422 Y40.5416 F60.00
G01 X19.4028 Y40.4963 F60.00
G01 X19.4950 Y40.4665 F60.00
G01 X21.5652 Y40.4665 F60.00
G01 X21.6574 Y40.4963 F60.00
G01 X21.7180 Y40.5416 F60.00
G01 X21.7633 Y40.6022 F60.00
G01 X21.7931 Y40.6944 F60.00
G01 X21.7912 Y42.7819 F60.00
G01 X21.7633 Y42.8568 F60.00
G01 X21.7180 Y42.9174 F60.00
G01 X21.6574 Y42.9627 F60.00
G01 X21.4863 Y43.0224 F60.00
G01 X21.4379 Y43.0545 F60.00
G01 X21.3577 Y43.1280 F60.00
G01 X21.3177 Y43.1963 F60.00
G01 X21.2871 Y43.3010 F60.00
G01 X21.2825 Y43.3476 F60.00
G01 X21.2840 Y47.0193 F60.00
G01 X21.2945 Y47.0832 F60.00
G01 X21.3139 Y47.1379 F60.00
G01 X21.3983 Y47.2570 F60.00
G01 X21.4668 Y47.3048 F60.00
G01 X21.6468 Y47.3763 F60.00
G01 X21.7074 Y47.4216 F60.00
G01 X21.7527 Y47.4822 F60.00
G01 X21.7825 Y47.5744 F60.00
G01 X21.7825 Y49.6447 F60.00
G01 X21.7527 Y49.7368 F60.00
G01 X21.7074 Y49.7974 F60.00
G01 X21.6468 Y49.8427 F60.00
G01 X21.5546 Y49.8725 F60.00
G01 X19.4843 Y49.8725 F60.00
G01 X19.3927 Y49.8429 F60.00
G01 X19.2628 Y49.7434 F60.00
G01 X19.1774 Y49.6985 F60.00
G01 X19.1139 Y49.6823 F60.00
G01 X18.9944 Y49.6871 F60.00
G01 X18.8646 Y49.7225 F60.00
G01 X17.0943 Y49.7225 F60.00
G01 X17.0022 Y49.6927 F60.00
G01 X16.9416 Y49.6474 F60.00
G01 X16.8963 Y49.5868 F60.00
G01 X16.8665 Y49.4946 F60.00
G01 X16.8684 Y47.7071 F60.00
G01 X16.8963 Y47.6322 F60.00
G01 X16.9416 Y47.5716 F60.00
G01 X17.0535 Y47.4947 F60.00
G01 X17.1224 Y47.4350 F60.00
G01 X17.1559 Y47.3957 F60.00
G01 X17.1872 Y47.3293 F60.00
G01 X17.2158 Y47.2130 F60.00
G01 X17.2155 Y43.3325 F60.00
G01 X17.1913 Y43.2222 F60.00
G01 X17.1634 Y43.1678 F60.00
G01 X17.0747 Y43.0677 F60.00
G01 X17.0316 Y43.0390 F60.00
G01 X16.9890 Y43.0218 F60.00
G01 X16.9016 Y42.9971 F60.00
G01 X16.8550 Y42.9925 F60.00
G01 X15.9725 Y42.9906 F60.00
G01 X15.8976 Y42.9627 F60.00
G01 X15.8370 Y42.9174 F60.00
G01 X15.7917 Y42.8568 F60.00
G01 X15.7619 Y42.7646 F60.00
G01 X15.7619 Y40.6944 F60.00
G01 X15.7917 Y40.6022 F60.00
G00 Z2.0000
G00 X10.5304 Y47.3315
G01 F60.00
G01 Z-0.1200
G01 F60.00
G01 X10.6124 Y47.2622 F60.00
G01 X10.6600 Y47.1991 F60.00
G01 X10.6969 Y47.0894 F60.00
G01 X10.7065 Y47.0225 F60.00
G01 X10.7065 Y43.0377 F60.00
G01 X10.6840 Y42.9195 F60.00
G01 X10.6311 Y42.7646 F60.00
G01 X10.6330 Y40.6771 F60.00
G01 X10.6609 Y40.6022 F60.00
G01 X10.7062 Y40.5416 F60.00
G01 X10.7668 Y40.4963 F60.00
G01 X10.8590 Y40.4665 F60.00
G01 X12.9465 Y40.4684 F60.00
G01 X13.0214 Y40.4963 F60.00
G01 X13.0820 Y40.5416 F60.00
G01 X13.1273 Y40.6022 F60.00
G01 X13.1571 Y40.6944 F60.00
G01 X13.1552 Y42.7819 F60.00
G01 X13.1273 Y42.8568 F60.00
G01 X13.0820 Y42.9174 F60.00
G01 X13.0214 Y42.9627 F60.00
G01 X12.9465 Y42.9906 F60.00
G01 X12.5726 Y42.9935 F60.00
G01 X12.4920 Y43.0091 F60.00
G01 X12.4248 Y43.0349 F60.00
G01 X12.3266 Y43.1143 F60.00
G01 X12.2883 Y43.1611 F60.00
G01 X12.2677 Y43.2026 F60.00
G01 X12.2421 Y43.2871 F60.00
G01 X12.2325 Y43.3540 F60.00
G01 X12.2340 Y47.0493 F60.00
G01 X12.2445 Y47.1132 F60.00
G01 X12.2639 Y47.1679 F60.00
G01 X12.3483 Y47.2870 F60.00
G01 X12.4168 Y47.3348 F60.00
G01 X12.5968 Y47.4063 F60.00
G01 X12.6574 Y47.4516 F60.00
G01 X12.7027 Y47.5122 F60.00
G01 X12.7306 Y47.5871 F60.00
G01 X12.7325 Y49.6747 F60.00
G01 X12.7027 Y49.7668 F60.00
G01 X12.6574 Y49.8274 F60.00
G01 X12.5968 Y49.8727 F60.00
G01 X12.5046 Y49.9025 F60.00
G01 X10.4343 Y49.9025 F60.00
G01 X10.3422 Y49.8727 F60.00
G01 X10.2816 Y49.8274 F60.00
G01 X10.2363 Y49.7668 F60.00
G01 X10.2065 Y49.6746 F60.00
G01 X10.2065 Y47.6044 F60.00
G01 X10.2363 Y47.5122 F60.00
G01 X10.2816 Y47.4516 F60.00
G01 X10.3422 Y47.4063 F60.00
G01 X10.4930 Y47.3524 F60.00
G01 X10.5304 Y47.3315 F60.00
G00 Z2.0000
G00 X10.4013 Y47.4120
G01 F60.00
G01 Z-0.1200
G01 F60.00
G01 X10.3370 Y47.4424 F60.00
G01 X10.2843 Y47.4909 F60.00
G01 X10.2482 Y47.5533 F60.00
G01 X10.2320 Y47.6395 F60.00
G01 X10.2320 Y49.6395 F60.00
G01 X10.2482 Y49.7257 F60.00
G01 X10.2724 Y49.7720 F60.00
G01 X10.3016 Y49.8074 F60.00
G01 X10.3370 Y49.8366 F60.00
G01 X10.3833 Y49.8608 F60.00
G01 X10.4695 Y49.8770 F60.00
G01 X12.4695 Y49.8770 F60.00
G01 X12.5557 Y49.8608 F60.00
G01 X12.6020 Y49.8366 F60.00
G01 X12.6374 Y49.8074 F60.00
G01 X12.6666 Y49.7720 F60.00
G01 X12.6908 Y49.7257 F60.00
G01 X12.7070 Y49.6395 F60.00
G01 X12.7046 Y47.6056 F60.00
G01 X12.6908 Y47.5533 F60.00
G01 X12.6547 Y47.4909 F60.00
G01 X12.6020 Y47.4424 F60.00
G01 X12.5557 Y47.4182 F60.00
G01 X12.4695 Y47.4020 F60.00
G01 X12.2073 Y47.4020 F60.00
G01 X12.2073 Y42.9670 F60.00
G01 X12.9280 Y42.9646 F60.00
G01 X12.9803 Y42.9508 F60.00
G01 X13.0427 Y42.9147 F60.00
G01 X13.0912 Y42.8620 F60.00
G01 X13.1216 Y42.7977 F60.00
G01 X13.1316 Y42.7295 F60.00
G01 X13.1316 Y40.7295 F60.00
G01 X13.1216 Y40.6613 F60.00
G01 X13.0912 Y40.5970 F60.00
G01 X13.0427 Y40.5443 F60.00
G01 X12.9803 Y40.5082 F60.00
G01 X12.8941 Y40.4920 F60.00
G01 X10.8941 Y40.4920 F60.00
G01 X10.8259 Y40.5020 F60.00
G01 X10.7616 Y40.5324 F60.00
G01 X10.7089 Y40.5809 F60.00
G01 X10.6728 Y40.6433 F60.00
G01 X10.6566 Y40.7295 F60.00
G01 X10.6566 Y42.7295 F60.00
G01 X10.6728 Y42.8157 F60.00
G01 X10.6970 Y42.8620 F60.00
G01 X10.7317 Y42.9024 F60.00
G01 X10.7317 Y47.4020 F60.00
G01 X10.4695 Y47.4020 F60.00
G01 X10.4013 Y47.4120 F60.00
G00 Z2.0000
G00 X-0.1951 Y57.2142
G01 F60.00
G01 Z-0.1200
G01 F60.00
G01 X-0.1157 Y57.3124 F60.00
G01 X-0.0689 Y57.3507 F60.00
G01 X-0.0274 Y57.3713 F60.00
G01 X0.0571 Y57.3969 F60.00
G01 X0.1240 Y57.4065 F60.00
G01 X79.8850 Y57.4065 F60.00
G01 X79.9870 Y57.3899 F60.00
G01 X80.0712 Y57.3534 F60.00
G01 X80.1524 Y57.2847 F60.00
G01 X80.2000 Y57.2216 F60.00
G01 X80.2380 Y57.1081 F60.00
G01 X80.2465 Y57.0450 F60.00
G01 X80.2465 Y0.1240 F60.00
G01 X80.2299 Y0.0220 F60.00
G01 X80.1934 Y-0.0622 F60.00
G01 X80.1247 Y-0.1434 F60.00
G01 X80.0616 Y-0.1910 F60.00
G01 X79.9519 Y-0.2279 F60.00
G01 X79.8850 Y-0.2375 F60.00
G01 X0.1240 Y-0.2375 F60.00
G01 X0.0220 Y-0.2209 F60.00
G01 X-0.0622 Y-0.1844 F60.00
G01 X-0.1434 Y-0.1157 F60.00
G01 X-0.1910 Y-0.0526 F60.00
G01 X-0.2279 Y0.0571 F60.00
G01 X-0.2375 Y0.1240 F60.00
G01 X-0.2375 Y57.0450 F60.00
G01 X-0.2209 Y57.1470 F60.00
G01 X-0.1951 Y57.2142 F60.00
G00 Z2.0000
G00 X29.9763 Y53.6442
G01 F60.00
G01 Z-0.1200
G01 F60.00
G01 X30.0216 Y53.5836 F60.00
G01 X30.0822 Y53.5383 F60.00
G01 X30.1743 Y53.5085 F60.00
G01 X32.2446 Y53.5085 F60.00
G01 X32.3862 Y53.5547 F60.00
G01 X32.4531 Y53.5643 F60.00
G01 X32.5803 Y53.5523 F60.00
G01 X32.7143 Y53.5085 F60.00
G01 X34.7846 Y53.5085 F60.00
G01 X34.9262 Y53.5547 F60.00
G01 X34.9931 Y53.5643 F60.00
G01 X35.1203 Y53.5523 F60.00
G01 X35.2543 Y53.5085 F60.00
G01 X37.3246 Y53.5085 F60.00
G01 X37.4662 Y53.5547 F60.00
G01 X37.5331 Y53.5643 F60.00
G01 X37.6603 Y53.5523 F60.00
G01 X37.7943 Y53.5085 F60.00
G01 X39.8646 Y53.5085 F60.00
G01 X40.0062 Y53.5547 F60.00
G01 X40.0731 Y53.5643 F60.00
G01 X40.2003 Y53.5523 F60.00
G01 X40.3343 Y53.5085 F60.00
G01 X42.4046 Y53.5085 F60.00
G01 X42.5462 Y53.5547 F60.00
G01 X42.6131 Y53.5643 F60.00
G01 X42.7403 Y53.5523 F60.00
G01 X42.8743 Y53.5085 F60.00
G01 X44.9619 Y53.5103 F60.00
G01 X45.0368 Y53.5383 F60.00
G01 X45.0974 Y53.5836 F60.00
G01 X45.1427 Y53.6442 F60.00
G01 X45.1725 Y53.7364 F60.00
G01 X45.1706 Y55.8239 F60.00
G01 X45.1427 Y55.8988 F60.00
G01 X45.0974 Y55.9594 F60.00
G01 X45.0368 Y56.0047 F60.00
G01 X44.9446 Y56.0345 F60.00
G01 X42.8743 Y56.0345 F60.00
G01 X42.7328 Y55.9883 F60.00
G01 X42.6658 Y55.9786 F60.00
G01 X42.5386 Y55.9907 F60.00
G01 X42.4046 Y56.0345 F60.00
G01 X40.3343 Y56.0345 F60.00
G01 X40.1928 Y55.9883 F60.00
G01 X40.1258 Y55.9786 F60.00
G01 X39.9986 Y55.9907 F60.00
G01 X39.8646 Y56.0345 F60.00
G01 X37.7943 Y56.0345 F60.00
G01 X37.6528 Y55.9883 F60.00
G01 X37.5858 Y55.9786 F60.00
G01 X37.4586 Y55.9907 F60.00
G01 X37.3246 Y56.0345 F60.00
G01 X35.2543 Y56.0345 F60.00
G01 X35.1128 Y55.9883 F60.00
G01 X35.0458 Y55.9786 F60.00
G01 X34.9186 Y55.9907 F60.00
G01 X34.7846 Y56.0345 F60.00
G01 X32.7143 Y56.0345 F60.00
G01 X32.5728 Y55.9883 F60.00
G01 X32.5058 Y55.9786 F60.00
G01 X32.3786 Y55.9907 F60.00
G01 X32.2446 Y56.0345 F60.00
G01 X30.1571 Y56.0326 F60.00
G01 X30.0821 Y56.0047 F60.00
G01 X30.0216 Y55.9594 F60.00
G01 X29.9763 Y55.8988 F60.00
G01 X29.9465 Y55.8066 F60.00
G01 X29.9465 Y53.7363 F60.00
G01 X29.9763 Y53.6442 F60.00
G00 Z2.0000
G00 X32.4341 Y55.8481
G01 F60.00
G01 Z-0.1200
G01 F60.00
G01 X32.4470 Y55.7715 F60.00
G01 X32.4470 Y53.7715 F60.00
G01 X32.4308 Y53.6853 F60.00
G01 X32.4066 Y53.6390 F60.00
G01 X32.3774 Y53.6036 F60.00
G01 X32.3419 Y53.5744 F60.00
G01 X32.2957 Y53.5502 F60.00
G01 X32.2095 Y53.5340 F60.00
G01 X30.2095 Y53.5340 F60.00
G01 X30.1233 Y53.5502 F60.00
G01 X30.0770 Y53.5744 F60.00
G01 X30.0416 Y53.6036 F60.00
G01 X30.0124 Y53.6390 F60.00
G01 X29.9882 Y53.6853 F60.00
G01 X29.9720 Y53.7715 F60.00
G01 X29.9720 Y55.7715 F60.00
G01 X29.9882 Y55.8577 F60.00
G01 X30.0124 Y55.9039 F60.00
G01 X30.0416 Y55.9394 F60.00
G01 X30.0770 Y55.9686 F60.00
G01 X30.1233 Y55.9928 F60.00
G01 X30.2095 Y56.0090 F60.00
G01 X32.2095 Y56.0090 F60.00
G01 X32.2777 Y55.9990 F60.00
G01 X32.3419 Y55.9686 F60.00
G01 X32.3947 Y55.9201 F60.00
G01 X32.4341 Y55.8481 F60.00
G00 Z2.0000
G00 X34.9723 Y55.8538
G01 F60.00
G01 Z-0.1200
G01 F60.00
G01 X34.9870 Y55.7715 F60.00
G01 X34.9870 Y53.7715 F60.00
G01 X34.9708 Y53.6853 F60.00
G01 X34.9466 Y53.6390 F60.00
G01 X34.9174 Y53.6036 F60.00
G01 X34.8819 Y53.5744 F60.00
G01 X34.8357 Y53.5502 F60.00
G01 X34.7495 Y53.5340 F60.00
G01 X32.7495 Y53.5340 F60.00
G01 X32.6633 Y53.5502 F60.00
G01 X32.6170 Y53.5744 F60.00
G01 X32.5816 Y53.6036 F60.00
G01 X32.5524 Y53.6390 F60.00
G01 X32.5282 Y53.6853 F60.00
G01 X32.5120 Y53.7715 F60.00
G01 X32.5120 Y55.7715 F60.00
G01 X32.5282 Y55.8577 F60.00
G01 X32.5524 Y55.9039 F60.00
G01 X32.5816 Y55.9394 F60.00
G01 X32.6170 Y55.9686 F60.00
G01 X32.6633 Y55.9928 F60.00
G01 X32.7495 Y56.0090 F60.00
G01 X34.7495 Y56.0090 F60.00
G01 X34.8177 Y55.9990 F60.00
G01 X34.8819 Y55.9686 F60.00
G01 X34.9347 Y55.9201 F60.00
G01 X34.9723 Y55.8538 F60.00
G00 Z2.0000
G00 X37.5141 Y55.8481
G01 F60.00
G01 Z-0.1200
G01 F60.00
G01 X37.5270 Y55.7715 F60.00
G01 X37.5270 Y53.7715 F60.00
G01 X37.5108 Y53.6853 F60.00
G01 X37.4866 Y53.6390 F60.00
G01 X37.4574 Y53.6036 F60.00
G01 X37.4219 Y53.5744 F60.00
G01 X37.3757 Y53.5502 F60.00
G01 X37.2895 Y53.5340 F60.00
G01 X35.2895 Y53.5340 F60.00
G01 X35.2033 Y53.5502 F60.00
G01 X35.1570 Y53.5744 F60.00
G01 X35.1216 Y53.6036 F60.00
G01 X35.0924 Y53.6390 F60.00
G01 X35.0682 Y53.6853 F60.00
G01 X35.0520 Y53.7715 F60.00
G01 X35.0520 Y55.7715 F60.00
G01 X35.0682 Y55.8577 F60.00
G01 X35.0924 Y55.9039 F60.00
G01 X35.1216 Y55.9394 F60.00
G01 X35.1570 Y55.9686 F60.00
G01 X35.2033 Y55.9928 F60.00
G01 X35.2895 Y56.0090 F60.00
G01 X37.2895 Y56.0090 F60.00
G01 X37.3577 Y55.9990 F60.00
G01 X37.4219 Y55.9686 F60.00
G01 X37.4747 Y55.9201 F60.00
G01 X37.5141 Y55.8481 F60.00
G00 Z2.0000
G00 X40.0523 Y55.8538
G01 F60.00
G01 Z-0.1200
G01 F60.00
G01 X40.0670 Y55.7715 F60.00
G01 X40.0670 Y53.7715 F60.00
G01 X40.0508 Y53.6853 F60.00
G01 X40.0266 Y53.6390 F60.00
G01 X39.9974 Y53.6036 F60.00
G01 X39.9619 Y53.5744 F60.00
G01 X39.9157 Y53.5502 F60.00
G01 X39.8295 Y53.5340 F60.00
G01 X37.8295 Y53.5340 F60.00
G01 X37.7433 Y53.5502 F60.00
G01 X37.6970 Y53.5744 F60.00
G01 X37.6616 Y53.6036 F60.00
G01 X37.6324 Y53.6390 F60.00
G01 X37.6082 Y53.6853 F60.00
G01 X37.5920 Y53.7715 F60.00
G01 X37.5920 Y55.7715 F60.00
G01 X37.6082 Y55.8577 F60.00
G01 X37.6324 Y55.9039 F60.00
G01 X37.6616 Y55.9394 F60.00
G01 X37.6970 Y55.9686 F60.00
G01 X37.7433 Y55.9928 F60.00
G01 X37.8295 Y56.0090 F60.00
G01 X39.8295 Y56.0090 F60.00
G01 X39.8977 Y55.9990 F60.00
G01 X39.9619 Y55.9686 F60.00
G01 X40.0147 Y55.9201 F60.00
G01 X40.0523 Y55.8538 F60.00
G00 Z2.0000
G00 X42.5941 Y55.8481
G01 F60.00
G01 Z-0.1200
G01 F60.00
G01 X42.6070 Y55.7715 F60.00
G01 X42.6070 Y53.7715 F60.00
G01 X42.5908 Y53.6853 F60.00
G01 X42.5666 Y53.6390 F60.00
G01 X42.5374 Y53.6036 F60.00
G01 X42.5019 Y53.5744 F60.00
G01 X42.4557 Y53.5502 F60.00
G01 X42.3695 Y53.5340 F60.00
G01 X40.3695 Y53.5340 F60.00
G01 X40.2833 Y53.5502 F60.00
G01 X40.2370 Y53.5744 F60.00
G01 X40.2016 Y53.6036 F60.00
G01 X40.1724 Y53.6390 F60.00
G01 X40.1482 Y53.6853 F60.00
G01 X40.1320 Y53.7715 F60.00
G01 X40.1320 Y55.7715 F60.00
G01 X40.1482 Y55.8577 F60.00
G01 X40.1724 Y55.9039 F60.00
G01 X40.2016 Y55.9394 F60.00
G01 X40.2370 Y55.9686 F60.00
G01 X40.2833 Y55.9928 F60.00
G01 X40.3695 Y56.0090 F60.00
G01 X42.3695 Y56.0090 F60.00
G01 X42.4377 Y55.9990 F60.00
G01 X42.5019 Y55.9686 F60.00
G01 X42.5547 Y55.9201 F60.00
G01 X42.5941 Y55.8481 F60.00
G00 Z2.0000
G00 X45.1323 Y55.8538
G01 F60.00
G01 Z-0.1200
G01 F60.00
G01 X45.1470 Y55.7715 F60.00
G01 X45.1470 Y53.7715 F60.00
G01 X45.1308 Y53.6853 F60.00
G01 X45.1066 Y53.6390 F60.00
G01 X45.0774 Y53.6036 F60.00
G01 X45.0419 Y53.5744 F60.00
G01 X44.9957 Y53.5502 F60.00
G01 X44.9095 Y53.5340 F60.00
G01 X42.9095 Y53.5340 F60.00
G01 X42.8233 Y53.5502 F60.00
G01 X42.7770 Y53.5744 F60.00
G01 X42.7416 Y53.6036 F60.00
G01 X42.7124 Y53.6390 F60.00
G01 X42.6882 Y53.6853 F60.00
G01 X42.6720 Y53.7715 F60.00
G01 X42.6720 Y55.7715 F60.00
G01 X42.6882 Y55.8577 F60.00
G01 X42.7124 Y55.9039 F60.00
G01 X42.7416 Y55.9394 F60.00
G01 X42.7770 Y55.9686 F60.00
G01 X42.8233 Y55.9928 F60.00
G01 X42.9095 Y56.0090 F60.00
G01 X44.9095 Y56.0090 F60.00
G01 X44.9777 Y55.9990 F60.00
G01 X45.0419 Y55.9686 F60.00
G01 X45.0947 Y55.9201 F60.00
G01 X45.1323 Y55.8538 F60.00
G00 Z2.0000
G00 X47.7563 Y53.6442
G01 F60.00
G01 Z-0.1200
G01 F60.00
G01 X47.8016 Y53.5836 F60.00
G01 X47.8622 Y53.5383 F60.00
G01 X47.9543 Y53.5085 F60.00
G01 X50.0246 Y53.5085 F60.00
G01 X50.1662 Y53.5547 F60.00
G01 X50.2331 Y53.5643 F60.00
G01 X50.3604 Y53.5523 F60.00
G01 X50.4944 Y53.5085 F60.00
G01 X52.5646 Y53.5085 F60.00
G01 X52.6568 Y53.5383 F60.00
G01 X52.7174 Y53.5836 F60.00
G01 X52.7627 Y53.6442 F60.00
G01 X52.7925 Y53.7364 F60.00
G01 X52.7925 Y55.8066 F60.00
G01 X52.7627 Y55.8988 F60.00
G01 X52.7174 Y55.9594 F60.00
G01 X52.6568 Y56.0047 F60.00
G01 X52.5646 Y56.0345 F60.00
G01 X50.4943 Y56.0345 F60.00
G01 X50.3528 Y55.9883 F60.00
G01 X50.2859 Y55.9786 F60.00
G01 X50.1586 Y55.9907 F60.00
G01 X50.0246 Y56.0345 F60.00
G01 X47.9543 Y56.0345 F60.00
G01 X47.8621 Y56.0047 F60.00
G01 X47.8016 Y55.9594 F60.00
G01 X47.7563 Y55.8988 F60.00
G01 X47.7265 Y55.8066 F60.00
G01 X47.7265 Y53.7363 F60.00
G01 X47.7563 Y53.6442 F60.00
G00 Z2.0000
G00 X50.2123 Y55.8538
G01 F60.00
G01 Z-0.1200
G01 F60.00
G01 X50.2270 Y55.7715 F60.00
G01 X50.2270 Y53.7715 F60.00
G01 X50.2108 Y53.6853 F60.00
G01 X50.1866 Y53.6390 F60.00
G01 X50.1574 Y53.6036 F60.00
G01 X50.1219 Y53.5744 F60.00
G01 X50.0757 Y53.5502 F60.00
G01 X49.9895 Y53.5340 F60.00
G01 X47.9895 Y53.5340 F60.00
G01 X47.9033 Y53.5502 F60.00
G01 X47.8570 Y53.5744 F60.00
G01 X47.8216 Y53.6036 F60.00
G01 X47.7924 Y53.6390 F60.00
G01 X47.7682 Y53.6853 F60.00
G01 X47.7520 Y53.7715 F60.00
G01 X47.7520 Y55.7715 F60.00
G01 X47.7682 Y55.8577 F60.00
G01 X47.7924 Y55.9039 F60.00
G01 X47.8216 Y55.9394 F60.00
G01 X47.8570 Y55.9686 F60.00
G01 X47.9033 Y55.9928 F60.00
G01 X47.9895 Y56.0090 F60.00
G01 X49.9895 Y56.0090 F60.00
G01 X50.0577 Y55.9990 F60.00
G01 X50.1219 Y55.9686 F60.00
G01 X50.1747 Y55.9201 F60.00
G01 X50.2123 Y55.8538 F60.00
G00 Z2.0000
G00 X52.7541 Y55.8481
G01 F60.00
G01 Z-0.1200
G01 F60.00
G01 X52.7670 Y55.7715 F60.00
G01 X52.7670 Y53.7715 F60.00
G01 X52.7508 Y53.6853 F60.00
G01 X52.7266 Y53.6390 F60.00
G01 X52.6974 Y53.6036 F60.00
G01 X52.6620 Y53.5744 F60.00
G01 X52.6157 Y53.5502 F60.00
G01 X52.5295 Y53.5340 F60.00
G01 X50.5295 Y53.5340 F60.00
G01 X50.4433 Y53.5502 F60.00
G01 X50.3970 Y53.5744 F60.00
G01 X50.3616 Y53.6036 F60.00
G01 X50.3324 Y53.6390 F60.00
G01 X50.3082 Y53.6853 F60.00
G01 X50.2920 Y53.7715 F60.00
G01 X50.2920 Y55.7715 F60.00
G01 X50.3082 Y55.8577 F60.00
G01 X50.3324 Y55.9039 F60.00
G01 X50.3616 Y55.9394 F60.00
G01 X50.3970 Y55.9686 F60.00
G01 X50.4433 Y55.9928 F60.00
G01 X50.5295 Y56.0090 F60.00
G01 X52.5295 Y56.0090 F60.00
G01 X52.5977 Y55.9990 F60.00
G01 X52.6620 Y55.9686 F60.00
G01 X52.7147 Y55.9201 F60.00
G01 X52.7541 Y55.8481 F60.00
G00 Z2.0000
G00 X60.3741 Y55.8481
G01 F60.00
G01 Z-0.1200
G01 F60.00
G01 X60.3870 Y55.7715 F60.00
G01 X60.3870 Y53.7715 F60.00
G01 X60.3708 Y53.6853 F60.00
G01 X60.3466 Y53.6390 F60.00
G01 X60.3174 Y53.6036 F60.00
G01 X60.2820 Y53.5744 F60.00
G01 X60.2357 Y53.5502 F60.00
G01 X60.1495 Y53.5340 F60.00
G01 X58.1495 Y53.5340 F60.00
G01 X58.0633 Y53.5502 F60.00
G01 X58.0170 Y53.5744 F60.00
G01 X57.9816 Y53.6036 F60.00
G01 X57.9524 Y53.6390 F60.00
G01 X57.9282 Y53.6853 F60.00
G01 X57.9120 Y53.7715 F60.00
G01 X57.9120 Y55.7715 F60.00
G01 X57.9282 Y55.8577 F60.00
G01 X57.9524 Y55.9039 F60.00
G01 X57.9816 Y55.9394 F60.00
G01 X58.0170 Y55.9686 F60.00
G01 X58.0633 Y55.9928 F60.00
G01 X58.1495 Y56.0090 F60.00
G01 X60.1495 Y56.0090 F60.00
G01 X60.2177 Y55.9990 F60.00
G01 X60.2820 Y55.9686 F60.00
G01 X60.3347 Y55.9201 F60.00
G01 X60.3741 Y55.8481 F60.00
G00 Z2.0000
G00 X62.9123 Y55.8538
G01 F60.00
G01 Z-0.1200
G01 F60.00
G01 X62.9270 Y55.7715 F60.00
G01 X62.9270 Y53.7715 F60.00
G01 X62.9108 Y53.6853 F60.00
G01 X62.8866 Y53.6390 F60.00
G01 X62.8574 Y53.6036 F60.00
G01 X62.8220 Y53.5744 F60.00
G01 X62.7757 Y53.5502 F60.00
G01 X62.6895 Y53.5340 F60.00
G01 X60.6895 Y53.5340 F60.00
G01 X60.6033 Y53.5502 F60.00
G01 X60.5570 Y53.5744 F60.00
G01 X60.5216 Y53.6036 F60.00
G01 X60.4924 Y53.6390 F60.00
G01 X60.4682 Y53.6853 F60.00
G01 X60.4520 Y53.7715 F60.00
G01 X60.4520 Y55.7715 F60.00
G01 X60.4682 Y55.8577 F60.00
G01 X60.4924 Y55.9039 F60.00
G01 X60.5216 Y55.9394 F60.00
G01 X60.5570 Y55.9686 F60.00
G01 X60.6033 Y55.9928 F60.00
G01 X60.6895 Y56.0090 F60.00
G01 X62.6895 Y56.0090 F60.00
G01 X62.7577 Y55.9990 F60.00
G01 X62.8220 Y55.9686 F60.00
G01 X62.8747 Y55.9201 F60.00
G01 X62.9123 Y55.8538 F60.00
G00 Z2.0000
G00 X65.4523 Y55.8538
G01 F60.00
G01 Z-0.1200
G01 F60.00
G01 X65.4670 Y55.7715 F60.00
G01 X65.4670 Y53.7715 F60.00
G01 X65.4508 Y53.6853 F60.00
G01 X65.4266 Y53.6390 F60.00
G01 X65.3974 Y53.6036 F60.00
G01 X65.3620 Y53.5744 F60.00
G01 X65.3157 Y53.5502 F60.00
G01 X65.2295 Y53.5340 F60.00
G01 X63.2295 Y53.5340 F60.00
G01 X63.1433 Y53.5502 F60.00
G01 X63.0970 Y53.5744 F60.00
G01 X63.0616 Y53.6036 F60.00
G01 X63.0324 Y53.6390 F60.00
G01 X63.0082 Y53.6853 F60.00
G01 X62.9920 Y53.7715 F60.00
G01 X62.9920 Y55.7715 F60.00
G01 X63.0082 Y55.8577 F60.00
G01 X63.0324 Y55.9039 F60.00
G01 X63.0616 Y55.9394 F60.00
G01 X63.0970 Y55.9686 F60.00
G01 X63.1433 Y55.9928 F60.00
G01 X63.2295 Y56.0090 F60.00
G01 X65.2295 Y56.0090 F60.00
G01 X65.2977 Y55.9990 F60.00
G01 X65.3620 Y55.9686 F60.00
G01 X65.4147 Y55.9201 F60.00
G01 X65.4523 Y55.8538 F60.00
G00 Z2.0000
G00 X67.9941 Y55.8481
G01 F60.00
G01 Z-0.1200
G01 F60.00
G01 X68.0070 Y55.7715 F60.00
G01 X68.0070 Y53.7715 F60.00
G01 X67.9908 Y53.6853 F60.00
G01 X67.9666 Y53.6390 F60.00
G01 X67.9374 Y53.6036 F60.00
G01 X67.9020 Y53.5744 F60.00
G01 X67.8557 Y53.5502 F60.00
G01 X67.7695 Y53.5340 F60.00
G01 X65.7695 Y53.5340 F60.00
G01 X65.6833 Y53.5502 F60.00
G01 X65.6370 Y53.5744 F60.00
G01 X65.6016 Y53.6036 F60.00
G01 X65.5724 Y53.6390 F60.00
G01 X65.5482 Y53.6853 F60.00
G01 X65.5320 Y53.7715 F60.00
G01 X65.5320 Y55.7715 F60.00
G01 X65.5482 Y55.8577 F60.00
G01 X65.5724 Y55.9039 F60.00
G01 X65.6016 Y55.9394 F60.00
G01 X65.6370 Y55.9686 F60.00
G01 X65.6833 Y55.9928 F60.00
G01 X65.7695 Y56.0090 F60.00
G01 X67.7695 Y56.0090 F60.00
G01 X67.8377 Y55.9990 F60.00
G01 X67.9020 Y55.9686 F60.00
G01 X67.9547 Y55.9201 F60.00
G01 X67.9941 Y55.8481 F60.00
G00 Z2.0000
M05
G00 Z2.0000
G00 Z15.00


