(G-code generated by FlatCAM Evo vUnstable - Version Date: 2023/6/31)

(Name: CEWBPCBDesign-PTH.drl_edit_cnc)
(Type: G-code from Excellon)
(Units: MM)

(Created on Wednesday, 04 March 2026 at 16:07)

(This preprocessor is used with a motion controller loaded with GRBL firmware.)
(It is configured to be compatible with almost any version of GRBL firmware. No M6 command.)


(TOOLS DIAMETER: )
(Tool: 1 -> Dia: 1.0)

(FEEDRATE Z: )
(Tool: 1 -> Feedrate: 300)

(FEEDRATE RAPIDS: )
(Tool: 1 -> Feedrate Rapids: 1500)

(Z_CUT: )
(Tool: 1 -> Z_Cut: -3.0)

(Tools Offset: )
(Tool: 1 -> Offset Z: 0.0)

(Z_MOVE: )
(Tool: 1 -> Z_Move: 2)

(Z Start: None mm)
(Z End: 15 mm)
(X,Y End: None mm)
(Steps per circle: 16)
(Steps per circle: 16)
(Preprocessor Excellon: GRBL_11_no_M6)

(X range:    3.7595 ...   81.0805  mm)
(Y range:    4.4395 ...   52.8325  mm)

(Spindle Speed: 0 RPM)
G21
G90
G17
G94


G01 F300.00
G00 Z2.0000

M03
G00 X80.5805 Y26.4795
G01 Z-3.0000
G01 Z0
G00 Z2.0000
G00 X77.0745 Y26.4795
G01 Z-3.0000
G01 Z0
G00 Z2.0000
G00 X71.9445 Y26.4795
G01 Z-3.0000
G01 Z0
G00 Z2.0000
G00 X68.4385 Y26.4795
G01 Z-3.0000
G01 Z0
G00 Z2.0000
G00 X75.2645 Y36.5725
G01 Z-3.0000
G01 Z0
G00 Z2.0000
G00 X75.2645 Y39.1125
G01 Z-3.0000
G01 Z0
G00 Z2.0000
G00 X75.1245 Y49.7925
G01 Z-3.0000
G01 Z0
G00 Z2.0000
G00 X75.1245 Y52.3325
G01 Z-3.0000
G01 Z0
G00 Z2.0000
G00 X33.4295 Y50.9895
G01 Z-3.0000
G01 Z0
G00 Z2.0000
G00 X33.4295 Y45.9095
G01 Z-3.0000
G01 Z0
G00 Z2.0000
G00 X12.9895 Y49.6435
G01 Z-3.0000
G01 Z0
G00 Z2.0000
G00 X12.9895 Y47.1035
G01 Z-3.0000
G01 Z0
G00 Z2.0000
G00 X12.9895 Y44.5635
G01 Z-3.0000
G01 Z0
G00 Z2.0000
G00 X12.9895 Y42.0235
G01 Z-3.0000
G01 Z0
G00 Z2.0000
G00 X12.9895 Y39.4835
G01 Z-3.0000
G01 Z0
G00 Z2.0000
G00 X12.9895 Y36.9435
G01 Z-3.0000
G01 Z0
G00 Z2.0000
G00 X12.9895 Y34.4035
G01 Z-3.0000
G01 Z0
G00 Z2.0000
G00 X12.9895 Y31.8635
G01 Z-3.0000
G01 Z0
G00 Z2.0000
G00 X12.9895 Y29.3235
G01 Z-3.0000
G01 Z0
G00 Z2.0000
G00 X4.8095 Y32.7195
G01 Z-3.0000
G01 Z0
G00 Z2.0000
G00 X4.8095 Y30.1795
G01 Z-3.0000
G01 Z0
G00 Z2.0000
G00 X4.8095 Y27.6395
G01 Z-3.0000
G01 Z0
G00 Z2.0000
G00 X4.8095 Y25.0995
G01 Z-3.0000
G01 Z0
G00 Z2.0000
G00 X4.2595 Y14.6795
G01 Z-3.0000
G01 Z0
G00 Z2.0000
G00 X4.2595 Y12.1395
G01 Z-3.0000
G01 Z0
G00 Z2.0000
G00 X4.2595 Y9.5995
G01 Z-3.0000
G01 Z0
G00 Z2.0000
G00 X4.2595 Y7.0595
G01 Z-3.0000
G01 Z0
G00 Z2.0000
G00 X12.9895 Y4.9395
G01 Z-3.0000
G01 Z0
G00 Z2.0000
G00 X12.9895 Y7.4795
G01 Z-3.0000
G01 Z0
G00 Z2.0000
G00 X12.9895 Y10.0195
G01 Z-3.0000
G01 Z0
G00 Z2.0000
G00 X12.9895 Y12.5595
G01 Z-3.0000
G01 Z0
G00 Z2.0000
G00 X12.9895 Y15.0995
G01 Z-3.0000
G01 Z0
G00 Z2.0000
G00 X12.9895 Y17.6395
G01 Z-3.0000
G01 Z0
G00 Z2.0000
G00 X12.9895 Y20.1795
G01 Z-3.0000
G01 Z0
G00 Z2.0000
G00 X12.9895 Y22.7195
G01 Z-3.0000
G01 Z0
G00 Z2.0000
G00 X12.9895 Y26.7835
G01 Z-3.0000
G01 Z0
G00 Z2.0000
G00 X27.1695 Y27.9495
G01 Z-3.0000
G01 Z0
G00 Z2.0000
G00 X27.1695 Y33.0295
G01 Z-3.0000
G01 Z0
G00 Z2.0000
G00 X61.2495 Y40.4995
G01 Z-3.0000
G01 Z0
G00 Z2.0000
G00 X61.2495 Y37.9595
G01 Z-3.0000
G01 Z0
G00 Z2.0000
G00 X61.2495 Y35.4195
G01 Z-3.0000
G01 Z0
G00 Z2.0000
G00 X61.2495 Y32.8795
G01 Z-3.0000
G01 Z0
G00 Z2.0000
G00 X61.2495 Y30.3395
G01 Z-3.0000
G01 Z0
G00 Z2.0000
G00 X61.2495 Y27.7995
G01 Z-3.0000
G01 Z0
G00 Z2.0000
G00 X61.2495 Y25.2595
G01 Z-3.0000
G01 Z0
G00 Z2.0000
G00 X61.2495 Y22.7195
G01 Z-3.0000
G01 Z0
G00 Z2.0000
G00 X61.2495 Y17.6395
G01 Z-3.0000
G01 Z0
G00 Z2.0000
G00 X61.2495 Y15.0995
G01 Z-3.0000
G01 Z0
G00 Z2.0000
G00 X61.2495 Y12.5595
G01 Z-3.0000
G01 Z0
G00 Z2.0000
G00 X61.2495 Y10.0195
G01 Z-3.0000
G01 Z0
G00 Z2.0000
G00 X61.2495 Y7.4795
G01 Z-3.0000
G01 Z0
G00 Z2.0000
G00 X61.2495 Y4.9395
G01 Z-3.0000
G01 Z0
G00 Z2.0000
G00 X70.6995 Y8.6995
G01 Z-3.0000
G01 Z0
G00 Z2.0000
G00 X73.2395 Y8.6995
G01 Z-3.0000
G01 Z0
G00 Z2.0000
G00 X75.7795 Y8.6995
G01 Z-3.0000
G01 Z0
G00 Z2.0000
G00 X78.3195 Y8.6995
G01 Z-3.0000
G01 Z0
G00 Z2.0000
M05
G00 Z15.00


