(G-code generated by FlatCAM Evo vUnstable - Version Date: 2023/6/31)

(Name: CEWBPCBDesign-PTH.drl_edit_cnc)
(Type: G-code from Excellon)
(Units: MM)

(Created on Saturday, 28 February 2026 at 23:11)

(This preprocessor is used with a motion controller loaded with GRBL firmware.)
(It is configured to be compatible with almost any version of GRBL firmware. No M6 command.)


(TOOLS DIAMETER: )
(Tool: 1 -> Dia: 1.0)

(FEEDRATE Z: )
(Tool: 1 -> Feedrate: 300)

(FEEDRATE RAPIDS: )
(Tool: 1 -> Feedrate Rapids: 1500)

(Z_CUT: )
(Tool: 1 -> Z_Cut: -3.0)

(Tools Offset: )
(Tool: 1 -> Offset Z: 0.0)

(Z_MOVE: )
(Tool: 1 -> Z_Move: 2)

(Z Start: None mm)
(Z End: 15 mm)
(X,Y End: None mm)
(Steps per circle: 16)
(Steps per circle: 16)
(Preprocessor Excellon: GRBL_11_no_M6)

(X range:    4.5395 ...   91.8795  mm)
(Y range:    3.8095 ...   61.9595  mm)

(Spindle Speed: 0 RPM)
G21
G90
G17
G94


G01 F300.00
G00 Z2.0000

M03
G00 X91.3795 Y61.4595
G01 Z-3.0000
G01 Z0
G00 Z2.0000
G00 X88.8395 Y61.4595
G01 Z-3.0000
G01 Z0
G00 Z2.0000
G00 X78.1595 Y61.3195
G01 Z-3.0000
G01 Z0
G00 Z2.0000
G00 X75.6195 Y61.3195
G01 Z-3.0000
G01 Z0
G00 Z2.0000
G00 X13.7695 Y49.0135
G01 Z-3.0000
G01 Z0
G00 Z2.0000
G00 X13.7695 Y46.4735
G01 Z-3.0000
G01 Z0
G00 Z2.0000
G00 X13.7695 Y43.9335
G01 Z-3.0000
G01 Z0
G00 Z2.0000
G00 X13.7695 Y41.3935
G01 Z-3.0000
G01 Z0
G00 Z2.0000
G00 X13.7695 Y38.8535
G01 Z-3.0000
G01 Z0
G00 Z2.0000
G00 X13.7695 Y36.3135
G01 Z-3.0000
G01 Z0
G00 Z2.0000
G00 X13.7695 Y33.7735
G01 Z-3.0000
G01 Z0
G00 Z2.0000
G00 X13.7695 Y31.2335
G01 Z-3.0000
G01 Z0
G00 Z2.0000
G00 X13.7695 Y28.6935
G01 Z-3.0000
G01 Z0
G00 Z2.0000
G00 X13.7695 Y26.1535
G01 Z-3.0000
G01 Z0
G00 Z2.0000
G00 X5.5895 Y32.0895
G01 Z-3.0000
G01 Z0
G00 Z2.0000
G00 X5.5895 Y29.5495
G01 Z-3.0000
G01 Z0
G00 Z2.0000
G00 X5.5895 Y27.0095
G01 Z-3.0000
G01 Z0
G00 Z2.0000
G00 X5.5895 Y24.4695
G01 Z-3.0000
G01 Z0
G00 Z2.0000
G00 X5.0395 Y14.0495
G01 Z-3.0000
G01 Z0
G00 Z2.0000
G00 X5.0395 Y11.5095
G01 Z-3.0000
G01 Z0
G00 Z2.0000
G00 X5.0395 Y8.9695
G01 Z-3.0000
G01 Z0
G00 Z2.0000
G00 X5.0395 Y6.4295
G01 Z-3.0000
G01 Z0
G00 Z2.0000
G00 X13.7695 Y4.3095
G01 Z-3.0000
G01 Z0
G00 Z2.0000
G00 X13.7695 Y6.8495
G01 Z-3.0000
G01 Z0
G00 Z2.0000
G00 X13.7695 Y9.3895
G01 Z-3.0000
G01 Z0
G00 Z2.0000
G00 X13.7695 Y11.9295
G01 Z-3.0000
G01 Z0
G00 Z2.0000
G00 X13.7695 Y14.4695
G01 Z-3.0000
G01 Z0
G00 Z2.0000
G00 X13.7695 Y17.0095
G01 Z-3.0000
G01 Z0
G00 Z2.0000
G00 X13.7695 Y19.5495
G01 Z-3.0000
G01 Z0
G00 Z2.0000
G00 X13.7695 Y22.0895
G01 Z-3.0000
G01 Z0
G00 Z2.0000
G00 X62.0295 Y4.3095
G01 Z-3.0000
G01 Z0
G00 Z2.0000
G00 X62.0295 Y6.8495
G01 Z-3.0000
G01 Z0
G00 Z2.0000
G00 X62.0295 Y9.3895
G01 Z-3.0000
G01 Z0
G00 Z2.0000
G00 X62.0295 Y11.9295
G01 Z-3.0000
G01 Z0
G00 Z2.0000
G00 X62.0295 Y14.4695
G01 Z-3.0000
G01 Z0
G00 Z2.0000
G00 X62.0295 Y17.0095
G01 Z-3.0000
G01 Z0
G00 Z2.0000
G00 X62.0295 Y22.0895
G01 Z-3.0000
G01 Z0
G00 Z2.0000
G00 X62.0295 Y24.6295
G01 Z-3.0000
G01 Z0
G00 Z2.0000
G00 X62.0295 Y27.1695
G01 Z-3.0000
G01 Z0
G00 Z2.0000
G00 X62.0295 Y29.7095
G01 Z-3.0000
G01 Z0
G00 Z2.0000
G00 X62.0295 Y32.2495
G01 Z-3.0000
G01 Z0
G00 Z2.0000
G00 X62.0295 Y34.7895
G01 Z-3.0000
G01 Z0
G00 Z2.0000
G00 X62.0295 Y37.3295
G01 Z-3.0000
G01 Z0
G00 Z2.0000
G00 X62.0295 Y39.8695
G01 Z-3.0000
G01 Z0
G00 Z2.0000
G00 X79.4595 Y35.7015
G01 Z-3.0000
G01 Z0
G00 Z2.0000
G00 X81.9995 Y35.7015
G01 Z-3.0000
G01 Z0
G00 Z2.0000
G00 X84.5395 Y35.7015
G01 Z-3.0000
G01 Z0
G00 Z2.0000
G00 X87.0795 Y35.7015
G01 Z-3.0000
G01 Z0
G00 Z2.0000
G00 X77.1985 Y53.4815
G01 Z-3.0000
G01 Z0
G00 Z2.0000
G00 X80.7045 Y53.4815
G01 Z-3.0000
G01 Z0
G00 Z2.0000
G00 X85.8345 Y53.4815
G01 Z-3.0000
G01 Z0
G00 Z2.0000
G00 X89.3405 Y53.4815
G01 Z-3.0000
G01 Z0
G00 Z2.0000
M05
G00 Z15.00


