(G-code generated by FlatCAM Evo vUnstable - Version Date: 2023/6/31)

(Name: CEWBPCBDesign-B_Cu.gbr_iso_combined_cnc)
(Type: G-code from Geometry)
(Units: MM)

(Created on Saturday, 28 February 2026 at 23:09)

(This preprocessor is used with a motion controller loaded with GRBL firmware.)
(It is configured to be compatible with almost any version of GRBL firmware. No M6 command.)

(TOOL DIAMETER: 0.475 mm)
(Feedrate_XY: 60.0 mm/min)
(Feedrate_Z: 60.0 mm/min)
(Feedrate rapids 1500.0 mm/min)

(Z_Cut: -0.12 mm)
(Z_Move: 2.0 mm)
(Z Start: None mm)
(Z End: 15.0 mm)
(X,Y End: None mm)
(Steps per circle: 16)
(Steps per circle: 16)
(Preprocessor Geometry: GRBL_11_no_M6)

(X range:   -0.2375 ...   94.8565  mm)
(Y range:   -0.2375 ...   64.2565  mm)

(Spindle Speed: 0.0 RPM)
G21
G90
G17
G94


G01 F60.00
G00 Z2.0000

M03
G01 F60.00
G00 X3.8061 Y7.8427
G01 F60.00
G01 Z-0.1200
G01 F60.00
G01 X3.9056 Y7.7128 F60.00
G01 X3.9531 Y7.6207 F60.00
G01 X3.9675 Y7.5546 F60.00
G01 X3.9598 Y7.4286 F60.00
G01 X3.9265 Y7.3146 F60.00
G01 X3.9265 Y5.5444 F60.00
G01 X3.9563 Y5.4522 F60.00
G01 X4.0016 Y5.3916 F60.00
G01 X4.0622 Y5.3463 F60.00
G01 X4.1544 Y5.3165 F60.00
G01 X4.9813 Y5.3116 F60.00
G01 X5.0535 Y5.2899 F60.00
G01 X5.1626 Y5.2258 F60.00
G01 X9.4131 Y0.9768 F60.00
G01 X9.5381 Y0.8933 F60.00
G01 X9.6769 Y0.8358 F60.00
G01 X9.8244 Y0.8065 F60.00
G01 X18.8347 Y0.8065 F60.00
G01 X18.9821 Y0.8358 F60.00
G01 X19.1209 Y0.8933 F60.00
G01 X19.2459 Y0.9768 F60.00
G01 X19.3522 Y1.0831 F60.00
G01 X19.4357 Y1.2081 F60.00
G01 X19.4932 Y1.3469 F60.00
G01 X19.5225 Y1.4943 F60.00
G01 X19.5239 Y26.2091 F60.00
G01 X19.5442 Y26.3029 F60.00
G01 X19.5935 Y26.3950 F60.00
G01 X19.6244 Y26.4353 F60.00
G01 X22.0297 Y28.8406 F60.00
G01 X22.0881 Y28.8880 F60.00
G01 X22.1402 Y28.9136 F60.00
G01 X22.2293 Y28.9398 F60.00
G01 X22.2853 Y28.9465 F60.00
G01 X60.4173 Y28.9465 F60.00
G01 X60.5001 Y28.9352 F60.00
G01 X60.5503 Y28.9187 F60.00
G01 X60.6709 Y28.8366 F60.00
G01 X60.7189 Y28.7742 F60.00
G01 X60.7963 Y28.5822 F60.00
G01 X60.8416 Y28.5216 F60.00
G01 X60.9022 Y28.4763 F60.00
G01 X60.9771 Y28.4484 F60.00
G01 X63.0819 Y28.4484 F60.00
G01 X63.1568 Y28.4763 F60.00
G01 X63.2174 Y28.5216 F60.00
G01 X63.2627 Y28.5822 F60.00
G01 X63.2925 Y28.6744 F60.00
G01 X63.2925 Y30.7447 F60.00
G01 X63.2448 Y30.8913 F60.00
G01 X63.2367 Y30.9489 F60.00
G01 X63.2471 Y31.0733 F60.00
G01 X63.2925 Y31.2144 F60.00
G01 X63.2925 Y33.2847 F60.00
G01 X63.2448 Y33.4313 F60.00
G01 X63.2367 Y33.4889 F60.00
G01 X63.2471 Y33.6133 F60.00
G01 X63.2925 Y33.7544 F60.00
G01 X63.2925 Y35.8247 F60.00
G01 X63.2448 Y35.9713 F60.00
G01 X63.2367 Y36.0289 F60.00
G01 X63.2471 Y36.1533 F60.00
G01 X63.2925 Y36.2944 F60.00
G01 X63.2925 Y38.3647 F60.00
G01 X63.2448 Y38.5113 F60.00
G01 X63.2367 Y38.5689 F60.00
G01 X63.2471 Y38.6933 F60.00
G01 X63.2925 Y38.8344 F60.00
G01 X63.2925 Y40.9047 F60.00
G01 X63.2623 Y40.9979 F60.00
G01 X63.2117 Y41.1083 F60.00
G01 X63.1984 Y41.1958 F60.00
G01 X63.2124 Y41.3015 F60.00
G01 X63.2296 Y41.3552 F60.00
G01 X63.2590 Y41.4033 F60.00
G01 X63.3157 Y41.4691 F60.00
G01 X63.3927 Y41.5254 F60.00
G01 X63.5359 Y41.5654 F60.00
G01 X78.3077 Y41.5665 F60.00
G01 X78.3710 Y41.5608 F60.00
G01 X78.4269 Y41.5448 F60.00
G01 X78.5190 Y41.4955 F60.00
G01 X78.5633 Y41.4606 F60.00
G01 X82.4423 Y37.5816 F60.00
G01 X82.4847 Y37.5284 F60.00
G01 X82.5339 Y37.4213 F60.00
G01 X82.5459 Y37.3662 F60.00
G01 X82.5459 Y37.3211 F60.00
G01 X82.5327 Y37.2295 F60.00
G01 X82.5156 Y37.1758 F60.00
G01 X82.4862 Y37.1277 F60.00
G01 X82.4177 Y37.0498 F60.00
G01 X82.3725 Y37.0160 F60.00
G01 X82.3314 Y36.9972 F60.00
G01 X82.2427 Y36.9712 F60.00
G01 X82.1924 Y36.9646 F60.00
G01 X80.9471 Y36.9626 F60.00
G01 X80.8722 Y36.9347 F60.00
G01 X80.8116 Y36.8894 F60.00
G01 X80.7663 Y36.8288 F60.00
G01 X80.7365 Y36.7366 F60.00
G01 X80.7365 Y34.6664 F60.00
G01 X80.7663 Y34.5742 F60.00
G01 X80.8116 Y34.5136 F60.00
G01 X80.8722 Y34.4683 F60.00
G01 X80.9471 Y34.4404 F60.00
G01 X83.0346 Y34.4385 F60.00
G01 X83.1813 Y34.4862 F60.00
G01 X83.2389 Y34.4943 F60.00
G01 X83.3633 Y34.4839 F60.00
G01 X83.5044 Y34.4385 F60.00
G01 X85.5746 Y34.4385 F60.00
G01 X85.7213 Y34.4862 F60.00
G01 X85.7789 Y34.4943 F60.00
G01 X85.9033 Y34.4839 F60.00
G01 X86.0444 Y34.4385 F60.00
G01 X88.1319 Y34.4404 F60.00
G01 X88.2068 Y34.4683 F60.00
G01 X88.2674 Y34.5136 F60.00
G01 X88.3127 Y34.5742 F60.00
G01 X88.3425 Y34.6664 F60.00
G01 X88.3406 Y36.7539 F60.00
G01 X88.3127 Y36.8288 F60.00
G01 X88.2674 Y36.8894 F60.00
G01 X88.2068 Y36.9347 F60.00
G01 X88.0695 Y36.9832 F60.00
G01 X88.0223 Y37.0070 F60.00
G01 X87.9278 Y37.0875 F60.00
G01 X87.8836 Y37.1528 F60.00
G01 X87.8436 Y37.2959 F60.00
G01 X87.8425 Y37.7767 F60.00
G01 X87.8132 Y37.9241 F60.00
G01 X87.7557 Y38.0629 F60.00
G01 X87.6722 Y38.1879 F60.00
G01 X81.9247 Y43.9353 F60.00
G01 X81.8432 Y44.0449 F60.00
G01 X80.1959 Y45.6922 F60.00
G01 X80.0709 Y45.7757 F60.00
G01 X79.9637 Y45.8201 F60.00
G01 X79.9321 Y45.8332 F60.00
G01 X79.7847 Y45.8625 F60.00
G01 X29.5603 Y45.8625 F60.00
G01 X29.4129 Y45.8332 F60.00
G01 X29.2741 Y45.7757 F60.00
G01 X29.1491 Y45.6922 F60.00
G01 X15.6219 Y32.1649 F60.00
G01 X15.5576 Y32.1142 F60.00
G01 X15.5126 Y32.0907 F60.00
G01 X15.3744 Y32.0600 F60.00
G01 X15.3069 Y32.0648 F60.00
G01 X15.2037 Y32.1008 F60.00
G01 X15.1588 Y32.1246 F60.00
G01 X15.1162 Y32.1615 F60.00
G01 X15.0318 Y32.2837 F60.00
G01 X14.9863 Y32.4102 F60.00
G01 X14.9745 Y32.4819 F60.00
G01 X14.9871 Y32.5973 F60.00
G01 X15.0325 Y32.7384 F60.00
G01 X15.0325 Y34.8087 F60.00
G01 X14.9848 Y34.9553 F60.00
G01 X14.9767 Y35.0129 F60.00
G01 X14.9871 Y35.1373 F60.00
G01 X15.0325 Y35.2784 F60.00
G01 X15.0325 Y37.3487 F60.00
G01 X14.9848 Y37.4953 F60.00
G01 X14.9767 Y37.5529 F60.00
G01 X14.9871 Y37.6773 F60.00
G01 X15.0325 Y37.8184 F60.00
G01 X15.0325 Y39.8887 F60.00
G01 X15.0027 Y39.9808 F60.00
G01 X14.9574 Y40.0414 F60.00
G01 X14.8968 Y40.0867 F60.00
G01 X14.8046 Y40.1165 F60.00
G01 X12.7171 Y40.1146 F60.00
G01 X12.6422 Y40.0867 F60.00
G01 X12.5816 Y40.0414 F60.00
G01 X12.5363 Y39.9808 F60.00
G01 X12.4696 Y39.8053 F60.00
G01 X12.3751 Y39.6942 F60.00
G01 X12.2972 Y39.6492 F60.00
G01 X12.1638 Y39.6168 F60.00
G01 X5.4583 Y39.6165 F60.00
G01 X5.3109 Y39.5872 F60.00
G01 X5.1721 Y39.5297 F60.00
G01 X5.0471 Y39.4462 F60.00
G01 X4.8868 Y39.2859 F60.00
G01 X4.8033 Y39.1609 F60.00
G01 X4.7458 Y39.0221 F60.00
G01 X4.7165 Y38.8746 F60.00
G01 X4.7165 Y38.7244 F60.00
G01 X4.7458 Y38.5769 F60.00
G01 X4.8068 Y38.4267 F60.00
G01 X4.8264 Y38.3161 F60.00
G01 X4.8257 Y33.6874 F60.00
G01 X4.7987 Y33.5687 F60.00
G01 X4.7241 Y33.4566 F60.00
G01 X4.6542 Y33.4001 F60.00
G01 X4.4622 Y33.3227 F60.00
G01 X4.4016 Y33.2774 F60.00
G01 X4.3563 Y33.2168 F60.00
G01 X4.3265 Y33.1246 F60.00
G01 X4.3265 Y31.0544 F60.00
G01 X4.3563 Y30.9622 F60.00
G01 X4.4016 Y30.9016 F60.00
G01 X4.4622 Y30.8563 F60.00
G01 X4.5371 Y30.8284 F60.00
G01 X6.6246 Y30.8265 F60.00
G01 X6.7168 Y30.8563 F60.00
G01 X6.7774 Y30.9016 F60.00
G01 X6.8227 Y30.9622 F60.00
G01 X6.8506 Y31.0371 F60.00
G01 X6.8506 Y33.1419 F60.00
G01 X6.8227 Y33.2168 F60.00
G01 X6.7774 Y33.2774 F60.00
G01 X6.7168 Y33.3227 F60.00
G01 X6.5413 Y33.3894 F60.00
G01 X6.4302 Y33.4839 F60.00
G01 X6.3852 Y33.5618 F60.00
G01 X6.3528 Y33.6952 F60.00
G01 X6.3526 Y37.7354 F60.00
G01 X6.3705 Y37.8368 F60.00
G01 X6.3888 Y37.8868 F60.00
G01 X6.4179 Y37.9315 F60.00
G01 X6.4914 Y38.0128 F60.00
G01 X6.5693 Y38.0578 F60.00
G01 X6.6580 Y38.0838 F60.00
G01 X6.7083 Y38.0904 F60.00
G01 X12.1621 Y38.0903 F60.00
G01 X12.2401 Y38.0792 F60.00
G01 X12.2903 Y38.0627 F60.00
G01 X12.4190 Y37.9727 F60.00
G01 X12.4533 Y37.9280 F60.00
G01 X12.4897 Y37.8522 F60.00
G01 X12.5525 Y37.6780 F60.00
G01 X12.5623 Y37.6141 F60.00
G01 X12.5537 Y37.4963 F60.00
G01 X12.4831 Y37.2916 F60.00
G01 X12.4531 Y37.2411 F60.00
G01 X12.3835 Y37.1618 F60.00
G01 X12.3480 Y37.1339 F60.00
G01 X12.2972 Y37.1092 F60.00
G01 X12.2085 Y37.0832 F60.00
G01 X12.1582 Y37.0766 F60.00
G01 X9.6983 Y37.0765 F60.00
G01 X9.5509 Y37.0472 F60.00
G01 X9.4121 Y36.9897 F60.00
G01 X9.2871 Y36.9062 F60.00
G01 X9.0768 Y36.6959 F60.00
G01 X8.9933 Y36.5709 F60.00
G01 X8.9358 Y36.4321 F60.00
G01 X8.9065 Y36.2847 F60.00
G01 X8.9064 Y28.1489 F60.00
G01 X8.8891 Y28.0469 F60.00
G01 X8.8158 Y27.9164 F60.00
G01 X8.7653 Y27.8655 F60.00
G01 X8.6932 Y27.8147 F60.00
G01 X8.6460 Y27.7961 F60.00
G01 X8.5463 Y27.7736 F60.00
G01 X7.2065 Y27.7725 F60.00
G01 X7.1293 Y27.7819 F60.00
G01 X7.0498 Y27.8100 F60.00
G01 X6.9481 Y27.8824 F60.00
G01 X6.9001 Y27.9448 F60.00
G01 X6.8227 Y28.1368 F60.00
G01 X6.7774 Y28.1974 F60.00
G01 X6.7168 Y28.2427 F60.00
G01 X6.6246 Y28.2725 F60.00
G01 X4.5543 Y28.2725 F60.00
G01 X4.4622 Y28.2427 F60.00
G01 X4.4016 Y28.1974 F60.00
G01 X4.3563 Y28.1368 F60.00
G01 X4.3265 Y28.0446 F60.00
G01 X4.3265 Y25.9744 F60.00
G01 X4.3561 Y25.8827 F60.00
G01 X4.4530 Y25.7575 F60.00
G01 X4.4989 Y25.6712 F60.00
G01 X4.5164 Y25.6059 F60.00
G01 X4.5098 Y25.4686 F60.00
G01 X4.4765 Y25.3546 F60.00
G01 X4.4765 Y23.5844 F60.00
G01 X4.5063 Y23.4922 F60.00
G01 X4.5516 Y23.4316 F60.00
G01 X4.6122 Y23.3863 F60.00
G01 X4.7044 Y23.3565 F60.00
G01 X6.4746 Y23.3565 F60.00
G01 X6.6058 Y23.3765 F60.00
G01 X12.1514 Y23.3764 F60.00
G01 X12.2585 Y23.3571 F60.00
G01 X12.3133 Y23.3346 F60.00
G01 X12.4132 Y23.2539 F60.00
G01 X12.4550 Y23.2008 F60.00
G01 X12.4969 Y23.0819 F60.00
G01 X12.5064 Y23.0207 F60.00
G01 X12.5065 Y21.0543 F60.00
G01 X12.5542 Y20.9077 F60.00
G01 X12.5623 Y20.8501 F60.00
G01 X12.5519 Y20.7257 F60.00
G01 X12.5065 Y20.5846 F60.00
G01 X12.5065 Y18.5143 F60.00
G01 X12.5542 Y18.3677 F60.00
G01 X12.5623 Y18.3101 F60.00
G01 X12.5519 Y18.1857 F60.00
G01 X12.5065 Y18.0446 F60.00
G01 X12.5065 Y15.9743 F60.00
G01 X12.5542 Y15.8277 F60.00
G01 X12.5623 Y15.7701 F60.00
G01 X12.5519 Y15.6457 F60.00
G01 X12.5065 Y15.5046 F60.00
G01 X12.5057 Y13.7906 F60.00
G01 X12.4934 Y13.7284 F60.00
G01 X12.4410 Y13.6069 F60.00
G01 X12.3955 Y13.5568 F60.00
G01 X12.3119 Y13.4953 F60.00
G01 X12.2388 Y13.4660 F60.00
G01 X12.1299 Y13.4559 F60.00
G01 X12.0682 Y13.4610 F60.00
G01 X12.0149 Y13.4795 F60.00
G01 X11.9337 Y13.5238 F60.00
G01 X11.8934 Y13.5547 F60.00
G01 X10.8059 Y14.6422 F60.00
G01 X10.6809 Y14.7257 F60.00
G01 X10.5737 Y14.7701 F60.00
G01 X10.5421 Y14.7832 F60.00
G01 X10.3947 Y14.8125 F60.00
G01 X6.6374 Y14.8133 F60.00
G01 X6.5187 Y14.8403 F60.00
G01 X6.3981 Y14.9224 F60.00
G01 X6.3501 Y14.9848 F60.00
G01 X6.2727 Y15.1768 F60.00
G01 X6.2274 Y15.2374 F60.00
G01 X6.1668 Y15.2827 F60.00
G01 X6.0919 Y15.3106 F60.00
G01 X4.0043 Y15.3125 F60.00
G01 X3.9122 Y15.2827 F60.00
G01 X3.8516 Y15.2374 F60.00
G01 X3.8063 Y15.1768 F60.00
G01 X3.7765 Y15.0846 F60.00
G01 X3.7784 Y12.9971 F60.00
G01 X3.8063 Y12.9222 F60.00
G01 X3.8516 Y12.8616 F60.00
G01 X3.9122 Y12.8163 F60.00
G01 X4.0044 Y12.7865 F60.00
G01 X6.0746 Y12.7865 F60.00
G01 X6.1668 Y12.8163 F60.00
G01 X6.2274 Y12.8616 F60.00
G01 X6.2727 Y12.9222 F60.00
G01 X6.3394 Y13.0977 F60.00
G01 X6.4339 Y13.2088 F60.00
G01 X6.5012 Y13.2498 F60.00
G01 X6.6227 Y13.2841 F60.00
G01 X9.8537 Y13.2865 F60.00
G01 X9.9398 Y13.2760 F60.00
G01 X10.0552 Y13.2211 F60.00
G01 X10.1053 Y13.1846 F60.00
G01 X11.9531 Y11.3368 F60.00
G01 X12.0781 Y11.2533 F60.00
G01 X12.2875 Y11.1741 F60.00
G01 X12.3556 Y11.1362 F60.00
G01 X12.3994 Y11.1007 F60.00
G01 X12.4435 Y11.0494 F60.00
G01 X12.4911 Y10.9565 F60.00
G01 X12.5084 Y10.8771 F60.00
G01 X12.5562 Y10.7394 F60.00
G01 X12.5649 Y10.6495 F60.00
G01 X12.5493 Y10.5547 F60.00
G01 X12.5084 Y10.4419 F60.00
G01 X12.5062 Y10.0813 F60.00
G01 X12.4752 Y9.9469 F60.00
G01 X12.4373 Y9.8870 F60.00
G01 X12.3839 Y9.8258 F60.00
G01 X12.3404 Y9.7899 F60.00
G01 X12.2843 Y9.7635 F60.00
G01 X12.1563 Y9.7328 F60.00
G01 X6.6374 Y9.7333 F60.00
G01 X6.5187 Y9.7603 F60.00
G01 X6.3981 Y9.8424 F60.00
G01 X6.3501 Y9.9048 F60.00
G01 X6.2727 Y10.0968 F60.00
G01 X6.2274 Y10.1574 F60.00
G01 X6.1668 Y10.2027 F60.00
G01 X6.0919 Y10.2306 F60.00
G01 X3.9871 Y10.2306 F60.00
G01 X3.9122 Y10.2027 F60.00
G01 X3.8516 Y10.1574 F60.00
G01 X3.8063 Y10.0968 F60.00
G01 X3.7765 Y10.0046 F60.00
G01 X3.7765 Y7.9344 F60.00
G01 X3.8061 Y7.8427 F60.00
G00 Z2.0000
G00 X6.2759 Y7.9462
G01 F60.00
G01 Z-0.1200
G01 F60.00
G01 X6.2490 Y7.8575 F60.00
G01 X6.1990 Y7.7935 F60.00
G01 X6.1304 Y7.7501 F60.00
G01 X6.0512 Y7.7323 F60.00
G01 X4.0337 Y7.7321 F60.00
G01 X3.9486 Y7.7501 F60.00
G01 X3.8800 Y7.7935 F60.00
G01 X3.8248 Y7.8680 F60.00
G01 X3.8091 Y7.9118 F60.00
G01 X3.8020 Y7.9695 F60.00
G01 X3.8021 Y9.9753 F60.00
G01 X3.8201 Y10.0604 F60.00
G01 X3.8635 Y10.1290 F60.00
G01 X3.9380 Y10.1842 F60.00
G01 X3.9818 Y10.1999 F60.00
G01 X4.0337 Y10.2069 F60.00
G01 X6.0858 Y10.2024 F60.00
G01 X6.1410 Y10.1842 F60.00
G01 X6.1902 Y10.1531 F60.00
G01 X6.2303 Y10.1110 F60.00
G01 X6.2589 Y10.0604 F60.00
G01 X6.2767 Y9.9812 F60.00
G01 X6.2770 Y9.7073 F60.00
G01 X12.5320 Y9.7073 F60.00
G01 X12.5366 Y10.4358 F60.00
G01 X12.5548 Y10.4910 F60.00
G01 X12.5935 Y10.5490 F60.00
G01 X12.6376 Y10.5870 F60.00
G01 X12.7006 Y10.6168 F60.00
G01 X12.7695 Y10.6270 F60.00
G01 X14.7812 Y10.6267 F60.00
G01 X14.8495 Y10.6131 F60.00
G01 X14.9202 Y10.5731 F60.00
G01 X14.9670 Y10.5214 F60.00
G01 X14.9968 Y10.4584 F60.00
G01 X15.0070 Y10.3895 F60.00
G01 X15.0067 Y8.3778 F60.00
G01 X14.9931 Y8.3095 F60.00
G01 X14.9603 Y8.2480 F60.00
G01 X14.9110 Y8.1987 F60.00
G01 X14.8384 Y8.1622 F60.00
G01 X14.7695 Y8.1520 F60.00
G01 X12.7637 Y8.1521 F60.00
G01 X12.7118 Y8.1591 F60.00
G01 X12.6680 Y8.1748 F60.00
G01 X12.5920 Y8.2317 F60.00
G01 X6.2770 Y8.2317 F60.00
G01 X6.2759 Y7.9462 F60.00
G00 Z2.0000
G00 X12.7232 Y5.6166
G01 F60.00
G01 Z-0.1200
G01 F60.00
G01 X12.6474 Y5.6458 F60.00
G01 X12.5859 Y5.6988 F60.00
G01 X12.5501 Y5.7586 F60.00
G01 X12.5323 Y5.8378 F60.00
G01 X12.5321 Y7.8553 F60.00
G01 X12.5501 Y7.9404 F60.00
G01 X12.5935 Y8.0090 F60.00
G01 X12.6280 Y8.0403 F60.00
G01 X12.6786 Y8.0689 F60.00
G01 X12.7695 Y8.0870 F60.00
G01 X14.7753 Y8.0869 F60.00
G01 X14.8604 Y8.0689 F60.00
G01 X14.9290 Y8.0255 F60.00
G01 X14.9842 Y7.9510 F60.00
G01 X14.9999 Y7.9072 F60.00
G01 X15.0070 Y7.8495 F60.00
G01 X15.0069 Y5.8437 F60.00
G01 X14.9889 Y5.7586 F60.00
G01 X14.9455 Y5.6900 F60.00
G01 X14.8710 Y5.6348 F60.00
G01 X14.8272 Y5.6191 F60.00
G01 X14.7753 Y5.6121 F60.00
G01 X12.7232 Y5.6166 F60.00
G00 Z2.0000
G00 X12.7232 Y3.0766
G01 F60.00
G01 Z-0.1200
G01 F60.00
G01 X12.6474 Y3.1058 F60.00
G01 X12.5859 Y3.1588 F60.00
G01 X12.5501 Y3.2186 F60.00
G01 X12.5323 Y3.2978 F60.00
G01 X12.5321 Y5.3153 F60.00
G01 X12.5501 Y5.4004 F60.00
G01 X12.5935 Y5.4690 F60.00
G01 X12.6280 Y5.5003 F60.00
G01 X12.6786 Y5.5289 F60.00
G01 X12.7695 Y5.5470 F60.00
G01 X14.7753 Y5.5469 F60.00
G01 X14.8604 Y5.5289 F60.00
G01 X14.9290 Y5.4855 F60.00
G01 X14.9842 Y5.4110 F60.00
G01 X14.9999 Y5.3672 F60.00
G01 X15.0070 Y5.3095 F60.00
G01 X15.0069 Y3.3037 F60.00
G01 X14.9889 Y3.2186 F60.00
G01 X14.9455 Y3.1500 F60.00
G01 X14.8710 Y3.0948 F60.00
G01 X14.8272 Y3.0791 F60.00
G01 X14.7753 Y3.0721 F60.00
G01 X12.7232 Y3.0766 F60.00
G00 Z2.0000
G00 X12.5346 Y12.9643
G01 F60.00
G01 Z-0.1200
G01 F60.00
G01 X12.5600 Y13.0415 F60.00
G01 X12.6100 Y13.1055 F60.00
G01 X12.6786 Y13.1489 F60.00
G01 X12.7578 Y13.1667 F60.00
G01 X14.7753 Y13.1669 F60.00
G01 X14.8604 Y13.1489 F60.00
G01 X14.9290 Y13.1055 F60.00
G01 X14.9842 Y13.0310 F60.00
G01 X14.9999 Y12.9872 F60.00
G01 X15.0070 Y12.9295 F60.00
G01 X15.0069 Y10.9237 F60.00
G01 X14.9889 Y10.8386 F60.00
G01 X14.9455 Y10.7700 F60.00
G01 X14.8710 Y10.7148 F60.00
G01 X14.8272 Y10.6991 F60.00
G01 X14.7753 Y10.6921 F60.00
G01 X12.7637 Y10.6921 F60.00
G01 X12.7118 Y10.6991 F60.00
G01 X12.6575 Y10.7200 F60.00
G01 X12.6100 Y10.7535 F60.00
G01 X12.5787 Y10.7880 F60.00
G01 X12.5391 Y10.8718 F60.00
G01 X12.5321 Y10.9237 F60.00
G01 X12.5320 Y11.1917 F60.00
G01 X12.3672 Y11.1953 F60.00
G01 X12.2254 Y11.2235 F60.00
G01 X12.0917 Y11.2789 F60.00
G01 X11.9715 Y11.3592 F60.00
G01 X10.0139 Y13.3117 F60.00
G01 X6.2770 Y13.3117 F60.00
G01 X6.2767 Y13.0378 F60.00
G01 X6.2589 Y12.9586 F60.00
G01 X6.2303 Y12.9080 F60.00
G01 X6.1902 Y12.8659 F60.00
G01 X6.1410 Y12.8348 F60.00
G01 X6.0858 Y12.8166 F60.00
G01 X4.0395 Y12.8120 F60.00
G01 X3.9486 Y12.8301 F60.00
G01 X3.8888 Y12.8659 F60.00
G01 X3.8487 Y12.9080 F60.00
G01 X3.8159 Y12.9695 F60.00
G01 X3.8023 Y13.0378 F60.00
G01 X3.8020 Y15.0495 F60.00
G01 X3.8091 Y15.1072 F60.00
G01 X3.8358 Y15.1716 F60.00
G01 X3.8800 Y15.2255 F60.00
G01 X3.9380 Y15.2642 F60.00
G01 X4.0162 Y15.2859 F60.00
G01 X6.0512 Y15.2867 F60.00
G01 X6.1084 Y15.2768 F60.00
G01 X6.1714 Y15.2470 F60.00
G01 X6.2231 Y15.2002 F60.00
G01 X6.2542 Y15.1510 F60.00
G01 X6.2767 Y15.0612 F60.00
G01 X6.2770 Y14.7873 F60.00
G01 X10.3195 Y14.7873 F60.00
G01 X10.4748 Y14.7705 F60.00
G01 X10.5909 Y14.7353 F60.00
G01 X10.6569 Y14.7054 F60.00
G01 X10.7964 Y14.6122 F60.00
G01 X12.5320 Y12.8803 F60.00
G01 X12.5346 Y12.9643 F60.00
G00 Z2.0000
G00 X12.7232 Y13.2366
G01 F60.00
G01 Z-0.1200
G01 F60.00
G01 X12.6474 Y13.2658 F60.00
G01 X12.5859 Y13.3188 F60.00
G01 X12.5501 Y13.3786 F60.00
G01 X12.5323 Y13.4578 F60.00
G01 X12.5321 Y15.4753 F60.00
G01 X12.5501 Y15.5604 F60.00
G01 X12.5935 Y15.6290 F60.00
G01 X12.6280 Y15.6603 F60.00
G01 X12.6786 Y15.6889 F60.00
G01 X12.7695 Y15.7070 F60.00
G01 X14.7753 Y15.7069 F60.00
G01 X14.8604 Y15.6889 F60.00
G01 X14.9290 Y15.6455 F60.00
G01 X14.9842 Y15.5710 F60.00
G01 X14.9999 Y15.5272 F60.00
G01 X15.0070 Y15.4695 F60.00
G01 X15.0069 Y13.4637 F60.00
G01 X14.9889 Y13.3786 F60.00
G01 X14.9455 Y13.3100 F60.00
G01 X14.8710 Y13.2548 F60.00
G01 X14.8272 Y13.2391 F60.00
G01 X14.7753 Y13.2321 F60.00
G01 X12.7232 Y13.2366 F60.00
G00 Z2.0000
G00 X12.7232 Y15.7766
G01 F60.00
G01 Z-0.1200
G01 F60.00
G01 X12.6474 Y15.8058 F60.00
G01 X12.5859 Y15.8588 F60.00
G01 X12.5501 Y15.9186 F60.00
G01 X12.5323 Y15.9978 F60.00
G01 X12.5321 Y18.0153 F60.00
G01 X12.5501 Y18.1004 F60.00
G01 X12.5935 Y18.1690 F60.00
G01 X12.6280 Y18.2003 F60.00
G01 X12.6786 Y18.2289 F60.00
G01 X12.7695 Y18.2470 F60.00
G01 X14.7753 Y18.2469 F60.00
G01 X14.8604 Y18.2289 F60.00
G01 X14.9290 Y18.1855 F60.00
G01 X14.9842 Y18.1110 F60.00
G01 X14.9999 Y18.0672 F60.00
G01 X15.0070 Y18.0095 F60.00
G01 X15.0069 Y16.0037 F60.00
G01 X14.9889 Y15.9186 F60.00
G01 X14.9455 Y15.8500 F60.00
G01 X14.8710 Y15.7948 F60.00
G01 X14.8272 Y15.7791 F60.00
G01 X14.7753 Y15.7721 F60.00
G01 X12.7232 Y15.7766 F60.00
G00 Z2.0000
G00 X12.7232 Y18.3166
G01 F60.00
G01 Z-0.1200
G01 F60.00
G01 X12.6474 Y18.3458 F60.00
G01 X12.5859 Y18.3988 F60.00
G01 X12.5501 Y18.4586 F60.00
G01 X12.5323 Y18.5378 F60.00
G01 X12.5321 Y20.5553 F60.00
G01 X12.5501 Y20.6404 F60.00
G01 X12.5935 Y20.7090 F60.00
G01 X12.6280 Y20.7403 F60.00
G01 X12.6786 Y20.7689 F60.00
G01 X12.7695 Y20.7870 F60.00
G01 X14.7753 Y20.7869 F60.00
G01 X14.8604 Y20.7689 F60.00
G01 X14.9290 Y20.7255 F60.00
G01 X14.9842 Y20.6510 F60.00
G01 X14.9999 Y20.6072 F60.00
G01 X15.0070 Y20.5495 F60.00
G01 X15.0069 Y18.5437 F60.00
G01 X14.9889 Y18.4586 F60.00
G01 X14.9455 Y18.3900 F60.00
G01 X14.8710 Y18.3348 F60.00
G01 X14.8272 Y18.3191 F60.00
G01 X14.7753 Y18.3121 F60.00
G01 X12.7232 Y18.3166 F60.00
G00 Z2.0000
G00 X12.7232 Y20.8566
G01 F60.00
G01 Z-0.1200
G01 F60.00
G01 X12.6474 Y20.8858 F60.00
G01 X12.5859 Y20.9388 F60.00
G01 X12.5501 Y20.9986 F60.00
G01 X12.5323 Y21.0778 F60.00
G01 X12.5321 Y23.0953 F60.00
G01 X12.5501 Y23.1804 F60.00
G01 X12.5935 Y23.2490 F60.00
G01 X12.6280 Y23.2803 F60.00
G01 X12.6786 Y23.3089 F60.00
G01 X12.7695 Y23.3270 F60.00
G01 X14.7753 Y23.3269 F60.00
G01 X14.8604 Y23.3089 F60.00
G01 X14.9290 Y23.2655 F60.00
G01 X14.9842 Y23.1910 F60.00
G01 X14.9999 Y23.1472 F60.00
G01 X15.0070 Y23.0895 F60.00
G01 X15.0069 Y21.0837 F60.00
G01 X14.9889 Y20.9986 F60.00
G01 X14.9455 Y20.9300 F60.00
G01 X14.8710 Y20.8748 F60.00
G01 X14.8272 Y20.8591 F60.00
G01 X14.7753 Y20.8521 F60.00
G01 X12.7232 Y20.8566 F60.00
G00 Z2.0000
G00 X12.7232 Y24.9206
G01 F60.00
G01 Z-0.1200
G01 F60.00
G01 X12.6474 Y24.9498 F60.00
G01 X12.5859 Y25.0028 F60.00
G01 X12.5501 Y25.0626 F60.00
G01 X12.5323 Y25.1418 F60.00
G01 X12.5321 Y27.1593 F60.00
G01 X12.5501 Y27.2444 F60.00
G01 X12.5935 Y27.3130 F60.00
G01 X12.6280 Y27.3443 F60.00
G01 X12.6786 Y27.3729 F60.00
G01 X12.7695 Y27.3910 F60.00
G01 X14.7753 Y27.3909 F60.00
G01 X14.8604 Y27.3729 F60.00
G01 X14.9290 Y27.3295 F60.00
G01 X14.9842 Y27.2550 F60.00
G01 X14.9999 Y27.2112 F60.00
G01 X15.0070 Y27.1535 F60.00
G01 X15.0069 Y25.1477 F60.00
G01 X14.9889 Y25.0626 F60.00
G01 X14.9455 Y24.9940 F60.00
G01 X14.8710 Y24.9388 F60.00
G01 X14.8272 Y24.9231 F60.00
G01 X14.7753 Y24.9161 F60.00
G01 X12.7232 Y24.9206 F60.00
G00 Z2.0000
G00 X6.4858 Y23.3866
G01 F60.00
G01 Z-0.1200
G01 F60.00
G01 X4.7278 Y23.3823 F60.00
G01 X4.6380 Y23.4048 F60.00
G01 X4.5635 Y23.4600 F60.00
G01 X4.5201 Y23.5286 F60.00
G01 X4.5021 Y23.6137 F60.00
G01 X4.5020 Y25.3195 F60.00
G01 X4.5091 Y25.3772 F60.00
G01 X4.5248 Y25.4210 F60.00
G01 X4.5800 Y25.4955 F60.00
G01 X4.6486 Y25.5389 F60.00
G01 X4.7337 Y25.5569 F60.00
G01 X6.4395 Y25.5570 F60.00
G01 X6.5084 Y25.5468 F60.00
G01 X6.5714 Y25.5170 F60.00
G01 X6.6155 Y25.4790 F60.00
G01 X6.6490 Y25.4315 F60.00
G01 X6.6699 Y25.3772 F60.00
G01 X6.6769 Y25.3253 F60.00
G01 X6.6770 Y24.8773 F60.00
G01 X15.9539 Y24.8773 F60.00
G01 X17.1635 Y26.0869 F60.00
G01 X17.2278 Y26.1612 F60.00
G01 X21.3020 Y30.2352 F60.00
G01 X21.4001 Y30.3162 F60.00
G01 X21.4821 Y30.3654 F60.00
G01 X21.6053 Y30.4155 F60.00
G01 X21.7356 Y30.4423 F60.00
G01 X60.7920 Y30.4473 F60.00
G01 X60.7923 Y30.7212 F60.00
G01 X60.8101 Y30.8004 F60.00
G01 X60.8387 Y30.8510 F60.00
G01 X60.8880 Y30.9003 F60.00
G01 X60.9386 Y30.9289 F60.00
G01 X61.0062 Y30.9459 F60.00
G01 X63.0528 Y30.9459 F60.00
G01 X63.1310 Y30.9242 F60.00
G01 X63.1974 Y30.8774 F60.00
G01 X63.2442 Y30.8110 F60.00
G01 X63.2644 Y30.7443 F60.00
G01 X63.2659 Y28.6862 F60.00
G01 X63.2390 Y28.5975 F60.00
G01 X63.1890 Y28.5335 F60.00
G01 X63.1204 Y28.4901 F60.00
G01 X63.0412 Y28.4723 F60.00
G01 X60.9832 Y28.4766 F60.00
G01 X60.9280 Y28.4948 F60.00
G01 X60.8788 Y28.5259 F60.00
G01 X60.8387 Y28.5680 F60.00
G01 X60.8101 Y28.6186 F60.00
G01 X60.7923 Y28.6978 F60.00
G01 X60.7920 Y28.9717 F60.00
G01 X22.1251 Y28.9717 F60.00
G01 X19.4973 Y26.3439 F60.00
G01 X19.4972 Y1.5637 F60.00
G01 X19.4831 Y1.4256 F60.00
G01 X19.4453 Y1.2981 F60.00
G01 X19.3792 Y1.1695 F60.00
G01 X19.3222 Y1.0926 F60.00
G01 X19.2275 Y0.9992 F60.00
G01 X19.1073 Y0.9189 F60.00
G01 X18.9737 Y0.8635 F60.00
G01 X18.8434 Y0.8367 F60.00
G01 X9.8995 Y0.8317 F60.00
G01 X9.7671 Y0.8439 F60.00
G01 X9.6853 Y0.8635 F60.00
G01 X9.5416 Y0.9246 F60.00
G01 X9.4407 Y0.9920 F60.00
G01 X9.3820 Y1.0438 F60.00
G01 X5.0837 Y5.3420 F60.00
G01 X4.1432 Y5.3466 F60.00
G01 X4.0674 Y5.3758 F60.00
G01 X4.0059 Y5.4288 F60.00
G01 X3.9659 Y5.4995 F60.00
G01 X3.9521 Y5.5737 F60.00
G01 X3.9523 Y7.2912 F60.00
G01 X3.9748 Y7.3810 F60.00
G01 X4.0216 Y7.4474 F60.00
G01 X4.0986 Y7.4989 F60.00
G01 X4.1837 Y7.5169 F60.00
G01 X5.8895 Y7.5170 F60.00
G01 X5.9472 Y7.5099 F60.00
G01 X6.0116 Y7.4832 F60.00
G01 X6.0655 Y7.4390 F60.00
G01 X6.1042 Y7.3810 F60.00
G01 X6.1244 Y7.3143 F60.00
G01 X6.1270 Y6.3853 F60.00
G01 X10.2051 Y2.3073 F60.00
G01 X18.0217 Y2.3073 F60.00
G01 X18.0217 Y24.8584 F60.00
G01 X16.7364 Y23.5768 F60.00
G01 X16.6595 Y23.5198 F60.00
G01 X16.5418 Y23.4579 F60.00
G01 X16.4624 Y23.4304 F60.00
G01 X16.3434 Y23.4067 F60.00
G01 X6.5342 Y23.4017 F60.00
G01 X6.4858 Y23.3866 F60.00
G00 Z2.0000
G00 X12.7232 Y32.5406
G01 F60.00
G01 Z-0.1200
G01 F60.00
G01 X12.6474 Y32.5698 F60.00
G01 X12.5859 Y32.6228 F60.00
G01 X12.5501 Y32.6826 F60.00
G01 X12.5323 Y32.7618 F60.00
G01 X12.5321 Y34.7793 F60.00
G01 X12.5501 Y34.8644 F60.00
G01 X12.5935 Y34.9330 F60.00
G01 X12.6280 Y34.9643 F60.00
G01 X12.6786 Y34.9929 F60.00
G01 X12.7695 Y35.0110 F60.00
G01 X14.7753 Y35.0109 F60.00
G01 X14.8604 Y34.9929 F60.00
G01 X14.9290 Y34.9495 F60.00
G01 X14.9842 Y34.8750 F60.00
G01 X14.9999 Y34.8312 F60.00
G01 X15.0070 Y34.7735 F60.00
G01 X15.0069 Y32.7677 F60.00
G01 X14.9889 Y32.6826 F60.00
G01 X14.9455 Y32.6140 F60.00
G01 X14.8710 Y32.5588 F60.00
G01 X14.8272 Y32.5431 F60.00
G01 X14.7753 Y32.5361 F60.00
G01 X12.7232 Y32.5406 F60.00
G00 Z2.0000
G00 X12.5346 Y37.3483
G01 F60.00
G01 Z-0.1200
G01 F60.00
G01 X12.5600 Y37.4255 F60.00
G01 X12.6100 Y37.4895 F60.00
G01 X12.6786 Y37.5329 F60.00
G01 X12.7578 Y37.5507 F60.00
G01 X14.7753 Y37.5509 F60.00
G01 X14.8495 Y37.5371 F60.00
G01 X14.9202 Y37.4971 F60.00
G01 X14.9603 Y37.4550 F60.00
G01 X14.9842 Y37.4150 F60.00
G01 X15.0067 Y37.3252 F60.00
G01 X15.0024 Y35.2672 F60.00
G01 X14.9790 Y35.2015 F60.00
G01 X14.9290 Y35.1375 F60.00
G01 X14.8710 Y35.0988 F60.00
G01 X14.7928 Y35.0771 F60.00
G01 X12.7578 Y35.0763 F60.00
G01 X12.7006 Y35.0862 F60.00
G01 X12.6376 Y35.1160 F60.00
G01 X12.5859 Y35.1628 F60.00
G01 X12.5548 Y35.2120 F60.00
G01 X12.5323 Y35.3018 F60.00
G01 X12.5320 Y35.5757 F60.00
G01 X10.4073 Y35.5757 F60.00
G01 X10.4072 Y27.6837 F60.00
G01 X10.3951 Y27.5571 F60.00
G01 X10.3755 Y27.4753 F60.00
G01 X10.3464 Y27.3965 F60.00
G01 X10.2829 Y27.2796 F60.00
G01 X10.1912 Y27.1678 F60.00
G01 X9.4664 Y26.4468 F60.00
G01 X9.3373 Y26.3589 F60.00
G01 X9.1924 Y26.3004 F60.00
G01 X9.0734 Y26.2767 F60.00
G01 X8.9895 Y26.2717 F60.00
G01 X6.8270 Y26.2717 F60.00
G01 X6.8267 Y25.9978 F60.00
G01 X6.8089 Y25.9186 F60.00
G01 X6.7803 Y25.8680 F60.00
G01 X6.7310 Y25.8187 F60.00
G01 X6.6804 Y25.7901 F60.00
G01 X6.6128 Y25.7731 F60.00
G01 X4.5837 Y25.7721 F60.00
G01 X4.5206 Y25.7822 F60.00
G01 X4.4576 Y25.8120 F60.00
G01 X4.4135 Y25.8500 F60.00
G01 X4.3800 Y25.8975 F60.00
G01 X4.3622 Y25.9406 F60.00
G01 X4.3523 Y25.9978 F60.00
G01 X4.3521 Y28.0153 F60.00
G01 X4.3622 Y28.0784 F60.00
G01 X4.3920 Y28.1414 F60.00
G01 X4.4300 Y28.1855 F60.00
G01 X4.4880 Y28.2242 F60.00
G01 X4.5432 Y28.2424 F60.00
G01 X4.5895 Y28.2470 F60.00
G01 X6.6358 Y28.2424 F60.00
G01 X6.6910 Y28.2242 F60.00
G01 X6.7402 Y28.1931 F60.00
G01 X6.7803 Y28.1510 F60.00
G01 X6.8089 Y28.1004 F60.00
G01 X6.8267 Y28.0212 F60.00
G01 X6.8270 Y27.7473 F60.00
G01 X8.6839 Y27.7473 F60.00
G01 X8.9317 Y27.9951 F60.00
G01 X8.9318 Y36.2153 F60.00
G01 X8.9439 Y36.3419 F60.00
G01 X8.9635 Y36.4237 F60.00
G01 X8.9926 Y36.5025 F60.00
G01 X9.0561 Y36.6194 F60.00
G01 X9.1478 Y36.7312 F60.00
G01 X9.2603 Y36.8432 F60.00
G01 X9.3541 Y36.9202 F60.00
G01 X9.4912 Y36.9951 F60.00
G01 X9.6296 Y37.0371 F60.00
G01 X9.7735 Y37.0513 F60.00
G01 X12.5320 Y37.0513 F60.00
G01 X12.5346 Y37.3483 F60.00
G00 Z2.0000
G00 X12.7118 Y42.7031
G01 F60.00
G01 Z-0.1200
G01 F60.00
G01 X12.6474 Y42.7298 F60.00
G01 X12.5859 Y42.7828 F60.00
G01 X12.5501 Y42.8426 F60.00
G01 X12.5323 Y42.9218 F60.00
G01 X12.5321 Y44.9393 F60.00
G01 X12.5501 Y45.0244 F60.00
G01 X12.5935 Y45.0930 F60.00
G01 X12.6280 Y45.1243 F60.00
G01 X12.6786 Y45.1529 F60.00
G01 X12.7695 Y45.1710 F60.00
G01 X14.7753 Y45.1709 F60.00
G01 X14.8604 Y45.1529 F60.00
G01 X14.9290 Y45.1095 F60.00
G01 X14.9842 Y45.0350 F60.00
G01 X14.9999 Y44.9912 F60.00
G01 X15.0070 Y44.9335 F60.00
G01 X15.0069 Y42.9277 F60.00
G01 X14.9889 Y42.8426 F60.00
G01 X14.9455 Y42.7740 F60.00
G01 X14.8710 Y42.7188 F60.00
G01 X14.8272 Y42.7031 F60.00
G01 X14.7753 Y42.6961 F60.00
G01 X12.7695 Y42.6960 F60.00
G01 X12.7118 Y42.7031 F60.00
G00 Z2.0000
G00 X12.7118 Y45.2431
G01 F60.00
G01 Z-0.1200
G01 F60.00
G01 X12.6474 Y45.2698 F60.00
G01 X12.5859 Y45.3228 F60.00
G01 X12.5501 Y45.3826 F60.00
G01 X12.5323 Y45.4618 F60.00
G01 X12.5321 Y47.4793 F60.00
G01 X12.5501 Y47.5644 F60.00
G01 X12.5935 Y47.6330 F60.00
G01 X12.6280 Y47.6643 F60.00
G01 X12.6786 Y47.6929 F60.00
G01 X12.7695 Y47.7110 F60.00
G01 X14.7753 Y47.7109 F60.00
G01 X14.8604 Y47.6929 F60.00
G01 X14.9290 Y47.6495 F60.00
G01 X14.9842 Y47.5750 F60.00
G01 X14.9999 Y47.5312 F60.00
G01 X15.0070 Y47.4735 F60.00
G01 X15.0069 Y45.4677 F60.00
G01 X14.9889 Y45.3826 F60.00
G01 X14.9455 Y45.3140 F60.00
G01 X14.8710 Y45.2588 F60.00
G01 X14.8272 Y45.2431 F60.00
G01 X14.7753 Y45.2361 F60.00
G01 X12.7695 Y45.2360 F60.00
G01 X12.7118 Y45.2431 F60.00
G00 Z2.0000
G00 X12.7232 Y47.7806
G01 F60.00
G01 Z-0.1200
G01 F60.00
G01 X12.6474 Y47.8098 F60.00
G01 X12.5859 Y47.8628 F60.00
G01 X12.5501 Y47.9226 F60.00
G01 X12.5323 Y48.0018 F60.00
G01 X12.5321 Y50.0193 F60.00
G01 X12.5501 Y50.1044 F60.00
G01 X12.5935 Y50.1730 F60.00
G01 X12.6280 Y50.2043 F60.00
G01 X12.6786 Y50.2329 F60.00
G01 X12.7695 Y50.2510 F60.00
G01 X14.7753 Y50.2509 F60.00
G01 X14.8604 Y50.2329 F60.00
G01 X14.9290 Y50.1895 F60.00
G01 X14.9842 Y50.1150 F60.00
G01 X14.9999 Y50.0712 F60.00
G01 X15.0070 Y50.0135 F60.00
G01 X15.0069 Y48.0077 F60.00
G01 X14.9889 Y47.9226 F60.00
G01 X14.9455 Y47.8540 F60.00
G01 X14.8710 Y47.7988 F60.00
G01 X14.8272 Y47.7831 F60.00
G01 X14.7753 Y47.7761 F60.00
G01 X12.7232 Y47.7806 F60.00
G00 Z2.0000
G00 X12.5065 Y47.9783
G01 F60.00
G01 Z-0.1200
G01 F60.00
G01 X12.5619 Y47.7847 F60.00
G01 X12.5563 Y47.6776 F60.00
G01 X12.5065 Y47.5086 F60.00
G01 X12.5065 Y45.4383 F60.00
G01 X12.5542 Y45.2917 F60.00
G01 X12.5623 Y45.2341 F60.00
G01 X12.5519 Y45.1097 F60.00
G01 X12.5065 Y44.9686 F60.00
G01 X12.5065 Y42.8983 F60.00
G01 X12.5363 Y42.8062 F60.00
G01 X12.5816 Y42.7456 F60.00
G01 X12.6422 Y42.7003 F60.00
G01 X12.7344 Y42.6705 F60.00
G01 X14.8046 Y42.6705 F60.00
G01 X14.8938 Y42.6992 F60.00
G01 X15.0038 Y42.8091 F60.00
G01 X15.0325 Y42.8984 F60.00
G01 X15.0325 Y44.9686 F60.00
G01 X14.9848 Y45.1153 F60.00
G01 X14.9767 Y45.1729 F60.00
G01 X14.9871 Y45.2973 F60.00
G01 X15.0325 Y45.4384 F60.00
G01 X15.0325 Y47.5086 F60.00
G01 X14.9848 Y47.6553 F60.00
G01 X14.9767 Y47.7129 F60.00
G01 X14.9871 Y47.8373 F60.00
G01 X15.0325 Y47.9784 F60.00
G01 X15.0325 Y50.0486 F60.00
G01 X15.0027 Y50.1408 F60.00
G01 X14.9574 Y50.2014 F60.00
G01 X14.8968 Y50.2467 F60.00
G01 X14.8046 Y50.2765 F60.00
G01 X12.7343 Y50.2765 F60.00
G01 X12.6422 Y50.2467 F60.00
G01 X12.5816 Y50.2014 F60.00
G01 X12.5363 Y50.1408 F60.00
G01 X12.5065 Y50.0486 F60.00
G01 X12.5065 Y47.9783 F60.00
G00 Z2.0000
G00 X4.8026 Y38.5065
G01 F60.00
G01 Z-0.1200
G01 F60.00
G01 X4.7539 Y38.6671 F60.00
G01 X4.7444 Y38.7388 F60.00
G01 X4.7444 Y38.8602 F60.00
G01 X4.7735 Y39.0137 F60.00
G01 X4.8346 Y39.1574 F60.00
G01 X4.9020 Y39.2583 F60.00
G01 X4.9538 Y39.3170 F60.00
G01 X5.0566 Y39.4162 F60.00
G01 X5.1236 Y39.4669 F60.00
G01 X5.2621 Y39.5393 F60.00
G01 X5.3306 Y39.5626 F60.00
G01 X5.4496 Y39.5863 F60.00
G01 X12.5320 Y39.5913 F60.00
G01 X12.5323 Y39.8652 F60.00
G01 X12.5548 Y39.9550 F60.00
G01 X12.5859 Y40.0042 F60.00
G01 X12.6376 Y40.0510 F60.00
G01 X12.7006 Y40.0808 F60.00
G01 X12.7637 Y40.0909 F60.00
G01 X14.7928 Y40.0899 F60.00
G01 X14.8710 Y40.0682 F60.00
G01 X14.9374 Y40.0214 F60.00
G01 X14.9842 Y39.9550 F60.00
G01 X15.0044 Y39.8883 F60.00
G01 X15.0059 Y37.8302 F60.00
G01 X14.9842 Y37.7520 F60.00
G01 X14.9455 Y37.6940 F60.00
G01 X14.8916 Y37.6498 F60.00
G01 X14.8158 Y37.6206 F60.00
G01 X12.7232 Y37.6206 F60.00
G01 X12.6680 Y37.6388 F60.00
G01 X12.6188 Y37.6699 F60.00
G01 X12.5787 Y37.7120 F60.00
G01 X12.5501 Y37.7626 F60.00
G01 X12.5323 Y37.8418 F60.00
G01 X12.5320 Y38.1157 F60.00
G01 X6.3273 Y38.1157 F60.00
G01 X6.3273 Y33.3270 F60.00
G01 X6.6012 Y33.3267 F60.00
G01 X6.6910 Y33.3042 F60.00
G01 X6.7490 Y33.2655 F60.00
G01 X6.7870 Y33.2214 F60.00
G01 X6.8168 Y33.1584 F60.00
G01 X6.8267 Y33.1012 F60.00
G01 X6.8259 Y31.0662 F60.00
G01 X6.8042 Y30.9880 F60.00
G01 X6.7574 Y30.9216 F60.00
G01 X6.6910 Y30.8748 F60.00
G01 X6.6243 Y30.8546 F60.00
G01 X4.5662 Y30.8531 F60.00
G01 X4.4880 Y30.8748 F60.00
G01 X4.4300 Y30.9135 F60.00
G01 X4.3858 Y30.9674 F60.00
G01 X4.3591 Y31.0318 F60.00
G01 X4.3520 Y31.0895 F60.00
G01 X4.3566 Y33.1358 F60.00
G01 X4.3748 Y33.1910 F60.00
G01 X4.4059 Y33.2402 F60.00
G01 X4.4480 Y33.2803 F60.00
G01 X4.4986 Y33.3089 F60.00
G01 X4.5778 Y33.3267 F60.00
G01 X4.8517 Y33.3270 F60.00
G01 X4.8517 Y38.4130 F60.00
G01 X4.8026 Y38.5065 F60.00
G00 Z2.0000
G00 X43.5327 Y32.0498
G01 F60.00
G01 Z-0.1200
G01 F60.00
G01 X43.4294 Y31.9661 F60.00
G01 X43.3018 Y31.8979 F60.00
G01 X43.1634 Y31.8559 F60.00
G01 X43.0195 Y31.8417 F60.00
G01 X20.7066 Y31.8417 F60.00
G01 X17.0367 Y28.1718 F60.00
G01 X16.9739 Y28.1160 F60.00
G01 X16.8628 Y28.0429 F60.00
G01 X16.7180 Y27.9844 F60.00
G01 X16.5989 Y27.9607 F60.00
G01 X16.5267 Y27.9560 F60.00
G01 X15.0070 Y27.9557 F60.00
G01 X15.0067 Y27.6818 F60.00
G01 X14.9889 Y27.6026 F60.00
G01 X14.9603 Y27.5520 F60.00
G01 X14.9110 Y27.5027 F60.00
G01 X14.8604 Y27.4741 F60.00
G01 X14.7928 Y27.4571 F60.00
G01 X12.7462 Y27.4571 F60.00
G01 X12.6680 Y27.4788 F60.00
G01 X12.6016 Y27.5256 F60.00
G01 X12.5548 Y27.5920 F60.00
G01 X12.5346 Y27.6587 F60.00
G01 X12.5323 Y29.7052 F60.00
G01 X12.5422 Y29.7624 F60.00
G01 X12.5600 Y29.8055 F60.00
G01 X12.5935 Y29.8530 F60.00
G01 X12.6280 Y29.8843 F60.00
G01 X12.6895 Y29.9171 F60.00
G01 X12.7637 Y29.9309 F60.00
G01 X14.8043 Y29.9284 F60.00
G01 X14.8604 Y29.9129 F60.00
G01 X14.9202 Y29.8771 F60.00
G01 X14.9603 Y29.8350 F60.00
G01 X14.9889 Y29.7844 F60.00
G01 X15.0067 Y29.7052 F60.00
G01 X15.0070 Y29.4313 F60.00
G01 X16.2094 Y29.4313 F60.00
G01 X19.8835 Y33.1052 F60.00
G01 X19.9816 Y33.1862 F60.00
G01 X20.0533 Y33.2301 F60.00
G01 X20.1296 Y33.2653 F60.00
G01 X20.2571 Y33.3031 F60.00
G01 X20.4010 Y33.3173 F60.00
G01 X42.7139 Y33.3173 F60.00
G01 X52.2478 Y42.8512 F60.00
G01 X52.3501 Y42.9362 F60.00
G01 X52.4321 Y42.9854 F60.00
G01 X52.5553 Y43.0355 F60.00
G01 X52.6856 Y43.0623 F60.00
G01 X78.7735 Y43.0673 F60.00
G01 X78.9174 Y43.0531 F60.00
G01 X78.9987 Y43.0318 F60.00
G01 X79.1213 Y42.9801 F60.00
G01 X79.1929 Y42.9362 F60.00
G01 X79.2952 Y42.8512 F60.00
G01 X85.0612 Y37.0852 F60.00
G01 X85.1170 Y37.0223 F60.00
G01 X85.1739 Y36.9390 F60.00
G01 X85.5453 Y36.9389 F60.00
G01 X85.6195 Y36.9251 F60.00
G01 X85.6715 Y36.8990 F60.00
G01 X85.7231 Y36.8522 F60.00
G01 X85.7589 Y36.7924 F60.00
G01 X85.7759 Y36.7248 F60.00
G01 X85.7769 Y34.6957 F60.00
G01 X85.7699 Y34.6438 F60.00
G01 X85.7542 Y34.6000 F60.00
G01 X85.6990 Y34.5255 F60.00
G01 X85.6195 Y34.4779 F60.00
G01 X85.5395 Y34.4640 F60.00
G01 X83.5337 Y34.4641 F60.00
G01 X83.4706 Y34.4742 F60.00
G01 X83.4075 Y34.5040 F60.00
G01 X83.3635 Y34.5420 F60.00
G01 X83.3300 Y34.5895 F60.00
G01 X83.3091 Y34.6438 F60.00
G01 X83.3023 Y34.6898 F60.00
G01 X83.3020 Y36.7015 F60.00
G01 X83.3075 Y36.7521 F60.00
G01 X78.4679 Y41.5917 F60.00
G01 X53.0751 Y41.5917 F60.00
G01 X43.5327 Y32.0498 F60.00
G00 Z2.0000
G00 X60.9832 Y31.0166
G01 F60.00
G01 Z-0.1200
G01 F60.00
G01 X60.9074 Y31.0458 F60.00
G01 X60.8459 Y31.0988 F60.00
G01 X60.8101 Y31.1586 F60.00
G01 X60.7923 Y31.2378 F60.00
G01 X60.7921 Y33.2553 F60.00
G01 X60.8101 Y33.3404 F60.00
G01 X60.8535 Y33.4090 F60.00
G01 X60.8880 Y33.4403 F60.00
G01 X60.9386 Y33.4689 F60.00
G01 X61.0295 Y33.4870 F60.00
G01 X63.0353 Y33.4869 F60.00
G01 X63.1204 Y33.4689 F60.00
G01 X63.1890 Y33.4255 F60.00
G01 X63.2270 Y33.3815 F60.00
G01 X63.2489 Y33.3404 F60.00
G01 X63.2670 Y33.2495 F60.00
G01 X63.2669 Y31.2437 F60.00
G01 X63.2489 Y31.1586 F60.00
G01 X63.2055 Y31.0900 F60.00
G01 X63.1310 Y31.0348 F60.00
G01 X63.0872 Y31.0191 F60.00
G01 X63.0353 Y31.0121 F60.00
G01 X60.9832 Y31.0166 F60.00
G00 Z2.0000
G00 X60.9832 Y33.5566
G01 F60.00
G01 Z-0.1200
G01 F60.00
G01 X60.9074 Y33.5858 F60.00
G01 X60.8459 Y33.6388 F60.00
G01 X60.8101 Y33.6986 F60.00
G01 X60.7923 Y33.7778 F60.00
G01 X60.7921 Y35.7953 F60.00
G01 X60.8101 Y35.8804 F60.00
G01 X60.8535 Y35.9490 F60.00
G01 X60.8880 Y35.9803 F60.00
G01 X60.9386 Y36.0089 F60.00
G01 X61.0295 Y36.0270 F60.00
G01 X63.0353 Y36.0269 F60.00
G01 X63.1204 Y36.0089 F60.00
G01 X63.1890 Y35.9655 F60.00
G01 X63.2270 Y35.9215 F60.00
G01 X63.2489 Y35.8804 F60.00
G01 X63.2670 Y35.7895 F60.00
G01 X63.2669 Y33.7837 F60.00
G01 X63.2489 Y33.6986 F60.00
G01 X63.2055 Y33.6300 F60.00
G01 X63.1310 Y33.5748 F60.00
G01 X63.0872 Y33.5591 F60.00
G01 X63.0353 Y33.5521 F60.00
G01 X60.9832 Y33.5566 F60.00
G00 Z2.0000
G00 X60.9832 Y36.0966
G01 F60.00
G01 Z-0.1200
G01 F60.00
G01 X60.9074 Y36.1258 F60.00
G01 X60.8459 Y36.1788 F60.00
G01 X60.8101 Y36.2386 F60.00
G01 X60.7923 Y36.3178 F60.00
G01 X60.7921 Y38.3353 F60.00
G01 X60.8101 Y38.4204 F60.00
G01 X60.8535 Y38.4890 F60.00
G01 X60.8880 Y38.5203 F60.00
G01 X60.9386 Y38.5489 F60.00
G01 X61.0295 Y38.5670 F60.00
G01 X63.0353 Y38.5669 F60.00
G01 X63.1204 Y38.5489 F60.00
G01 X63.1890 Y38.5055 F60.00
G01 X63.2270 Y38.4615 F60.00
G01 X63.2489 Y38.4204 F60.00
G01 X63.2670 Y38.3295 F60.00
G01 X63.2669 Y36.3237 F60.00
G01 X63.2489 Y36.2386 F60.00
G01 X63.2055 Y36.1700 F60.00
G01 X63.1310 Y36.1148 F60.00
G01 X63.0872 Y36.0991 F60.00
G01 X63.0353 Y36.0921 F60.00
G01 X60.9832 Y36.0966 F60.00
G00 Z2.0000
G00 X60.9832 Y38.6366
G01 F60.00
G01 Z-0.1200
G01 F60.00
G01 X60.9074 Y38.6658 F60.00
G01 X60.8459 Y38.7188 F60.00
G01 X60.8101 Y38.7786 F60.00
G01 X60.7923 Y38.8578 F60.00
G01 X60.7921 Y40.8753 F60.00
G01 X60.8101 Y40.9604 F60.00
G01 X60.8535 Y41.0290 F60.00
G01 X60.8880 Y41.0603 F60.00
G01 X60.9386 Y41.0889 F60.00
G01 X61.0295 Y41.1070 F60.00
G01 X63.0353 Y41.1069 F60.00
G01 X63.1204 Y41.0889 F60.00
G01 X63.1890 Y41.0455 F60.00
G01 X63.2270 Y41.0015 F60.00
G01 X63.2489 Y40.9604 F60.00
G01 X63.2670 Y40.8695 F60.00
G01 X63.2669 Y38.8637 F60.00
G01 X63.2489 Y38.7786 F60.00
G01 X63.2055 Y38.7100 F60.00
G01 X63.1310 Y38.6548 F60.00
G01 X63.0872 Y38.6391 F60.00
G01 X63.0353 Y38.6321 F60.00
G01 X60.9832 Y38.6366 F60.00
G00 Z2.0000
G00 X60.7963 Y25.7568
G01 F60.00
G01 Z-0.1200
G01 F60.00
G01 X60.7665 Y25.6646 F60.00
G01 X60.7665 Y23.5944 F60.00
G01 X60.8142 Y23.4477 F60.00
G01 X60.8223 Y23.3795 F60.00
G01 X60.8119 Y23.2657 F60.00
G01 X60.7665 Y23.1246 F60.00
G01 X60.7665 Y21.0543 F60.00
G01 X60.7963 Y20.9622 F60.00
G01 X60.8416 Y20.9016 F60.00
G01 X60.9022 Y20.8563 F60.00
G01 X60.9944 Y20.8265 F60.00
G01 X63.0646 Y20.8265 F60.00
G01 X63.1568 Y20.8563 F60.00
G01 X63.2174 Y20.9016 F60.00
G01 X63.2627 Y20.9622 F60.00
G01 X63.2925 Y21.0544 F60.00
G01 X63.2925 Y23.1246 F60.00
G01 X63.2448 Y23.2713 F60.00
G01 X63.2367 Y23.3289 F60.00
G01 X63.2471 Y23.4533 F60.00
G01 X63.2925 Y23.5944 F60.00
G01 X63.2925 Y25.6646 F60.00
G01 X63.2627 Y25.7568 F60.00
G01 X63.2174 Y25.8174 F60.00
G01 X63.1568 Y25.8627 F60.00
G01 X63.0646 Y25.8925 F60.00
G01 X60.9943 Y25.8925 F60.00
G01 X60.9022 Y25.8627 F60.00
G01 X60.8416 Y25.8174 F60.00
G01 X60.7963 Y25.7568 F60.00
G00 Z2.0000
G00 X60.9718 Y23.3991
G01 F60.00
G01 Z-0.1200
G01 F60.00
G01 X60.9074 Y23.4258 F60.00
G01 X60.8459 Y23.4788 F60.00
G01 X60.8101 Y23.5386 F60.00
G01 X60.7923 Y23.6178 F60.00
G01 X60.7921 Y25.6353 F60.00
G01 X60.8101 Y25.7204 F60.00
G01 X60.8535 Y25.7890 F60.00
G01 X60.8880 Y25.8203 F60.00
G01 X60.9386 Y25.8489 F60.00
G01 X61.0295 Y25.8670 F60.00
G01 X63.0353 Y25.8669 F60.00
G01 X63.1204 Y25.8489 F60.00
G01 X63.1890 Y25.8055 F60.00
G01 X63.2270 Y25.7615 F60.00
G01 X63.2489 Y25.7204 F60.00
G01 X63.2670 Y25.6295 F60.00
G01 X63.2669 Y23.6237 F60.00
G01 X63.2489 Y23.5386 F60.00
G01 X63.2055 Y23.4700 F60.00
G01 X63.1310 Y23.4148 F60.00
G01 X63.0872 Y23.3991 F60.00
G01 X63.0353 Y23.3921 F60.00
G01 X61.0295 Y23.3920 F60.00
G01 X60.9718 Y23.3991 F60.00
G00 Z2.0000
G00 X60.9718 Y20.8591
G01 F60.00
G01 Z-0.1200
G01 F60.00
G01 X60.9074 Y20.8858 F60.00
G01 X60.8459 Y20.9388 F60.00
G01 X60.8101 Y20.9986 F60.00
G01 X60.7923 Y21.0778 F60.00
G01 X60.7921 Y23.0953 F60.00
G01 X60.8101 Y23.1804 F60.00
G01 X60.8535 Y23.2490 F60.00
G01 X60.8880 Y23.2803 F60.00
G01 X60.9386 Y23.3089 F60.00
G01 X61.0295 Y23.3270 F60.00
G01 X63.0353 Y23.3269 F60.00
G01 X63.1204 Y23.3089 F60.00
G01 X63.1890 Y23.2655 F60.00
G01 X63.2270 Y23.2214 F60.00
G01 X63.2489 Y23.1804 F60.00
G01 X63.2670 Y23.0895 F60.00
G01 X63.2669 Y21.0837 F60.00
G01 X63.2489 Y20.9986 F60.00
G01 X63.2055 Y20.9300 F60.00
G01 X63.1310 Y20.8748 F60.00
G01 X63.0872 Y20.8591 F60.00
G01 X63.0353 Y20.8521 F60.00
G01 X61.0295 Y20.8520 F60.00
G01 X60.9718 Y20.8591 F60.00
G00 Z2.0000
G00 X60.9832 Y15.7766
G01 F60.00
G01 Z-0.1200
G01 F60.00
G01 X60.9074 Y15.8058 F60.00
G01 X60.8459 Y15.8588 F60.00
G01 X60.8101 Y15.9186 F60.00
G01 X60.7923 Y15.9978 F60.00
G01 X60.7921 Y18.0153 F60.00
G01 X60.8101 Y18.1004 F60.00
G01 X60.8535 Y18.1690 F60.00
G01 X60.8880 Y18.2003 F60.00
G01 X60.9386 Y18.2289 F60.00
G01 X61.0295 Y18.2470 F60.00
G01 X63.0353 Y18.2469 F60.00
G01 X63.1204 Y18.2289 F60.00
G01 X63.1890 Y18.1855 F60.00
G01 X63.2270 Y18.1414 F60.00
G01 X63.2489 Y18.1004 F60.00
G01 X63.2670 Y18.0095 F60.00
G01 X63.2669 Y16.0037 F60.00
G01 X63.2489 Y15.9186 F60.00
G01 X63.2055 Y15.8500 F60.00
G01 X63.1310 Y15.7948 F60.00
G01 X63.0872 Y15.7791 F60.00
G01 X63.0353 Y15.7721 F60.00
G01 X60.9832 Y15.7766 F60.00
G00 Z2.0000
G00 X60.9832 Y13.2366
G01 F60.00
G01 Z-0.1200
G01 F60.00
G01 X60.9074 Y13.2658 F60.00
G01 X60.8459 Y13.3188 F60.00
G01 X60.8101 Y13.3786 F60.00
G01 X60.7923 Y13.4578 F60.00
G01 X60.7921 Y15.4753 F60.00
G01 X60.8101 Y15.5604 F60.00
G01 X60.8535 Y15.6290 F60.00
G01 X60.8880 Y15.6603 F60.00
G01 X60.9386 Y15.6889 F60.00
G01 X61.0295 Y15.7070 F60.00
G01 X63.0353 Y15.7069 F60.00
G01 X63.1204 Y15.6889 F60.00
G01 X63.1890 Y15.6455 F60.00
G01 X63.2270 Y15.6014 F60.00
G01 X63.2489 Y15.5604 F60.00
G01 X63.2670 Y15.4695 F60.00
G01 X63.2669 Y13.4637 F60.00
G01 X63.2489 Y13.3786 F60.00
G01 X63.2055 Y13.3100 F60.00
G01 X63.1310 Y13.2548 F60.00
G01 X63.0872 Y13.2391 F60.00
G01 X63.0353 Y13.2321 F60.00
G01 X60.9832 Y13.2366 F60.00
G00 Z2.0000
G00 X60.9832 Y10.6966
G01 F60.00
G01 Z-0.1200
G01 F60.00
G01 X60.9074 Y10.7258 F60.00
G01 X60.8459 Y10.7788 F60.00
G01 X60.8101 Y10.8386 F60.00
G01 X60.7923 Y10.9178 F60.00
G01 X60.7921 Y12.9353 F60.00
G01 X60.8101 Y13.0204 F60.00
G01 X60.8535 Y13.0890 F60.00
G01 X60.8880 Y13.1203 F60.00
G01 X60.9386 Y13.1489 F60.00
G01 X61.0295 Y13.1670 F60.00
G01 X63.0353 Y13.1669 F60.00
G01 X63.1204 Y13.1489 F60.00
G01 X63.1890 Y13.1055 F60.00
G01 X63.2270 Y13.0614 F60.00
G01 X63.2489 Y13.0204 F60.00
G01 X63.2670 Y12.9295 F60.00
G01 X63.2669 Y10.9237 F60.00
G01 X63.2489 Y10.8386 F60.00
G01 X63.2055 Y10.7700 F60.00
G01 X63.1310 Y10.7148 F60.00
G01 X63.0872 Y10.6991 F60.00
G01 X63.0353 Y10.6921 F60.00
G01 X60.9832 Y10.6966 F60.00
G00 Z2.0000
G00 X60.9832 Y8.1566
G01 F60.00
G01 Z-0.1200
G01 F60.00
G01 X60.9074 Y8.1858 F60.00
G01 X60.8459 Y8.2388 F60.00
G01 X60.8101 Y8.2986 F60.00
G01 X60.7923 Y8.3778 F60.00
G01 X60.7921 Y10.3953 F60.00
G01 X60.8101 Y10.4804 F60.00
G01 X60.8535 Y10.5490 F60.00
G01 X60.8880 Y10.5803 F60.00
G01 X60.9386 Y10.6089 F60.00
G01 X61.0295 Y10.6270 F60.00
G01 X63.0353 Y10.6269 F60.00
G01 X63.1204 Y10.6089 F60.00
G01 X63.1890 Y10.5655 F60.00
G01 X63.2270 Y10.5214 F60.00
G01 X63.2489 Y10.4804 F60.00
G01 X63.2670 Y10.3895 F60.00
G01 X63.2669 Y8.3837 F60.00
G01 X63.2489 Y8.2986 F60.00
G01 X63.2055 Y8.2300 F60.00
G01 X63.1310 Y8.1748 F60.00
G01 X63.0872 Y8.1591 F60.00
G01 X63.0353 Y8.1521 F60.00
G01 X60.9832 Y8.1566 F60.00
G00 Z2.0000
G00 X60.7665 Y5.8143
G01 F60.00
G01 Z-0.1200
G01 F60.00
G01 X60.8219 Y5.6207 F60.00
G01 X60.8163 Y5.5136 F60.00
G01 X60.7665 Y5.3446 F60.00
G01 X60.7665 Y3.2743 F60.00
G01 X60.7963 Y3.1822 F60.00
G01 X60.8416 Y3.1216 F60.00
G01 X60.9022 Y3.0763 F60.00
G01 X60.9944 Y3.0465 F60.00
G01 X63.0646 Y3.0465 F60.00
G01 X63.1568 Y3.0763 F60.00
G01 X63.2174 Y3.1216 F60.00
G01 X63.2627 Y3.1822 F60.00
G01 X63.2925 Y3.2744 F60.00
G01 X63.2925 Y5.3446 F60.00
G01 X63.2448 Y5.4913 F60.00
G01 X63.2367 Y5.5489 F60.00
G01 X63.2471 Y5.6733 F60.00
G01 X63.2925 Y5.8144 F60.00
G01 X63.2925 Y7.8846 F60.00
G01 X63.2448 Y8.0313 F60.00
G01 X63.2367 Y8.0889 F60.00
G01 X63.2471 Y8.2133 F60.00
G01 X63.2925 Y8.3544 F60.00
G01 X63.2925 Y10.4246 F60.00
G01 X63.2448 Y10.5713 F60.00
G01 X63.2367 Y10.6289 F60.00
G01 X63.2471 Y10.7533 F60.00
G01 X63.2925 Y10.8944 F60.00
G01 X63.2925 Y12.9646 F60.00
G01 X63.2448 Y13.1113 F60.00
G01 X63.2367 Y13.1689 F60.00
G01 X63.2471 Y13.2933 F60.00
G01 X63.2925 Y13.4344 F60.00
G01 X63.2925 Y15.5046 F60.00
G01 X63.2448 Y15.6513 F60.00
G01 X63.2367 Y15.7089 F60.00
G01 X63.2471 Y15.8333 F60.00
G01 X63.2925 Y15.9744 F60.00
G01 X63.2925 Y18.0446 F60.00
G01 X63.2627 Y18.1368 F60.00
G01 X63.2174 Y18.1974 F60.00
G01 X63.1568 Y18.2427 F60.00
G01 X63.0819 Y18.2706 F60.00
G01 X60.9943 Y18.2725 F60.00
G01 X60.9022 Y18.2427 F60.00
G01 X60.8416 Y18.1974 F60.00
G01 X60.7963 Y18.1368 F60.00
G01 X60.7684 Y18.0619 F60.00
G01 X60.7665 Y15.9743 F60.00
G01 X60.8142 Y15.8277 F60.00
G01 X60.8223 Y15.7701 F60.00
G01 X60.8119 Y15.6457 F60.00
G01 X60.7665 Y15.5046 F60.00
G01 X60.7665 Y13.4343 F60.00
G01 X60.8142 Y13.2877 F60.00
G01 X60.8223 Y13.2301 F60.00
G01 X60.8119 Y13.1057 F60.00
G01 X60.7665 Y12.9646 F60.00
G01 X60.7665 Y10.8943 F60.00
G01 X60.8142 Y10.7477 F60.00
G01 X60.8223 Y10.6901 F60.00
G01 X60.8119 Y10.5657 F60.00
G01 X60.7665 Y10.4246 F60.00
G01 X60.7665 Y8.3543 F60.00
G01 X60.8142 Y8.2077 F60.00
G01 X60.8223 Y8.1501 F60.00
G01 X60.8119 Y8.0257 F60.00
G01 X60.7665 Y7.8846 F60.00
G01 X60.7665 Y5.8143 F60.00
G00 Z2.0000
G00 X60.9832 Y5.6166
G01 F60.00
G01 Z-0.1200
G01 F60.00
G01 X60.9074 Y5.6458 F60.00
G01 X60.8459 Y5.6988 F60.00
G01 X60.8101 Y5.7586 F60.00
G01 X60.7923 Y5.8378 F60.00
G01 X60.7921 Y7.8553 F60.00
G01 X60.8101 Y7.9404 F60.00
G01 X60.8535 Y8.0090 F60.00
G01 X60.8880 Y8.0403 F60.00
G01 X60.9386 Y8.0689 F60.00
G01 X61.0295 Y8.0870 F60.00
G01 X63.0353 Y8.0869 F60.00
G01 X63.1204 Y8.0689 F60.00
G01 X63.1890 Y8.0255 F60.00
G01 X63.2270 Y7.9814 F60.00
G01 X63.2489 Y7.9404 F60.00
G01 X63.2670 Y7.8495 F60.00
G01 X63.2669 Y5.8437 F60.00
G01 X63.2489 Y5.7586 F60.00
G01 X63.2055 Y5.6900 F60.00
G01 X63.1310 Y5.6348 F60.00
G01 X63.0872 Y5.6191 F60.00
G01 X63.0353 Y5.6121 F60.00
G01 X60.9832 Y5.6166 F60.00
G00 Z2.0000
G00 X60.9832 Y3.0766
G01 F60.00
G01 Z-0.1200
G01 F60.00
G01 X60.9074 Y3.1058 F60.00
G01 X60.8459 Y3.1588 F60.00
G01 X60.8101 Y3.2186 F60.00
G01 X60.7923 Y3.2978 F60.00
G01 X60.7921 Y5.3153 F60.00
G01 X60.8101 Y5.4004 F60.00
G01 X60.8535 Y5.4690 F60.00
G01 X60.8880 Y5.5003 F60.00
G01 X60.9386 Y5.5289 F60.00
G01 X61.0295 Y5.5470 F60.00
G01 X63.0353 Y5.5469 F60.00
G01 X63.1204 Y5.5289 F60.00
G01 X63.1890 Y5.4855 F60.00
G01 X63.2270 Y5.4414 F60.00
G01 X63.2489 Y5.4004 F60.00
G01 X63.2670 Y5.3095 F60.00
G01 X63.2669 Y3.3037 F60.00
G01 X63.2489 Y3.2186 F60.00
G01 X63.2055 Y3.1500 F60.00
G01 X63.1310 Y3.0948 F60.00
G01 X63.0872 Y3.0791 F60.00
G01 X63.0353 Y3.0721 F60.00
G01 X60.9832 Y3.0766 F60.00
G00 Z2.0000
G00 X94.8562 Y0.1113
G01 F60.00
G01 Z-0.1200
G01 F60.00
G01 X94.8385 Y0.0162 F60.00
G01 X94.8202 Y-0.0338 F60.00
G01 X94.7948 Y-0.0739 F60.00
G01 X94.7259 Y-0.1522 F60.00
G01 X94.6808 Y-0.1860 F60.00
G01 X94.6397 Y-0.2048 F60.00
G01 X94.5510 Y-0.2308 F60.00
G01 X94.4950 Y-0.2375 F60.00
G01 X0.1240 Y-0.2375 F60.00
G01 X0.0105 Y-0.2181 F60.00
G01 X-0.0644 Y-0.1829 F60.00
G01 X-0.1442 Y-0.1149 F60.00
G01 X-0.1860 Y-0.0618 F60.00
G01 X-0.2294 Y0.0625 F60.00
G01 X-0.2375 Y0.1240 F60.00
G01 X-0.2375 Y63.8950 F60.00
G01 X-0.2181 Y64.0085 F60.00
G01 X-0.1829 Y64.0834 F60.00
G01 X-0.1149 Y64.1632 F60.00
G01 X-0.0618 Y64.2050 F60.00
G01 X0.0625 Y64.2484 F60.00
G01 X0.1240 Y64.2565 F60.00
G01 X94.4950 Y64.2565 F60.00
G01 X94.6085 Y64.2371 F60.00
G01 X94.6834 Y64.2019 F60.00
G01 X94.7632 Y64.1339 F60.00
G01 X94.8050 Y64.0808 F60.00
G01 X94.8484 Y63.9565 F60.00
G01 X94.8565 Y63.8950 F60.00
G01 X94.8562 Y0.1113 F60.00
G00 Z2.0000
G00 X80.9532 Y34.4686
G01 F60.00
G01 Z-0.1200
G01 F60.00
G01 X80.8774 Y34.4978 F60.00
G01 X80.8235 Y34.5420 F60.00
G01 X80.7801 Y34.6106 F60.00
G01 X80.7623 Y34.6898 F60.00
G01 X80.7621 Y36.7073 F60.00
G01 X80.7801 Y36.7924 F60.00
G01 X80.8235 Y36.8610 F60.00
G01 X80.8675 Y36.8990 F60.00
G01 X80.9086 Y36.9209 F60.00
G01 X80.9995 Y36.9390 F60.00
G01 X83.0053 Y36.9389 F60.00
G01 X83.0904 Y36.9209 F60.00
G01 X83.1590 Y36.8775 F60.00
G01 X83.1970 Y36.8335 F60.00
G01 X83.2189 Y36.7924 F60.00
G01 X83.2370 Y36.7015 F60.00
G01 X83.2369 Y34.6957 F60.00
G01 X83.2189 Y34.6106 F60.00
G01 X83.1755 Y34.5420 F60.00
G01 X83.1010 Y34.4868 F60.00
G01 X83.0572 Y34.4711 F60.00
G01 X83.0053 Y34.4641 F60.00
G01 X80.9532 Y34.4686 F60.00
G00 Z2.0000
G00 X88.1143 Y36.9364
G01 F60.00
G01 Z-0.1200
G01 F60.00
G01 X88.1915 Y36.9110 F60.00
G01 X88.2555 Y36.8610 F60.00
G01 X88.2989 Y36.7924 F60.00
G01 X88.3167 Y36.7132 F60.00
G01 X88.3169 Y34.6957 F60.00
G01 X88.2989 Y34.6106 F60.00
G01 X88.2555 Y34.5420 F60.00
G01 X88.2115 Y34.5040 F60.00
G01 X88.1704 Y34.4821 F60.00
G01 X88.0795 Y34.4640 F60.00
G01 X86.0737 Y34.4641 F60.00
G01 X85.9995 Y34.4779 F60.00
G01 X85.9288 Y34.5179 F60.00
G01 X85.8700 Y34.5895 F60.00
G01 X85.8491 Y34.6438 F60.00
G01 X85.8423 Y34.6898 F60.00
G01 X85.8446 Y36.7363 F60.00
G01 X85.8601 Y36.7924 F60.00
G01 X85.8959 Y36.8522 F60.00
G01 X85.9380 Y36.8923 F60.00
G01 X85.9886 Y36.9209 F60.00
G01 X86.0678 Y36.9387 F60.00
G01 X86.3417 Y36.9390 F60.00
G01 X86.3417 Y37.3959 F60.00
G01 X80.7288 Y43.0088 F60.00
G01 X80.6244 Y43.1413 F60.00
G01 X79.4039 Y44.3617 F60.00
G01 X29.9411 Y44.3617 F60.00
G01 X16.2375 Y30.6632 F60.00
G01 X16.1274 Y30.5886 F60.00
G01 X16.0518 Y30.5519 F60.00
G01 X15.9724 Y30.5244 F60.00
G01 X15.8534 Y30.5007 F60.00
G01 X15.0070 Y30.4957 F60.00
G01 X15.0067 Y30.2218 F60.00
G01 X14.9889 Y30.1426 F60.00
G01 X14.9603 Y30.0920 F60.00
G01 X14.9110 Y30.0427 F60.00
G01 X14.8604 Y30.0141 F60.00
G01 X14.7928 Y29.9971 F60.00
G01 X12.7462 Y29.9971 F60.00
G01 X12.6680 Y30.0188 F60.00
G01 X12.6016 Y30.0656 F60.00
G01 X12.5548 Y30.1320 F60.00
G01 X12.5331 Y30.2102 F60.00
G01 X12.5321 Y32.2393 F60.00
G01 X12.5391 Y32.2912 F60.00
G01 X12.5548 Y32.3350 F60.00
G01 X12.6100 Y32.4095 F60.00
G01 X12.6786 Y32.4529 F60.00
G01 X12.7637 Y32.4709 F60.00
G01 X14.8043 Y32.4684 F60.00
G01 X14.8604 Y32.4529 F60.00
G01 X14.9202 Y32.4171 F60.00
G01 X14.9603 Y32.3750 F60.00
G01 X14.9889 Y32.3244 F60.00
G01 X15.0067 Y32.2452 F60.00
G01 X15.0070 Y31.9713 F60.00
G01 X15.4639 Y31.9713 F60.00
G01 X29.1138 Y45.6212 F60.00
G01 X29.2161 Y45.7062 F60.00
G01 X29.2981 Y45.7554 F60.00
G01 X29.4213 Y45.8055 F60.00
G01 X29.5632 Y45.8337 F60.00
G01 X79.7095 Y45.8373 F60.00
G01 X79.8419 Y45.8251 F60.00
G01 X79.9347 Y45.8018 F60.00
G01 X80.0573 Y45.7501 F60.00
G01 X80.1289 Y45.7062 F60.00
G01 X80.2312 Y45.6212 F60.00
G01 X81.7722 Y44.0802 F60.00
G01 X81.8766 Y43.9477 F60.00
G01 X87.6052 Y38.2190 F60.00
G01 X87.6862 Y38.1209 F60.00
G01 X87.7301 Y38.0493 F60.00
G01 X87.7818 Y37.9267 F60.00
G01 X87.8051 Y37.8339 F60.00
G01 X87.8172 Y37.7073 F60.00
G01 X87.8173 Y36.9390 F60.00
G01 X88.1143 Y36.9364 F60.00
G00 Z2.0000
G00 X84.6017 Y52.3542
G01 F60.00
G01 Z-0.1200
G01 F60.00
G01 X84.6470 Y52.2936 F60.00
G01 X84.7076 Y52.2483 F60.00
G01 X84.7998 Y52.2185 F60.00
G01 X86.8700 Y52.2185 F60.00
G01 X86.9622 Y52.2483 F60.00
G01 X87.0228 Y52.2936 F60.00
G01 X87.0681 Y52.3542 F60.00
G01 X87.0979 Y52.4464 F60.00
G01 X87.0960 Y54.5339 F60.00
G01 X87.0681 Y54.6088 F60.00
G01 X87.0228 Y54.6694 F60.00
G01 X86.9622 Y54.7147 F60.00
G01 X86.7867 Y54.7814 F60.00
G01 X86.6832 Y54.8675 F60.00
G01 X86.6346 Y54.9432 F60.00
G01 X86.5990 Y55.0759 F60.00
G01 X86.5979 Y57.9891 F60.00
G01 X86.6153 Y58.0975 F60.00
G01 X86.6689 Y58.2004 F60.00
G01 X86.7038 Y58.2447 F60.00
G01 X88.6997 Y60.2406 F60.00
G01 X88.7485 Y60.2813 F60.00
G01 X88.8102 Y60.3136 F60.00
G01 X88.9327 Y60.3454 F60.00
G01 X89.7246 Y60.3465 F60.00
G01 X89.8383 Y60.3813 F60.00
G01 X89.9014 Y60.3880 F60.00
G01 X90.0041 Y60.3798 F60.00
G01 X90.0582 Y60.3639 F60.00
G01 X90.1025 Y60.3391 F60.00
G01 X90.2522 Y60.2263 F60.00
G01 X90.3993 Y60.1739 F60.00
G01 X90.4454 Y60.1480 F60.00
G01 X90.5232 Y60.0814 F60.00
G01 X90.5591 Y60.0380 F60.00
G01 X90.5838 Y59.9872 F60.00
G01 X90.6141 Y59.8763 F60.00
G01 X90.6165 Y55.9867 F60.00
G01 X90.6087 Y55.9119 F60.00
G01 X90.5846 Y55.8465 F60.00
G01 X90.5146 Y55.7351 F60.00
G01 X89.6299 Y54.8504 F60.00
G01 X89.5514 Y54.7912 F60.00
G01 X89.4358 Y54.7526 F60.00
G01 X89.3856 Y54.7448 F60.00
G01 X88.2877 Y54.7426 F60.00
G01 X88.2128 Y54.7147 F60.00
G01 X88.1522 Y54.6694 F60.00
G01 X88.1069 Y54.6088 F60.00
G01 X88.0771 Y54.5166 F60.00
G01 X88.0771 Y52.4464 F60.00
G01 X88.1069 Y52.3542 F60.00
G01 X88.1522 Y52.2936 F60.00
G01 X88.2128 Y52.2483 F60.00
G01 X88.3050 Y52.2185 F60.00
G01 X90.3752 Y52.2185 F60.00
G01 X90.4674 Y52.2483 F60.00
G01 X90.5280 Y52.2936 F60.00
G01 X90.5733 Y52.3542 F60.00
G01 X90.6031 Y52.4464 F60.00
G01 X90.6032 Y53.5221 F60.00
G01 X90.6109 Y53.5905 F60.00
G01 X90.6323 Y53.6507 F60.00
G01 X90.7050 Y53.7673 F60.00
G01 X91.9722 Y55.0345 F60.00
G01 X92.0557 Y55.1595 F60.00
G01 X92.1132 Y55.2983 F60.00
G01 X92.1425 Y55.4457 F60.00
G01 X92.1427 Y59.8521 F60.00
G01 X92.1538 Y59.9301 F60.00
G01 X92.1703 Y59.9804 F60.00
G01 X92.2524 Y60.1010 F60.00
G01 X92.3149 Y60.1489 F60.00
G01 X92.5068 Y60.2263 F60.00
G01 X92.5674 Y60.2716 F60.00
G01 X92.6127 Y60.3322 F60.00
G01 X92.6406 Y60.4071 F60.00
G01 X92.6425 Y62.4946 F60.00
G01 X92.6127 Y62.5868 F60.00
G01 X92.5674 Y62.6474 F60.00
G01 X92.5068 Y62.6927 F60.00
G01 X92.4146 Y62.7225 F60.00
G01 X90.3443 Y62.7225 F60.00
G01 X90.2527 Y62.6929 F60.00
G01 X90.1410 Y62.6044 F60.00
G01 X90.0565 Y62.5573 F60.00
G01 X89.9646 Y62.5315 F60.00
G01 X89.8386 Y62.5392 F60.00
G01 X89.7246 Y62.5725 F60.00
G01 X87.9543 Y62.5725 F60.00
G01 X87.8622 Y62.5427 F60.00
G01 X87.8016 Y62.4974 F60.00
G01 X87.7563 Y62.4368 F60.00
G01 X87.7284 Y62.3619 F60.00
G01 X87.7257 Y61.5562 F60.00
G01 X87.7091 Y61.4669 F60.00
G01 X87.6494 Y61.3545 F60.00
G01 X85.2422 Y58.9413 F60.00
G01 X85.1587 Y58.8163 F60.00
G01 X85.1012 Y58.6775 F60.00
G01 X85.0719 Y58.5301 F60.00
G01 X85.0711 Y55.0794 F60.00
G01 X85.0441 Y54.9607 F60.00
G01 X84.9620 Y54.8401 F60.00
G01 X84.8996 Y54.7921 F60.00
G01 X84.7076 Y54.7147 F60.00
G01 X84.6470 Y54.6694 F60.00
G01 X84.6017 Y54.6088 F60.00
G01 X84.5738 Y54.5339 F60.00
G01 X84.5719 Y52.4464 F60.00
G01 X84.6017 Y52.3542 F60.00
G00 Z2.0000
G00 X86.8466 Y54.7187
G01 F60.00
G01 Z-0.1200
G01 F60.00
G01 X86.9258 Y54.7009 F60.00
G01 X87.0028 Y54.6494 F60.00
G01 X87.0543 Y54.5724 F60.00
G01 X87.0721 Y54.4932 F60.00
G01 X87.0723 Y52.4757 F60.00
G01 X87.0543 Y52.3906 F60.00
G01 X87.0109 Y52.3220 F60.00
G01 X86.9669 Y52.2840 F60.00
G01 X86.9258 Y52.2621 F60.00
G01 X86.8349 Y52.2440 F60.00
G01 X84.8291 Y52.2441 F60.00
G01 X84.7440 Y52.2621 F60.00
G01 X84.6754 Y52.3055 F60.00
G01 X84.6202 Y52.3800 F60.00
G01 X84.6045 Y52.4238 F60.00
G01 X84.5975 Y52.4757 F60.00
G01 X84.5985 Y54.5048 F60.00
G01 X84.6155 Y54.5724 F60.00
G01 X84.6441 Y54.6230 F60.00
G01 X84.6842 Y54.6651 F60.00
G01 X84.7440 Y54.7009 F60.00
G01 X84.8232 Y54.7187 F60.00
G01 X85.0971 Y54.7190 F60.00
G01 X85.0972 Y58.4607 F60.00
G01 X85.1139 Y58.6102 F60.00
G01 X85.1491 Y58.7263 F60.00
G01 X85.1790 Y58.7923 F60.00
G01 X85.2282 Y58.8743 F60.00
G01 X85.3132 Y58.9766 F60.00
G01 X87.7520 Y61.4153 F60.00
G01 X87.7531 Y62.3328 F60.00
G01 X87.7800 Y62.4215 F60.00
G01 X87.8388 Y62.4931 F60.00
G01 X87.9095 Y62.5331 F60.00
G01 X87.9837 Y62.5469 F60.00
G01 X89.6895 Y62.5470 F60.00
G01 X89.7695 Y62.5331 F60.00
G01 X89.8310 Y62.5003 F60.00
G01 X89.8803 Y62.4510 F60.00
G01 X89.9131 Y62.3895 F60.00
G01 X89.9267 Y62.3212 F60.00
G01 X89.9269 Y60.6037 F60.00
G01 X89.9131 Y60.5295 F60.00
G01 X89.8803 Y60.4680 F60.00
G01 X89.8116 Y60.4058 F60.00
G01 X89.7695 Y60.3859 F60.00
G01 X89.7128 Y60.3731 F60.00
G01 X88.7953 Y60.3720 F60.00
G01 X86.5727 Y58.1493 F60.00
G01 X86.5727 Y54.7190 F60.00
G01 X86.8466 Y54.7187 F60.00
G00 Z2.0000
G00 X81.7389 Y54.7164
G01 F60.00
G01 Z-0.1200
G01 F60.00
G01 X81.8161 Y54.6910 F60.00
G01 X81.8801 Y54.6410 F60.00
G01 X81.9235 Y54.5724 F60.00
G01 X81.9413 Y54.4932 F60.00
G01 X81.9415 Y52.4757 F60.00
G01 X81.9235 Y52.3906 F60.00
G01 X81.8801 Y52.3220 F60.00
G01 X81.8361 Y52.2840 F60.00
G01 X81.7950 Y52.2621 F60.00
G01 X81.7041 Y52.2440 F60.00
G01 X79.6983 Y52.2441 F60.00
G01 X79.6132 Y52.2621 F60.00
G01 X79.5446 Y52.3055 F60.00
G01 X79.4894 Y52.3800 F60.00
G01 X79.4737 Y52.4238 F60.00
G01 X79.4667 Y52.4757 F60.00
G01 X79.4712 Y54.5278 F60.00
G01 X79.4894 Y54.5830 F60.00
G01 X79.5205 Y54.6322 F60.00
G01 X79.5626 Y54.6723 F60.00
G01 X79.6132 Y54.7009 F60.00
G01 X79.6924 Y54.7187 F60.00
G01 X79.9663 Y54.7190 F60.00
G01 X79.9663 Y60.5693 F60.00
G01 X79.9539 Y60.5817 F60.00
G01 X79.3970 Y60.5817 F60.00
G01 X79.3967 Y60.3078 F60.00
G01 X79.3789 Y60.2286 F60.00
G01 X79.3431 Y60.1688 F60.00
G01 X79.3010 Y60.1287 F60.00
G01 X79.2504 Y60.1001 F60.00
G01 X79.1943 Y60.0846 F60.00
G01 X77.1537 Y60.0821 F60.00
G01 X77.0906 Y60.0922 F60.00
G01 X77.0276 Y60.1220 F60.00
G01 X76.9916 Y60.1516 F60.00
G01 X76.9558 Y60.1974 F60.00
G01 X76.9322 Y60.2506 F60.00
G01 X76.9223 Y60.3078 F60.00
G01 X76.9220 Y62.3195 F60.00
G01 X76.9291 Y62.3772 F60.00
G01 X76.9558 Y62.4416 F60.00
G01 X76.9916 Y62.4874 F60.00
G01 X77.0374 Y62.5232 F60.00
G01 X77.0906 Y62.5468 F60.00
G01 X77.1595 Y62.5570 F60.00
G01 X79.1595 Y62.5570 F60.00
G01 X79.2284 Y62.5468 F60.00
G01 X79.2816 Y62.5232 F60.00
G01 X79.3190 Y62.4955 F60.00
G01 X79.3570 Y62.4514 F60.00
G01 X79.3831 Y62.3995 F60.00
G01 X79.3967 Y62.3312 F60.00
G01 X79.3970 Y62.0573 F60.00
G01 X80.2712 Y62.0570 F60.00
G01 X80.4034 Y62.0431 F60.00
G01 X80.5418 Y62.0011 F60.00
G01 X80.6694 Y61.9329 F60.00
G01 X80.7770 Y61.8452 F60.00
G01 X81.3252 Y61.2970 F60.00
G01 X81.4192 Y61.1795 F60.00
G01 X81.4764 Y61.0725 F60.00
G01 X81.5055 Y60.9937 F60.00
G01 X81.5251 Y60.9119 F60.00
G01 X81.5373 Y60.7795 F60.00
G01 X81.5323 Y60.6956 F60.00
G01 X81.5086 Y60.5766 F60.00
G01 X81.4811 Y60.4972 F60.00
G01 X81.4419 Y60.4173 F60.00
G01 X81.4419 Y54.7190 F60.00
G01 X81.7389 Y54.7164 F60.00
G00 Z2.0000
G00 X76.9263 Y62.4468
G01 F60.00
G01 Z-0.1200
G01 F60.00
G01 X76.8965 Y62.3546 F60.00
G01 X76.8965 Y60.2844 F60.00
G01 X76.9263 Y60.1922 F60.00
G01 X76.9716 Y60.1316 F60.00
G01 X77.0322 Y60.0863 F60.00
G01 X77.1244 Y60.0565 F60.00
G01 X79.1946 Y60.0565 F60.00
G01 X79.2868 Y60.0863 F60.00
G01 X79.3878 Y60.1595 F60.00
G01 X79.4711 Y60.1960 F60.00
G01 X79.5198 Y60.2104 F60.00
G01 X79.5831 Y60.2132 F60.00
G01 X79.7088 Y60.1911 F60.00
G01 X79.7866 Y60.1462 F60.00
G01 X79.8478 Y60.0928 F60.00
G01 X79.8837 Y60.0493 F60.00
G01 X79.9084 Y59.9986 F60.00
G01 X79.9344 Y59.9099 F60.00
G01 X79.9411 Y59.8539 F60.00
G01 X79.9403 Y55.0794 F60.00
G01 X79.9133 Y54.9607 F60.00
G01 X79.8312 Y54.8401 F60.00
G01 X79.7688 Y54.7921 F60.00
G01 X79.5768 Y54.7147 F60.00
G01 X79.5162 Y54.6694 F60.00
G01 X79.4709 Y54.6088 F60.00
G01 X79.4430 Y54.5339 F60.00
G01 X79.4411 Y52.4464 F60.00
G01 X79.4709 Y52.3542 F60.00
G01 X79.5162 Y52.2936 F60.00
G01 X79.5768 Y52.2483 F60.00
G01 X79.6690 Y52.2185 F60.00
G01 X81.7392 Y52.2185 F60.00
G01 X81.8314 Y52.2483 F60.00
G01 X81.8920 Y52.2936 F60.00
G01 X81.9373 Y52.3542 F60.00
G01 X81.9671 Y52.4464 F60.00
G01 X81.9652 Y54.5339 F60.00
G01 X81.9373 Y54.6088 F60.00
G01 X81.8920 Y54.6694 F60.00
G01 X81.8314 Y54.7147 F60.00
G01 X81.6559 Y54.7814 F60.00
G01 X81.5448 Y54.8759 F60.00
G01 X81.4998 Y54.9538 F60.00
G01 X81.4674 Y55.0872 F60.00
G01 X81.4672 Y60.3313 F60.00
G01 X81.4837 Y60.4307 F60.00
G01 X81.5332 Y60.5569 F60.00
G01 X81.5625 Y60.7043 F60.00
G01 X81.5625 Y60.8547 F60.00
G01 X81.5332 Y61.0021 F60.00
G01 X81.4757 Y61.1409 F60.00
G01 X81.3922 Y61.2659 F60.00
G01 X80.7459 Y61.9122 F60.00
G01 X80.6209 Y61.9957 F60.00
G01 X80.4821 Y62.0532 F60.00
G01 X80.3347 Y62.0825 F60.00
G01 X79.7669 Y62.0827 F60.00
G01 X79.6484 Y62.1061 F60.00
G01 X79.5354 Y62.1778 F60.00
G01 X79.4881 Y62.2261 F60.00
G01 X79.4393 Y62.3208 F60.00
G01 X79.3927 Y62.4468 F60.00
G01 X79.3474 Y62.5074 F60.00
G01 X79.2868 Y62.5527 F60.00
G01 X79.2119 Y62.5806 F60.00
G01 X77.1243 Y62.5825 F60.00
G01 X77.0322 Y62.5527 F60.00
G01 X76.9716 Y62.5074 F60.00
G01 X76.9263 Y62.4468 F60.00
G00 Z2.0000
G00 X92.1123 Y55.4370
G01 F60.00
G01 Z-0.1200
G01 F60.00
G01 X92.0886 Y55.3180 F60.00
G01 X92.0611 Y55.2386 F60.00
G01 X91.9992 Y55.1209 F60.00
G01 X91.9422 Y55.0440 F60.00
G01 X90.5776 Y53.6757 F60.00
G01 X90.5773 Y52.4698 F60.00
G01 X90.5705 Y52.4238 F60.00
G01 X90.5496 Y52.3695 F60.00
G01 X90.4908 Y52.2979 F60.00
G01 X90.4201 Y52.2579 F60.00
G01 X90.3459 Y52.2441 F60.00
G01 X88.3343 Y52.2441 F60.00
G01 X88.2824 Y52.2511 F60.00
G01 X88.2386 Y52.2668 F60.00
G01 X88.1894 Y52.2979 F60.00
G01 X88.1565 Y52.3308 F60.00
G01 X88.1165 Y52.4015 F60.00
G01 X88.1026 Y52.4815 F60.00
G01 X88.1027 Y54.4873 F60.00
G01 X88.1165 Y54.5615 F60.00
G01 X88.1493 Y54.6230 F60.00
G01 X88.1806 Y54.6575 F60.00
G01 X88.2281 Y54.6910 F60.00
G01 X88.2824 Y54.7119 F60.00
G01 X88.3284 Y54.7187 F60.00
G01 X89.5343 Y54.7190 F60.00
G01 X90.6417 Y55.8265 F60.00
G01 X90.6417 Y60.2220 F60.00
G01 X90.3678 Y60.2223 F60.00
G01 X90.2780 Y60.2448 F60.00
G01 X90.2200 Y60.2835 F60.00
G01 X90.1820 Y60.3276 F60.00
G01 X90.1522 Y60.3906 F60.00
G01 X90.1423 Y60.4478 F60.00
G01 X90.1431 Y62.4828 F60.00
G01 X90.1601 Y62.5504 F60.00
G01 X90.2035 Y62.6190 F60.00
G01 X90.2574 Y62.6632 F60.00
G01 X90.3218 Y62.6899 F60.00
G01 X90.3795 Y62.6970 F60.00
G01 X92.4028 Y62.6959 F60.00
G01 X92.4810 Y62.6742 F60.00
G01 X92.5390 Y62.6355 F60.00
G01 X92.5832 Y62.5816 F60.00
G01 X92.6099 Y62.5172 F60.00
G01 X92.6170 Y62.4595 F60.00
G01 X92.6124 Y60.4132 F60.00
G01 X92.5942 Y60.3580 F60.00
G01 X92.5631 Y60.3088 F60.00
G01 X92.5210 Y60.2687 F60.00
G01 X92.4704 Y60.2401 F60.00
G01 X92.3912 Y60.2223 F60.00
G01 X92.1173 Y60.2220 F60.00
G01 X92.1123 Y55.4370 F60.00
G00 Z2.0000
M05
G00 Z2.0000
G00 Z15.00


