(G-code generated by FlatCAM Evo vUnstable - Version Date: 2023/6/31)

(Name: CEWBPCBDesign-B_Cu.gbr_iso_combined_cnc)
(Type: G-code from Geometry)
(Units: MM)

(Created on Wednesday, 04 March 2026 at 16:06)

(This preprocessor is used with a motion controller loaded with GRBL firmware.)
(It is configured to be compatible with almost any version of GRBL firmware. No M6 command.)

(TOOL DIAMETER: 0.475 mm)
(Feedrate_XY: 60.0 mm/min)
(Feedrate_Z: 60.0 mm/min)
(Feedrate rapids 1500.0 mm/min)

(Z_Cut: -0.075 mm)
(Z_Move: 2.0 mm)
(Z Start: None mm)
(Z End: 15.0 mm)
(X,Y End: None mm)
(Steps per circle: 16)
(Steps per circle: 16)
(Preprocessor Geometry: GRBL_11_no_M6)

(X range:   -0.2375 ...   89.1865  mm)
(Y range:   -0.2375 ...   57.0565  mm)

(Spindle Speed: 0.0 RPM)
G21
G90
G17
G94


G01 F60.00
G00 Z2.0000

M03
G01 F60.00
G00 X5.4870 Y8.5313
G01 F60.00
G01 Z-0.0750
G01 F60.00
G01 X5.4566 Y8.4670 F60.00
G01 X5.4081 Y8.4143 F60.00
G01 X5.3457 Y8.3782 F60.00
G01 X5.2595 Y8.3620 F60.00
G01 X3.2595 Y8.3620 F60.00
G01 X3.1733 Y8.3782 F60.00
G01 X3.1270 Y8.4024 F60.00
G01 X3.0916 Y8.4316 F60.00
G01 X3.0624 Y8.4670 F60.00
G01 X3.0382 Y8.5133 F60.00
G01 X3.0220 Y8.5995 F60.00
G01 X3.0220 Y10.5995 F60.00
G01 X3.0382 Y10.6857 F60.00
G01 X3.0624 Y10.7320 F60.00
G01 X3.0916 Y10.7674 F60.00
G01 X3.1270 Y10.7966 F60.00
G01 X3.1733 Y10.8208 F60.00
G01 X3.2595 Y10.8370 F60.00
G01 X5.2934 Y10.8346 F60.00
G01 X5.3457 Y10.8208 F60.00
G01 X5.4081 Y10.7847 F60.00
G01 X5.4566 Y10.7320 F60.00
G01 X5.4808 Y10.6857 F60.00
G01 X5.4970 Y10.5995 F60.00
G01 X5.4970 Y10.3373 F60.00
G01 X11.7520 Y10.3373 F60.00
G01 X11.7544 Y11.0534 F60.00
G01 X11.7682 Y11.1057 F60.00
G01 X11.8043 Y11.1681 F60.00
G01 X11.8570 Y11.2166 F60.00
G01 X11.9213 Y11.2470 F60.00
G01 X11.9895 Y11.2570 F60.00
G01 X13.9895 Y11.2570 F60.00
G01 X14.0757 Y11.2408 F60.00
G01 X14.1381 Y11.2047 F60.00
G01 X14.1866 Y11.1519 F60.00
G01 X14.2172 Y11.0869 F60.00
G01 X14.2270 Y11.0195 F60.00
G01 X14.2270 Y9.0195 F60.00
G01 X14.2108 Y8.9333 F60.00
G01 X14.1747 Y8.8709 F60.00
G01 X14.1220 Y8.8224 F60.00
G01 X14.0569 Y8.7917 F60.00
G01 X13.9895 Y8.7820 F60.00
G01 X11.9895 Y8.7820 F60.00
G01 X11.9221 Y8.7917 F60.00
G01 X11.8859 Y8.8058 F60.00
G01 X11.8124 Y8.8617 F60.00
G01 X5.4970 Y8.8617 F60.00
G01 X5.4970 Y8.5995 F60.00
G01 X5.4870 Y8.5313 F60.00
G00 Z2.0000
G00 X10.0138 Y15.2444
G01 F60.00
G01 Z-0.0750
G01 F60.00
G01 X11.7520 Y13.5103 F60.00
G01 X11.7618 Y13.6269 F60.00
G01 X11.7924 Y13.6919 F60.00
G01 X11.8570 Y13.7566 F60.00
G01 X11.9033 Y13.7808 F60.00
G01 X11.9556 Y13.7946 F60.00
G01 X13.9895 Y13.7970 F60.00
G01 X14.0757 Y13.7808 F60.00
G01 X14.1220 Y13.7566 F60.00
G01 X14.1574 Y13.7274 F60.00
G01 X14.1866 Y13.6919 F60.00
G01 X14.2108 Y13.6457 F60.00
G01 X14.2270 Y13.5595 F60.00
G01 X14.2270 Y11.5595 F60.00
G01 X14.2108 Y11.4733 F60.00
G01 X14.1866 Y11.4270 F60.00
G01 X14.1574 Y11.3916 F60.00
G01 X14.1220 Y11.3624 F60.00
G01 X14.0757 Y11.3382 F60.00
G01 X13.9895 Y11.3220 F60.00
G01 X11.9895 Y11.3220 F60.00
G01 X11.9221 Y11.3317 F60.00
G01 X11.8859 Y11.3458 F60.00
G01 X11.8409 Y11.3742 F60.00
G01 X11.8043 Y11.4109 F60.00
G01 X11.7618 Y11.4921 F60.00
G01 X11.7520 Y11.5595 F60.00
G01 X11.7520 Y11.8217 F60.00
G01 X11.5756 Y11.8267 F60.00
G01 X11.4343 Y11.8572 F60.00
G01 X11.3016 Y11.9146 F60.00
G01 X11.1852 Y11.9946 F60.00
G01 X9.2339 Y13.9417 F60.00
G01 X5.4970 Y13.9417 F60.00
G01 X5.4970 Y13.6795 F60.00
G01 X5.4872 Y13.6121 F60.00
G01 X5.4732 Y13.5759 F60.00
G01 X5.4447 Y13.5309 F60.00
G01 X5.3920 Y13.4824 F60.00
G01 X5.3277 Y13.4520 F60.00
G01 X5.2595 Y13.4420 F60.00
G01 X3.2256 Y13.4444 F60.00
G01 X3.1733 Y13.4582 F60.00
G01 X3.1109 Y13.4943 F60.00
G01 X3.0624 Y13.5470 F60.00
G01 X3.0318 Y13.6121 F60.00
G01 X3.0220 Y13.6795 F60.00
G01 X3.0220 Y15.6795 F60.00
G01 X3.0382 Y15.7657 F60.00
G01 X3.0743 Y15.8281 F60.00
G01 X3.1270 Y15.8766 F60.00
G01 X3.1921 Y15.9072 F60.00
G01 X3.2595 Y15.9170 F60.00
G01 X5.2934 Y15.9146 F60.00
G01 X5.3457 Y15.9008 F60.00
G01 X5.4081 Y15.8647 F60.00
G01 X5.4566 Y15.8120 F60.00
G01 X5.4808 Y15.7657 F60.00
G01 X5.4970 Y15.6795 F60.00
G01 X5.4970 Y15.4173 F60.00
G01 X9.5512 Y15.4170 F60.00
G01 X9.6719 Y15.4051 F60.00
G01 X9.8109 Y15.3653 F60.00
G01 X9.8974 Y15.3244 F60.00
G01 X10.0138 Y15.2444 F60.00
G00 Z2.0000
G00 X14.2123 Y16.1818
G01 F60.00
G01 Z-0.0750
G01 F60.00
G01 X14.2270 Y16.0995 F60.00
G01 X14.2270 Y14.0995 F60.00
G01 X14.2108 Y14.0133 F60.00
G01 X14.1866 Y13.9670 F60.00
G01 X14.1574 Y13.9316 F60.00
G01 X14.1220 Y13.9024 F60.00
G01 X14.0757 Y13.8782 F60.00
G01 X13.9895 Y13.8620 F60.00
G01 X11.9895 Y13.8620 F60.00
G01 X11.9033 Y13.8782 F60.00
G01 X11.8570 Y13.9024 F60.00
G01 X11.8216 Y13.9316 F60.00
G01 X11.7924 Y13.9670 F60.00
G01 X11.7682 Y14.0133 F60.00
G01 X11.7520 Y14.0995 F60.00
G01 X11.7520 Y16.0995 F60.00
G01 X11.7682 Y16.1857 F60.00
G01 X11.7924 Y16.2319 F60.00
G01 X11.8216 Y16.2674 F60.00
G01 X11.8570 Y16.2966 F60.00
G01 X11.9033 Y16.3208 F60.00
G01 X11.9895 Y16.3370 F60.00
G01 X13.9895 Y16.3370 F60.00
G01 X14.0577 Y16.3270 F60.00
G01 X14.1220 Y16.2966 F60.00
G01 X14.1747 Y16.2481 F60.00
G01 X14.2123 Y16.1818 F60.00
G00 Z2.0000
G00 X14.2123 Y18.7218
G01 F60.00
G01 Z-0.0750
G01 F60.00
G01 X14.2270 Y18.6395 F60.00
G01 X14.2270 Y16.6395 F60.00
G01 X14.2108 Y16.5533 F60.00
G01 X14.1866 Y16.5070 F60.00
G01 X14.1574 Y16.4716 F60.00
G01 X14.1220 Y16.4424 F60.00
G01 X14.0757 Y16.4182 F60.00
G01 X13.9895 Y16.4020 F60.00
G01 X11.9895 Y16.4020 F60.00
G01 X11.9033 Y16.4182 F60.00
G01 X11.8570 Y16.4424 F60.00
G01 X11.8216 Y16.4716 F60.00
G01 X11.7924 Y16.5070 F60.00
G01 X11.7682 Y16.5533 F60.00
G01 X11.7520 Y16.6395 F60.00
G01 X11.7520 Y18.6395 F60.00
G01 X11.7682 Y18.7257 F60.00
G01 X11.7924 Y18.7719 F60.00
G01 X11.8216 Y18.8074 F60.00
G01 X11.8570 Y18.8366 F60.00
G01 X11.9033 Y18.8608 F60.00
G01 X11.9895 Y18.8770 F60.00
G01 X13.9895 Y18.8770 F60.00
G01 X14.0577 Y18.8670 F60.00
G01 X14.1220 Y18.8366 F60.00
G01 X14.1747 Y18.7881 F60.00
G01 X14.2123 Y18.7218 F60.00
G00 Z2.0000
G00 X14.2141 Y21.2561
G01 F60.00
G01 Z-0.0750
G01 F60.00
G01 X14.2270 Y21.1795 F60.00
G01 X14.2270 Y19.1795 F60.00
G01 X14.2108 Y19.0933 F60.00
G01 X14.1866 Y19.0470 F60.00
G01 X14.1574 Y19.0116 F60.00
G01 X14.1220 Y18.9824 F60.00
G01 X14.0757 Y18.9582 F60.00
G01 X13.9895 Y18.9420 F60.00
G01 X11.9895 Y18.9420 F60.00
G01 X11.9033 Y18.9582 F60.00
G01 X11.8570 Y18.9824 F60.00
G01 X11.8216 Y19.0116 F60.00
G01 X11.7924 Y19.0470 F60.00
G01 X11.7682 Y19.0933 F60.00
G01 X11.7520 Y19.1795 F60.00
G01 X11.7520 Y21.1795 F60.00
G01 X11.7682 Y21.2657 F60.00
G01 X11.7924 Y21.3119 F60.00
G01 X11.8216 Y21.3474 F60.00
G01 X11.8570 Y21.3766 F60.00
G01 X11.9033 Y21.4008 F60.00
G01 X11.9895 Y21.4170 F60.00
G01 X13.9895 Y21.4170 F60.00
G01 X14.0577 Y21.4070 F60.00
G01 X14.1220 Y21.3766 F60.00
G01 X14.1747 Y21.3281 F60.00
G01 X14.2141 Y21.2561 F60.00
G00 Z2.0000
G00 X14.2141 Y23.7961
G01 F60.00
G01 Z-0.0750
G01 F60.00
G01 X14.2270 Y23.7195 F60.00
G01 X14.2270 Y21.7195 F60.00
G01 X14.2108 Y21.6333 F60.00
G01 X14.1866 Y21.5870 F60.00
G01 X14.1574 Y21.5516 F60.00
G01 X14.1220 Y21.5224 F60.00
G01 X14.0757 Y21.4982 F60.00
G01 X13.9895 Y21.4820 F60.00
G01 X11.9895 Y21.4820 F60.00
G01 X11.9033 Y21.4982 F60.00
G01 X11.8570 Y21.5224 F60.00
G01 X11.8216 Y21.5516 F60.00
G01 X11.7924 Y21.5870 F60.00
G01 X11.7682 Y21.6333 F60.00
G01 X11.7520 Y21.7195 F60.00
G01 X11.7520 Y23.7195 F60.00
G01 X11.7682 Y23.8057 F60.00
G01 X11.7924 Y23.8519 F60.00
G01 X11.8216 Y23.8874 F60.00
G01 X11.8570 Y23.9166 F60.00
G01 X11.9033 Y23.9408 F60.00
G01 X11.9895 Y23.9570 F60.00
G01 X13.9895 Y23.9570 F60.00
G01 X14.0577 Y23.9470 F60.00
G01 X14.1220 Y23.9166 F60.00
G01 X14.1747 Y23.8681 F60.00
G01 X14.2141 Y23.7961 F60.00
G00 Z2.0000
G00 X14.2123 Y27.8658
G01 F60.00
G01 Z-0.0750
G01 F60.00
G01 X14.2270 Y27.7835 F60.00
G01 X14.2270 Y25.7835 F60.00
G01 X14.2108 Y25.6973 F60.00
G01 X14.1866 Y25.6510 F60.00
G01 X14.1574 Y25.6156 F60.00
G01 X14.1220 Y25.5864 F60.00
G01 X14.0757 Y25.5622 F60.00
G01 X13.9895 Y25.5460 F60.00
G01 X11.9895 Y25.5460 F60.00
G01 X11.9033 Y25.5622 F60.00
G01 X11.8570 Y25.5864 F60.00
G01 X11.8216 Y25.6156 F60.00
G01 X11.7924 Y25.6510 F60.00
G01 X11.7682 Y25.6973 F60.00
G01 X11.7520 Y25.7835 F60.00
G01 X11.7520 Y27.7835 F60.00
G01 X11.7682 Y27.8697 F60.00
G01 X11.7924 Y27.9160 F60.00
G01 X11.8216 Y27.9514 F60.00
G01 X11.8570 Y27.9806 F60.00
G01 X11.9033 Y28.0048 F60.00
G01 X11.9895 Y28.0210 F60.00
G01 X13.9895 Y28.0210 F60.00
G01 X14.0577 Y28.0110 F60.00
G01 X14.1220 Y27.9806 F60.00
G01 X14.1747 Y27.9321 F60.00
G01 X14.2123 Y27.8658 F60.00
G00 Z2.0000
G00 X16.3587 Y32.8670
G01 F60.00
G01 Z-0.0750
G01 F60.00
G01 X16.4801 Y32.9454 F60.00
G01 X16.5923 Y32.9918 F60.00
G01 X16.6822 Y33.0146 F60.00
G01 X16.8175 Y33.0273 F60.00
G01 X25.9320 Y33.0273 F60.00
G01 X25.9344 Y34.0634 F60.00
G01 X25.9482 Y34.1157 F60.00
G01 X25.9843 Y34.1781 F60.00
G01 X26.0370 Y34.2266 F60.00
G01 X26.0833 Y34.2508 F60.00
G01 X26.1695 Y34.2670 F60.00
G01 X28.2034 Y34.2646 F60.00
G01 X28.2731 Y34.2432 F60.00
G01 X28.3374 Y34.1974 F60.00
G01 X28.3841 Y34.1312 F60.00
G01 X28.4061 Y34.0505 F60.00
G01 X28.4070 Y32.0295 F60.00
G01 X28.3970 Y31.9613 F60.00
G01 X28.3666 Y31.8970 F60.00
G01 X28.3181 Y31.8443 F60.00
G01 X28.2557 Y31.8082 F60.00
G01 X28.1695 Y31.7920 F60.00
G01 X26.9753 Y31.7920 F60.00
G01 X26.8489 Y31.6828 F60.00
G01 X26.7225 Y31.6126 F60.00
G01 X26.5848 Y31.5685 F60.00
G01 X26.4295 Y31.5517 F60.00
G01 X17.1231 Y31.5517 F60.00
G01 X14.3732 Y28.8018 F60.00
G01 X14.3103 Y28.7460 F60.00
G01 X14.2270 Y28.6891 F60.00
G01 X14.2246 Y28.2896 F60.00
G01 X14.2108 Y28.2373 F60.00
G01 X14.1866 Y28.1910 F60.00
G01 X14.1220 Y28.1264 F60.00
G01 X14.0577 Y28.0960 F60.00
G01 X13.9895 Y28.0860 F60.00
G01 X11.9895 Y28.0860 F60.00
G01 X11.9033 Y28.1022 F60.00
G01 X11.8570 Y28.1264 F60.00
G01 X11.8216 Y28.1556 F60.00
G01 X11.7924 Y28.1910 F60.00
G01 X11.7682 Y28.2373 F60.00
G01 X11.7520 Y28.3235 F60.00
G01 X11.7520 Y30.3235 F60.00
G01 X11.7682 Y30.4097 F60.00
G01 X11.7924 Y30.4560 F60.00
G01 X11.8216 Y30.4914 F60.00
G01 X11.8570 Y30.5206 F60.00
G01 X11.9033 Y30.5448 F60.00
G01 X11.9895 Y30.5610 F60.00
G01 X13.9895 Y30.5610 F60.00
G01 X14.0397 Y30.5550 F60.00
G01 X16.3587 Y32.8670 F60.00
G00 Z2.0000
G00 X15.8787 Y34.9270
G01 F60.00
G01 Z-0.0750
G01 F60.00
G01 X16.0001 Y35.0054 F60.00
G01 X16.1123 Y35.0518 F60.00
G01 X16.2022 Y35.0746 F60.00
G01 X16.3258 Y35.0870 F60.00
G01 X21.5639 Y35.0873 F60.00
G01 X32.1920 Y45.7153 F60.00
G01 X32.1920 Y46.9095 F60.00
G01 X32.2082 Y46.9957 F60.00
G01 X32.2324 Y47.0420 F60.00
G01 X32.2616 Y47.0774 F60.00
G01 X32.2970 Y47.1066 F60.00
G01 X32.3433 Y47.1308 F60.00
G01 X32.4295 Y47.1470 F60.00
G01 X34.4295 Y47.1470 F60.00
G01 X34.4969 Y47.1372 F60.00
G01 X34.5448 Y47.1171 F60.00
G01 X34.5974 Y47.0774 F60.00
G01 X34.6266 Y47.0420 F60.00
G01 X34.6570 Y46.9777 F60.00
G01 X34.6670 Y46.9095 F60.00
G01 X34.6670 Y44.9095 F60.00
G01 X34.6508 Y44.8233 F60.00
G01 X34.6266 Y44.7770 F60.00
G01 X34.5974 Y44.7416 F60.00
G01 X34.5620 Y44.7124 F60.00
G01 X34.5157 Y44.6882 F60.00
G01 X34.4295 Y44.6720 F60.00
G01 X33.2353 Y44.6720 F60.00
G01 X22.3912 Y33.8278 F60.00
G01 X22.2889 Y33.7428 F60.00
G01 X22.2069 Y33.6936 F60.00
G01 X22.0947 Y33.6472 F60.00
G01 X22.0048 Y33.6244 F60.00
G01 X21.8695 Y33.6117 F60.00
G01 X16.6431 Y33.6117 F60.00
G01 X14.3732 Y31.3418 F60.00
G01 X14.3103 Y31.2860 F60.00
G01 X14.2270 Y31.2291 F60.00
G01 X14.2246 Y30.8296 F60.00
G01 X14.2108 Y30.7773 F60.00
G01 X14.1866 Y30.7310 F60.00
G01 X14.1574 Y30.6956 F60.00
G01 X14.1048 Y30.6559 F60.00
G01 X14.0569 Y30.6358 F60.00
G01 X13.9895 Y30.6260 F60.00
G01 X11.9895 Y30.6260 F60.00
G01 X11.9033 Y30.6422 F60.00
G01 X11.8570 Y30.6664 F60.00
G01 X11.8216 Y30.6956 F60.00
G01 X11.7924 Y30.7310 F60.00
G01 X11.7682 Y30.7773 F60.00
G01 X11.7520 Y30.8635 F60.00
G01 X11.7520 Y32.8635 F60.00
G01 X11.7682 Y32.9497 F60.00
G01 X11.7924 Y32.9960 F60.00
G01 X11.8216 Y33.0314 F60.00
G01 X11.8570 Y33.0606 F60.00
G01 X11.9033 Y33.0848 F60.00
G01 X11.9895 Y33.1010 F60.00
G01 X13.9895 Y33.1010 F60.00
G01 X14.0397 Y33.0950 F60.00
G01 X15.8787 Y34.9270 F60.00
G00 Z2.0000
G00 X14.2123 Y35.4858
G01 F60.00
G01 Z-0.0750
G01 F60.00
G01 X14.2270 Y35.4035 F60.00
G01 X14.2270 Y33.4035 F60.00
G01 X14.2108 Y33.3173 F60.00
G01 X14.1866 Y33.2710 F60.00
G01 X14.1574 Y33.2356 F60.00
G01 X14.1220 Y33.2064 F60.00
G01 X14.0757 Y33.1822 F60.00
G01 X13.9895 Y33.1660 F60.00
G01 X11.9895 Y33.1660 F60.00
G01 X11.9033 Y33.1822 F60.00
G01 X11.8570 Y33.2064 F60.00
G01 X11.8216 Y33.2356 F60.00
G01 X11.7924 Y33.2710 F60.00
G01 X11.7682 Y33.3173 F60.00
G01 X11.7520 Y33.4035 F60.00
G01 X11.7520 Y35.4035 F60.00
G01 X11.7682 Y35.4897 F60.00
G01 X11.7924 Y35.5360 F60.00
G01 X11.8216 Y35.5714 F60.00
G01 X11.8570 Y35.6006 F60.00
G01 X11.9033 Y35.6248 F60.00
G01 X11.9895 Y35.6410 F60.00
G01 X13.9895 Y35.6410 F60.00
G01 X14.0577 Y35.6310 F60.00
G01 X14.1220 Y35.6006 F60.00
G01 X14.1747 Y35.5521 F60.00
G01 X14.2123 Y35.4858 F60.00
G00 Z2.0000
G00 X8.3246 Y37.3138
G01 F60.00
G01 Z-0.0750
G01 F60.00
G01 X8.4803 Y37.4732 F60.00
G01 X8.5935 Y37.5632 F60.00
G01 X8.7221 Y37.6293 F60.00
G01 X8.8382 Y37.6645 F60.00
G01 X8.9096 Y37.6763 F60.00
G01 X11.7520 Y37.6813 F60.00
G01 X11.7520 Y37.9435 F60.00
G01 X11.7682 Y38.0297 F60.00
G01 X11.7924 Y38.0760 F60.00
G01 X11.8409 Y38.1287 F60.00
G01 X11.9033 Y38.1648 F60.00
G01 X11.9556 Y38.1786 F60.00
G01 X13.9895 Y38.1810 F60.00
G01 X14.0569 Y38.1712 F60.00
G01 X14.1220 Y38.1406 F60.00
G01 X14.1747 Y38.0921 F60.00
G01 X14.2108 Y38.0297 F60.00
G01 X14.2261 Y37.9645 F60.00
G01 X14.2270 Y35.9435 F60.00
G01 X14.2172 Y35.8761 F60.00
G01 X14.1866 Y35.8110 F60.00
G01 X14.1381 Y35.7583 F60.00
G01 X14.0757 Y35.7222 F60.00
G01 X14.0234 Y35.7084 F60.00
G01 X11.9895 Y35.7060 F60.00
G01 X11.9213 Y35.7160 F60.00
G01 X11.8570 Y35.7464 F60.00
G01 X11.8043 Y35.7949 F60.00
G01 X11.7758 Y35.8399 F60.00
G01 X11.7618 Y35.8761 F60.00
G01 X11.7520 Y35.9435 F60.00
G01 X11.7520 Y36.2057 F60.00
G01 X9.6273 Y36.2057 F60.00
G01 X9.6273 Y28.3195 F60.00
G01 X9.6223 Y28.2356 F60.00
G01 X9.5986 Y28.1166 F60.00
G01 X9.5664 Y28.0265 F60.00
G01 X9.5092 Y27.9195 F60.00
G01 X9.4112 Y27.7978 F60.00
G01 X8.6864 Y27.0768 F60.00
G01 X8.5469 Y26.9836 F60.00
G01 X8.4124 Y26.9304 F60.00
G01 X8.2934 Y26.9067 F60.00
G01 X8.2095 Y26.9017 F60.00
G01 X6.0470 Y26.9017 F60.00
G01 X6.0470 Y26.6395 F60.00
G01 X6.0308 Y26.5533 F60.00
G01 X6.0066 Y26.5070 F60.00
G01 X5.9581 Y26.4543 F60.00
G01 X5.8957 Y26.4182 F60.00
G01 X5.8434 Y26.4044 F60.00
G01 X3.8095 Y26.4020 F60.00
G01 X3.7233 Y26.4182 F60.00
G01 X3.6609 Y26.4543 F60.00
G01 X3.6124 Y26.5070 F60.00
G01 X3.5820 Y26.5713 F60.00
G01 X3.5720 Y26.6395 F60.00
G01 X3.5720 Y28.6395 F60.00
G01 X3.5820 Y28.7077 F60.00
G01 X3.6124 Y28.7720 F60.00
G01 X3.6609 Y28.8247 F60.00
G01 X3.7059 Y28.8532 F60.00
G01 X3.7421 Y28.8672 F60.00
G01 X3.8095 Y28.8770 F60.00
G01 X5.8434 Y28.8746 F60.00
G01 X5.8957 Y28.8608 F60.00
G01 X5.9581 Y28.8247 F60.00
G01 X6.0066 Y28.7720 F60.00
G01 X6.0308 Y28.7257 F60.00
G01 X6.0470 Y28.6395 F60.00
G01 X6.0470 Y28.3773 F60.00
G01 X7.9039 Y28.3773 F60.00
G01 X8.1517 Y28.6251 F60.00
G01 X8.1517 Y36.8395 F60.00
G01 X8.1639 Y36.9719 F60.00
G01 X8.2037 Y37.1109 F60.00
G01 X8.2446 Y37.1974 F60.00
G01 X8.3246 Y37.3138 F60.00
G00 Z2.0000
G00 X3.9667 Y39.5134
G01 F60.00
G01 Z-0.0750
G01 F60.00
G01 X3.9904 Y39.6324 F60.00
G01 X4.0436 Y39.7669 F60.00
G01 X4.0928 Y39.8489 F60.00
G01 X4.1778 Y39.9512 F60.00
G01 X4.2947 Y40.0610 F60.00
G01 X4.3956 Y40.1284 F60.00
G01 X4.5283 Y40.1858 F60.00
G01 X4.6696 Y40.2163 F60.00
G01 X11.7520 Y40.2213 F60.00
G01 X11.7520 Y40.4835 F60.00
G01 X11.7682 Y40.5697 F60.00
G01 X11.7924 Y40.6160 F60.00
G01 X11.8216 Y40.6514 F60.00
G01 X11.8742 Y40.6911 F60.00
G01 X11.9221 Y40.7112 F60.00
G01 X11.9895 Y40.7210 F60.00
G01 X14.0234 Y40.7186 F60.00
G01 X14.0931 Y40.6972 F60.00
G01 X14.1574 Y40.6514 F60.00
G01 X14.2041 Y40.5852 F60.00
G01 X14.2261 Y40.5045 F60.00
G01 X14.2246 Y38.4496 F60.00
G01 X14.2032 Y38.3799 F60.00
G01 X14.1574 Y38.3156 F60.00
G01 X14.0931 Y38.2698 F60.00
G01 X14.0234 Y38.2484 F60.00
G01 X11.9895 Y38.2460 F60.00
G01 X11.9213 Y38.2560 F60.00
G01 X11.8570 Y38.2864 F60.00
G01 X11.8043 Y38.3349 F60.00
G01 X11.7758 Y38.3799 F60.00
G01 X11.7618 Y38.4161 F60.00
G01 X11.7520 Y38.4835 F60.00
G01 X11.7520 Y38.7457 F60.00
G01 X5.5473 Y38.7457 F60.00
G01 X5.5473 Y33.9570 F60.00
G01 X5.8095 Y33.9570 F60.00
G01 X5.8957 Y33.9408 F60.00
G01 X5.9420 Y33.9166 F60.00
G01 X5.9947 Y33.8681 F60.00
G01 X6.0308 Y33.8057 F60.00
G01 X6.0446 Y33.7534 F60.00
G01 X6.0470 Y31.7195 F60.00
G01 X6.0372 Y31.6521 F60.00
G01 X6.0066 Y31.5870 F60.00
G01 X5.9581 Y31.5343 F60.00
G01 X5.8957 Y31.4982 F60.00
G01 X5.8434 Y31.4844 F60.00
G01 X3.7756 Y31.4844 F60.00
G01 X3.7059 Y31.5058 F60.00
G01 X3.6416 Y31.5516 F60.00
G01 X3.5958 Y31.6159 F60.00
G01 X3.5744 Y31.6856 F60.00
G01 X3.5720 Y33.7195 F60.00
G01 X3.5820 Y33.7877 F60.00
G01 X3.6124 Y33.8520 F60.00
G01 X3.6609 Y33.9047 F60.00
G01 X3.7059 Y33.9332 F60.00
G01 X3.7421 Y33.9472 F60.00
G01 X3.8095 Y33.9570 F60.00
G01 X4.0717 Y33.9570 F60.00
G01 X4.0717 Y39.0430 F60.00
G01 X4.0137 Y39.1581 F60.00
G01 X3.9785 Y39.2742 F60.00
G01 X3.9644 Y39.3688 F60.00
G01 X3.9667 Y39.5134 F60.00
G00 Z2.0000
G00 X11.7677 Y45.9437
G01 F60.00
G01 Z-0.0750
G01 F60.00
G01 X11.7823 Y45.8598 F60.00
G01 X11.7762 Y45.7665 F60.00
G01 X11.7265 Y45.5986 F60.00
G01 X11.7265 Y43.5283 F60.00
G01 X11.7563 Y43.4362 F60.00
G01 X11.8016 Y43.3756 F60.00
G01 X11.8622 Y43.3303 F60.00
G01 X11.9544 Y43.3005 F60.00
G01 X14.0246 Y43.3005 F60.00
G01 X14.1168 Y43.3303 F60.00
G01 X14.1774 Y43.3756 F60.00
G01 X14.2227 Y43.4362 F60.00
G01 X14.2525 Y43.5284 F60.00
G01 X14.2525 Y45.5986 F60.00
G01 X14.2063 Y45.7402 F60.00
G01 X14.1967 Y45.8071 F60.00
G01 X14.2087 Y45.9343 F60.00
G01 X14.2525 Y46.0684 F60.00
G01 X14.2525 Y48.1386 F60.00
G01 X14.2063 Y48.2802 F60.00
G01 X14.1967 Y48.3471 F60.00
G01 X14.2087 Y48.4743 F60.00
G01 X14.2525 Y48.6084 F60.00
G01 X14.2525 Y50.6786 F60.00
G01 X14.2227 Y50.7708 F60.00
G01 X14.1774 Y50.8314 F60.00
G01 X14.1168 Y50.8767 F60.00
G01 X14.0246 Y50.9065 F60.00
G01 X11.9543 Y50.9065 F60.00
G01 X11.8622 Y50.8767 F60.00
G01 X11.8016 Y50.8314 F60.00
G01 X11.7563 Y50.7708 F60.00
G01 X11.7265 Y50.6786 F60.00
G01 X11.7265 Y48.6083 F60.00
G01 X11.7727 Y48.4668 F60.00
G01 X11.7823 Y48.3998 F60.00
G01 X11.7703 Y48.2726 F60.00
G01 X11.7265 Y48.1386 F60.00
G01 X11.7265 Y46.0683 F60.00
G01 X11.7677 Y45.9437 F60.00
G00 Z2.0000
G00 X14.2141 Y45.6401
G01 F60.00
G01 Z-0.0750
G01 F60.00
G01 X14.2270 Y45.5635 F60.00
G01 X14.2270 Y43.5635 F60.00
G01 X14.2108 Y43.4773 F60.00
G01 X14.1866 Y43.4310 F60.00
G01 X14.1574 Y43.3956 F60.00
G01 X14.1220 Y43.3664 F60.00
G01 X14.0757 Y43.3422 F60.00
G01 X13.9895 Y43.3260 F60.00
G01 X11.9895 Y43.3260 F60.00
G01 X11.9033 Y43.3422 F60.00
G01 X11.8570 Y43.3664 F60.00
G01 X11.8216 Y43.3956 F60.00
G01 X11.7924 Y43.4310 F60.00
G01 X11.7682 Y43.4773 F60.00
G01 X11.7520 Y43.5635 F60.00
G01 X11.7520 Y45.5635 F60.00
G01 X11.7682 Y45.6497 F60.00
G01 X11.7924 Y45.6959 F60.00
G01 X11.8216 Y45.7314 F60.00
G01 X11.8570 Y45.7606 F60.00
G01 X11.9033 Y45.7848 F60.00
G01 X11.9895 Y45.8010 F60.00
G01 X13.9895 Y45.8010 F60.00
G01 X14.0577 Y45.7910 F60.00
G01 X14.1220 Y45.7606 F60.00
G01 X14.1747 Y45.7121 F60.00
G01 X14.2141 Y45.6401 F60.00
G00 Z2.0000
G00 X14.2141 Y48.1801
G01 F60.00
G01 Z-0.0750
G01 F60.00
G01 X14.2270 Y48.1035 F60.00
G01 X14.2270 Y46.1035 F60.00
G01 X14.2108 Y46.0173 F60.00
G01 X14.1866 Y45.9710 F60.00
G01 X14.1574 Y45.9356 F60.00
G01 X14.1220 Y45.9064 F60.00
G01 X14.0757 Y45.8822 F60.00
G01 X13.9895 Y45.8660 F60.00
G01 X11.9895 Y45.8660 F60.00
G01 X11.9033 Y45.8822 F60.00
G01 X11.8570 Y45.9064 F60.00
G01 X11.8216 Y45.9356 F60.00
G01 X11.7924 Y45.9710 F60.00
G01 X11.7682 Y46.0173 F60.00
G01 X11.7520 Y46.1035 F60.00
G01 X11.7520 Y48.1035 F60.00
G01 X11.7682 Y48.1897 F60.00
G01 X11.7924 Y48.2359 F60.00
G01 X11.8216 Y48.2714 F60.00
G01 X11.8570 Y48.3006 F60.00
G01 X11.9033 Y48.3248 F60.00
G01 X11.9895 Y48.3410 F60.00
G01 X13.9895 Y48.3410 F60.00
G01 X14.0577 Y48.3310 F60.00
G01 X14.1220 Y48.3006 F60.00
G01 X14.1747 Y48.2521 F60.00
G01 X14.2141 Y48.1801 F60.00
G00 Z2.0000
G00 X14.2123 Y50.7258
G01 F60.00
G01 Z-0.0750
G01 F60.00
G01 X14.2270 Y50.6435 F60.00
G01 X14.2270 Y48.6435 F60.00
G01 X14.2108 Y48.5573 F60.00
G01 X14.1866 Y48.5110 F60.00
G01 X14.1574 Y48.4756 F60.00
G01 X14.1220 Y48.4464 F60.00
G01 X14.0757 Y48.4222 F60.00
G01 X13.9895 Y48.4060 F60.00
G01 X11.9895 Y48.4060 F60.00
G01 X11.9033 Y48.4222 F60.00
G01 X11.8570 Y48.4464 F60.00
G01 X11.8216 Y48.4756 F60.00
G01 X11.7924 Y48.5110 F60.00
G01 X11.7682 Y48.5573 F60.00
G01 X11.7520 Y48.6435 F60.00
G01 X11.7520 Y50.6435 F60.00
G01 X11.7682 Y50.7297 F60.00
G01 X11.7924 Y50.7759 F60.00
G01 X11.8216 Y50.8114 F60.00
G01 X11.8570 Y50.8406 F60.00
G01 X11.9033 Y50.8648 F60.00
G01 X11.9895 Y50.8810 F60.00
G01 X13.9895 Y50.8810 F60.00
G01 X14.0577 Y50.8710 F60.00
G01 X14.1220 Y50.8406 F60.00
G01 X14.1747 Y50.7921 F60.00
G01 X14.2123 Y50.7258 F60.00
G00 Z2.0000
G00 X-0.1951 Y56.8642
G01 F60.00
G01 Z-0.0750
G01 F60.00
G01 X-0.1157 Y56.9624 F60.00
G01 X-0.0689 Y57.0007 F60.00
G01 X-0.0274 Y57.0213 F60.00
G01 X0.0571 Y57.0469 F60.00
G01 X0.1240 Y57.0565 F60.00
G01 X37.6892 Y57.0565 F60.00
G01 X37.8102 Y57.0342 F60.00
G01 X37.8899 Y56.9938 F60.00
G01 X37.9666 Y56.9234 F60.00
G01 X38.0092 Y56.8627 F60.00
G01 X38.0494 Y56.7153 F60.00
G01 X38.0461 Y56.6440 F60.00
G01 X38.0164 Y56.5492 F60.00
G01 X37.9925 Y56.4984 F60.00
G01 X37.9590 Y56.4563 F60.00
G01 X37.8553 Y56.3747 F60.00
G01 X37.7181 Y56.3157 F60.00
G01 X37.5931 Y56.2322 F60.00
G01 X33.7093 Y52.3489 F60.00
G01 X33.6272 Y52.2927 F60.00
G01 X33.4989 Y52.2551 F60.00
G01 X32.3943 Y52.2525 F60.00
G01 X32.3022 Y52.2227 F60.00
G01 X32.2416 Y52.1774 F60.00
G01 X32.1963 Y52.1168 F60.00
G01 X32.1665 Y52.0246 F60.00
G01 X32.1665 Y49.9544 F60.00
G01 X32.1963 Y49.8622 F60.00
G01 X32.2416 Y49.8016 F60.00
G01 X32.3022 Y49.7563 F60.00
G01 X32.3944 Y49.7265 F60.00
G01 X34.4646 Y49.7265 F60.00
G01 X34.5568 Y49.7563 F60.00
G01 X34.6174 Y49.8016 F60.00
G01 X34.6627 Y49.8622 F60.00
G01 X34.6925 Y49.9544 F60.00
G01 X34.6967 Y51.0755 F60.00
G01 X34.7137 Y51.1417 F60.00
G01 X34.7763 Y51.2539 F60.00
G01 X38.2897 Y54.7706 F60.00
G01 X38.3818 Y54.8363 F60.00
G01 X38.5276 Y54.8758 F60.00
G01 X81.9250 Y54.8765 F60.00
G01 X82.0270 Y54.8599 F60.00
G01 X82.1112 Y54.8234 F60.00
G01 X82.2113 Y54.7347 F60.00
G01 X82.2400 Y54.6916 F60.00
G01 X82.2572 Y54.6490 F60.00
G01 X82.2819 Y54.5616 F60.00
G01 X82.2865 Y54.5150 F60.00
G01 X82.2865 Y28.0014 F60.00
G01 X82.2771 Y27.9203 F60.00
G01 X82.2543 Y27.8538 F60.00
G01 X82.2286 Y27.8061 F60.00
G01 X82.1637 Y27.7299 F60.00
G01 X82.0741 Y27.6727 F60.00
G01 X81.9715 Y27.6430 F60.00
G01 X81.8925 Y27.6414 F60.00
G01 X81.7880 Y27.6669 F60.00
G01 X81.7074 Y27.7127 F60.00
G01 X81.5407 Y27.7744 F60.00
G01 X81.4448 Y27.8499 F60.00
G01 X81.4037 Y27.8961 F60.00
G01 X81.3815 Y27.9369 F60.00
G01 X81.3457 Y28.0613 F60.00
G01 X81.3431 Y34.1321 F60.00
G01 X81.3138 Y34.2795 F60.00
G01 X81.2563 Y34.4183 F60.00
G01 X81.1728 Y34.5433 F60.00
G01 X78.5509 Y37.1652 F60.00
G01 X78.4259 Y37.2487 F60.00
G01 X78.2871 Y37.3062 F60.00
G01 X78.1397 Y37.3355 F60.00
G01 X76.8547 Y37.3370 F60.00
G01 X76.7908 Y37.3475 F60.00
G01 X76.7361 Y37.3669 F60.00
G01 X76.6424 Y37.4292 F60.00
G01 X76.6062 Y37.4628 F60.00
G01 X76.5792 Y37.5006 F60.00
G01 X76.5447 Y37.5730 F60.00
G01 X76.4979 Y37.6993 F60.00
G01 X76.4133 Y37.8054 F60.00
G01 X76.3649 Y37.8905 F60.00
G01 X76.3373 Y37.9781 F60.00
G01 X76.3421 Y38.0976 F60.00
G01 X76.3775 Y38.2274 F60.00
G01 X76.3775 Y39.9977 F60.00
G01 X76.3477 Y40.0898 F60.00
G01 X76.3024 Y40.1504 F60.00
G01 X76.2418 Y40.1957 F60.00
G01 X76.1496 Y40.2255 F60.00
G01 X74.3793 Y40.2255 F60.00
G01 X74.2872 Y40.1957 F60.00
G01 X74.2267 Y40.1505 F60.00
G01 X74.1387 Y40.0335 F60.00
G01 X74.0563 Y39.9511 F60.00
G01 X74.0073 Y39.9257 F60.00
G01 X73.8912 Y39.8931 F60.00
G01 X71.9444 Y39.8905 F60.00
G01 X71.7969 Y39.8612 F60.00
G01 X71.7630 Y39.8471 F60.00
G01 X71.6581 Y39.8037 F60.00
G01 X71.5331 Y39.7202 F60.00
G01 X71.2768 Y39.4639 F60.00
G01 X71.1826 Y39.3244 F60.00
G01 X71.1275 Y39.2657 F60.00
G01 X71.0103 Y39.2028 F60.00
G01 X70.9365 Y39.1827 F60.00
G01 X70.7942 Y39.1963 F60.00
G01 X70.7508 Y39.2097 F60.00
G01 X70.6977 Y39.2406 F60.00
G01 X70.6266 Y39.3019 F60.00
G01 X70.5931 Y39.3412 F60.00
G01 X70.5677 Y39.3903 F60.00
G01 X70.5421 Y39.4747 F60.00
G01 X70.5325 Y39.5416 F60.00
G01 X70.5325 Y42.4230 F60.00
G01 X70.5491 Y42.5250 F60.00
G01 X70.5657 Y42.5744 F60.00
G01 X70.6017 Y42.6300 F60.00
G01 X70.6743 Y42.7093 F60.00
G01 X70.7426 Y42.7493 F60.00
G01 X70.8474 Y42.7799 F60.00
G01 X70.8940 Y42.7845 F60.00
G01 X74.1947 Y42.7845 F60.00
G01 X74.3421 Y42.8138 F60.00
G01 X74.4809 Y42.8713 F60.00
G01 X74.6059 Y42.9548 F60.00
G01 X75.7172 Y44.0661 F60.00
G01 X75.8007 Y44.1911 F60.00
G01 X75.8582 Y44.3299 F60.00
G01 X75.8875 Y44.4773 F60.00
G01 X75.8890 Y48.2023 F60.00
G01 X75.8995 Y48.2662 F60.00
G01 X75.9189 Y48.3209 F60.00
G01 X76.0033 Y48.4400 F60.00
G01 X76.0718 Y48.4878 F60.00
G01 X76.2518 Y48.5593 F60.00
G01 X76.3124 Y48.6046 F60.00
G01 X76.3577 Y48.6652 F60.00
G01 X76.3875 Y48.7574 F60.00
G01 X76.3875 Y50.8277 F60.00
G01 X76.3577 Y50.9198 F60.00
G01 X76.3124 Y50.9804 F60.00
G01 X76.2518 Y51.0257 F60.00
G01 X76.1596 Y51.0555 F60.00
G01 X74.0893 Y51.0555 F60.00
G01 X73.9972 Y51.0257 F60.00
G01 X73.9366 Y50.9804 F60.00
G01 X73.8913 Y50.9198 F60.00
G01 X73.8634 Y50.8449 F60.00
G01 X73.8634 Y48.7401 F60.00
G01 X73.8913 Y48.6652 F60.00
G01 X73.9366 Y48.6046 F60.00
G01 X73.9972 Y48.5593 F60.00
G01 X74.1480 Y48.5054 F60.00
G01 X74.1854 Y48.4845 F60.00
G01 X74.2863 Y48.3952 F60.00
G01 X74.3263 Y48.3269 F60.00
G01 X74.3608 Y48.1932 F60.00
G01 X74.3615 Y45.0183 F60.00
G01 X74.3538 Y44.9440 F60.00
G01 X74.3403 Y44.9003 F60.00
G01 X74.2865 Y44.8008 F60.00
G01 X74.2556 Y44.7627 F60.00
G01 X73.8633 Y44.3777 F60.00
G01 X73.8002 Y44.3439 F60.00
G01 X73.6714 Y44.3112 F60.00
G01 X69.6943 Y44.3105 F60.00
G01 X69.5469 Y44.2812 F60.00
G01 X69.4081 Y44.2237 F60.00
G01 X69.2831 Y44.1402 F60.00
G01 X69.1768 Y44.0339 F60.00
G01 X69.0933 Y43.9089 F60.00
G01 X69.0358 Y43.7701 F60.00
G01 X69.0065 Y43.6227 F60.00
G01 X69.0065 Y28.5790 F60.00
G01 X69.0358 Y28.4315 F60.00
G01 X69.0933 Y28.2927 F60.00
G01 X69.1768 Y28.1677 F60.00
G01 X70.5752 Y26.7693 F60.00
G01 X70.6289 Y26.7008 F60.00
G01 X70.6518 Y26.6477 F60.00
G01 X70.6804 Y26.5314 F60.00
G01 X70.6811 Y25.4444 F60.00
G01 X70.7109 Y25.3522 F60.00
G01 X70.7562 Y25.2916 F60.00
G01 X70.8168 Y25.2463 F60.00
G01 X70.9090 Y25.2165 F60.00
G01 X72.9792 Y25.2165 F60.00
G01 X73.0714 Y25.2463 F60.00
G01 X73.1320 Y25.2916 F60.00
G01 X73.1773 Y25.3522 F60.00
G01 X73.2071 Y25.4444 F60.00
G01 X73.2071 Y27.5147 F60.00
G01 X73.1773 Y27.6068 F60.00
G01 X73.1320 Y27.6674 F60.00
G01 X73.0714 Y27.7127 F60.00
G01 X72.9965 Y27.7406 F60.00
G01 X71.9099 Y27.7425 F60.00
G01 X71.8356 Y27.7502 F60.00
G01 X71.7697 Y27.7744 F60.00
G01 X71.6924 Y27.8175 F60.00
G01 X71.6543 Y27.8484 F60.00
G01 X70.6384 Y28.8643 F60.00
G01 X70.5847 Y28.9328 F60.00
G01 X70.5618 Y28.9859 F60.00
G01 X70.5371 Y29.0733 F60.00
G01 X70.5325 Y29.1199 F60.00
G01 X70.5331 Y32.9607 F60.00
G01 X70.5577 Y33.0733 F60.00
G01 X70.6432 Y33.2036 F60.00
G01 X70.6811 Y33.2344 F60.00
G01 X70.7777 Y33.2828 F60.00
G01 X70.8276 Y33.2987 F60.00
G01 X70.8742 Y33.3033 F60.00
G01 X71.0100 Y33.2851 F60.00
G01 X71.0851 Y33.2477 F60.00
G01 X71.1763 Y33.1682 F60.00
G01 X71.2768 Y33.0211 F60.00
G01 X71.3831 Y32.9148 F60.00
G01 X71.5081 Y32.8313 F60.00
G01 X71.6469 Y32.7738 F60.00
G01 X71.7944 Y32.7445 F60.00
G01 X75.6191 Y32.7431 F60.00
G01 X75.7083 Y32.7247 F60.00
G01 X75.8239 Y32.6607 F60.00
G01 X76.2060 Y32.2819 F60.00
G01 X76.2717 Y32.1898 F60.00
G01 X76.3073 Y32.0729 F60.00
G01 X76.3119 Y32.0263 F60.00
G01 X76.3104 Y28.0697 F60.00
G01 X76.2851 Y27.9608 F60.00
G01 X76.2010 Y27.8370 F60.00
G01 X76.1355 Y27.7880 F60.00
G01 X75.9476 Y27.7127 F60.00
G01 X75.8870 Y27.6674 F60.00
G01 X75.8417 Y27.6068 F60.00
G01 X75.8138 Y27.5319 F60.00
G01 X75.8138 Y25.4271 F60.00
G01 X75.8417 Y25.3522 F60.00
G01 X75.8870 Y25.2916 F60.00
G01 X75.9476 Y25.2463 F60.00
G01 X76.0398 Y25.2165 F60.00
G01 X78.1100 Y25.2165 F60.00
G01 X78.2022 Y25.2463 F60.00
G01 X78.2628 Y25.2916 F60.00
G01 X78.3081 Y25.3522 F60.00
G01 X78.3360 Y25.4271 F60.00
G01 X78.3360 Y27.5319 F60.00
G01 X78.3081 Y27.6068 F60.00
G01 X78.2628 Y27.6674 F60.00
G01 X78.2022 Y27.7127 F60.00
G01 X78.0514 Y27.7666 F60.00
G01 X78.0140 Y27.7875 F60.00
G01 X77.9131 Y27.8768 F60.00
G01 X77.8731 Y27.9451 F60.00
G01 X77.8386 Y28.0788 F60.00
G01 X77.8379 Y32.5673 F60.00
G01 X77.8086 Y32.7147 F60.00
G01 X77.7511 Y32.8535 F60.00
G01 X77.6676 Y32.9785 F60.00
G01 X76.5459 Y34.1002 F60.00
G01 X76.4209 Y34.1837 F60.00
G01 X76.2821 Y34.2412 F60.00
G01 X76.1347 Y34.2705 F60.00
G01 X72.9726 Y34.2715 F60.00
G01 X72.8622 Y34.2957 F60.00
G01 X72.8078 Y34.3236 F60.00
G01 X72.7077 Y34.4123 F60.00
G01 X72.6677 Y34.4806 F60.00
G01 X72.6371 Y34.5854 F60.00
G01 X72.6325 Y34.6320 F60.00
G01 X72.6325 Y38.0030 F60.00
G01 X72.6577 Y38.1348 F60.00
G01 X72.6856 Y38.1892 F60.00
G01 X72.7743 Y38.2893 F60.00
G01 X72.8345 Y38.3261 F60.00
G01 X72.9474 Y38.3599 F60.00
G01 X73.8067 Y38.3645 F60.00
G01 X73.8538 Y38.3598 F60.00
G01 X73.9543 Y38.3323 F60.00
G01 X74.0340 Y38.2798 F60.00
G01 X74.0924 Y38.2209 F60.00
G01 X74.1279 Y38.1686 F60.00
G01 X74.1476 Y38.1129 F60.00
G01 X74.1669 Y38.0158 F60.00
G01 X74.1608 Y37.9366 F60.00
G01 X74.1285 Y37.8457 F60.00
G01 X74.1064 Y37.8013 F60.00
G01 X74.0313 Y37.6998 F60.00
G01 X74.0015 Y37.6076 F60.00
G01 X74.0015 Y35.5374 F60.00
G01 X74.0313 Y35.4452 F60.00
G01 X74.0766 Y35.3846 F60.00
G01 X74.1372 Y35.3393 F60.00
G01 X74.2294 Y35.3095 F60.00
G01 X76.3169 Y35.3114 F60.00
G01 X76.3918 Y35.3393 F60.00
G01 X76.4524 Y35.3846 F60.00
G01 X76.4977 Y35.4452 F60.00
G01 X76.5517 Y35.5960 F60.00
G01 X76.5725 Y35.6334 F60.00
G01 X76.6618 Y35.7343 F60.00
G01 X76.7301 Y35.7743 F60.00
G01 X76.8349 Y35.8049 F60.00
G01 X76.8815 Y35.8095 F60.00
G01 X77.5987 Y35.8095 F60.00
G01 X77.6950 Y35.7961 F60.00
G01 X77.8002 Y35.7441 F60.00
G01 X77.8543 Y35.7036 F60.00
G01 X79.7112 Y33.8467 F60.00
G01 X79.7649 Y33.7782 F60.00
G01 X79.8075 Y33.6580 F60.00
G01 X79.8171 Y33.5911 F60.00
G01 X79.8171 Y28.0965 F60.00
G01 X79.8051 Y28.0058 F60.00
G01 X79.7903 Y27.9608 F60.00
G01 X79.7062 Y27.8370 F60.00
G01 X79.6407 Y27.7880 F60.00
G01 X79.4528 Y27.7127 F60.00
G01 X79.3922 Y27.6674 F60.00
G01 X79.3469 Y27.6068 F60.00
G01 X79.3190 Y27.5319 F60.00
G01 X79.3190 Y25.4271 F60.00
G01 X79.3469 Y25.3522 F60.00
G01 X79.3922 Y25.2916 F60.00
G01 X79.4528 Y25.2463 F60.00
G01 X79.5450 Y25.2165 F60.00
G01 X81.6152 Y25.2165 F60.00
G01 X81.7074 Y25.2463 F60.00
G01 X81.7598 Y25.2763 F60.00
G01 X81.8608 Y25.3132 F60.00
G01 X81.9275 Y25.3170 F60.00
G01 X82.0103 Y25.3055 F60.00
G01 X82.1024 Y25.2718 F60.00
G01 X82.2113 Y25.1773 F60.00
G01 X82.2513 Y25.1089 F60.00
G01 X82.2858 Y24.9752 F60.00
G01 X82.2823 Y17.0635 F60.00
G01 X82.2653 Y16.9973 F60.00
G01 X82.1896 Y16.8691 F60.00
G01 X80.5988 Y15.2779 F60.00
G01 X80.5153 Y15.1529 F60.00
G01 X80.4578 Y15.0141 F60.00
G01 X80.4285 Y14.8667 F60.00
G01 X80.4285 Y12.0373 F60.00
G01 X80.4151 Y11.9410 F60.00
G01 X80.3535 Y11.8198 F60.00
G01 X78.6093 Y10.0684 F60.00
G01 X78.5172 Y10.0027 F60.00
G01 X78.4003 Y9.9671 F60.00
G01 X77.2843 Y9.9625 F60.00
G01 X77.1428 Y9.9163 F60.00
G01 X77.0759 Y9.9067 F60.00
G01 X76.9486 Y9.9187 F60.00
G01 X76.8146 Y9.9625 F60.00
G01 X74.7443 Y9.9625 F60.00
G01 X74.6028 Y9.9163 F60.00
G01 X74.5359 Y9.9067 F60.00
G01 X74.4086 Y9.9187 F60.00
G01 X74.2746 Y9.9625 F60.00
G01 X72.2043 Y9.9625 F60.00
G01 X72.1122 Y9.9327 F60.00
G01 X72.0516 Y9.8874 F60.00
G01 X72.0063 Y9.8268 F60.00
G01 X71.9765 Y9.7346 F60.00
G01 X71.9765 Y7.6644 F60.00
G01 X72.0063 Y7.5722 F60.00
G01 X72.0516 Y7.5116 F60.00
G01 X72.1122 Y7.4663 F60.00
G01 X72.2044 Y7.4365 F60.00
G01 X74.2746 Y7.4365 F60.00
G01 X74.4316 Y7.4867 F60.00
G01 X74.4831 Y7.4923 F60.00
G01 X74.5733 Y7.4871 F60.00
G01 X74.6257 Y7.4760 F60.00
G01 X74.7749 Y7.4236 F60.00
G01 X74.8542 Y7.3813 F60.00
G01 X74.9224 Y7.3222 F60.00
G01 X74.9607 Y7.2754 F60.00
G01 X74.9813 Y7.2339 F60.00
G01 X75.0119 Y7.1291 F60.00
G01 X75.0165 Y4.9953 F60.00
G01 X75.0088 Y4.9210 F60.00
G01 X74.9953 Y4.8773 F60.00
G01 X74.9415 Y4.7778 F60.00
G01 X74.9106 Y4.7397 F60.00
G01 X73.5893 Y3.4184 F60.00
G01 X73.4972 Y3.3527 F60.00
G01 X73.3803 Y3.3171 F60.00
G01 X62.8170 Y3.3125 F60.00
G01 X62.7427 Y3.3202 F60.00
G01 X62.6990 Y3.3337 F60.00
G01 X62.5995 Y3.3875 F60.00
G01 X62.5393 Y3.4438 F60.00
G01 X62.4759 Y3.5580 F60.00
G01 X62.4583 Y3.6476 F60.00
G01 X62.4704 Y3.7749 F60.00
G01 X62.5125 Y3.9044 F60.00
G01 X62.5125 Y5.9746 F60.00
G01 X62.4663 Y6.1162 F60.00
G01 X62.4567 Y6.1831 F60.00
G01 X62.4687 Y6.3103 F60.00
G01 X62.5125 Y6.4444 F60.00
G01 X62.5125 Y8.5146 F60.00
G01 X62.4663 Y8.6562 F60.00
G01 X62.4567 Y8.7231 F60.00
G01 X62.4687 Y8.8503 F60.00
G01 X62.5125 Y8.9844 F60.00
G01 X62.5125 Y11.0546 F60.00
G01 X62.4663 Y11.1962 F60.00
G01 X62.4567 Y11.2631 F60.00
G01 X62.4687 Y11.3903 F60.00
G01 X62.5125 Y11.5244 F60.00
G01 X62.5125 Y13.5946 F60.00
G01 X62.4663 Y13.7362 F60.00
G01 X62.4567 Y13.8031 F60.00
G01 X62.4687 Y13.9303 F60.00
G01 X62.5125 Y14.0644 F60.00
G01 X62.5125 Y16.1346 F60.00
G01 X62.4663 Y16.2762 F60.00
G01 X62.4567 Y16.3431 F60.00
G01 X62.4687 Y16.4703 F60.00
G01 X62.5125 Y16.6044 F60.00
G01 X62.5125 Y18.6746 F60.00
G01 X62.4827 Y18.7668 F60.00
G01 X62.4374 Y18.8274 F60.00
G01 X62.3768 Y18.8727 F60.00
G01 X62.3019 Y18.9006 F60.00
G01 X60.2143 Y18.9025 F60.00
G01 X60.1222 Y18.8727 F60.00
G01 X60.0616 Y18.8274 F60.00
G01 X60.0163 Y18.7668 F60.00
G01 X59.9884 Y18.6919 F60.00
G01 X59.9865 Y16.6043 F60.00
G01 X60.0327 Y16.4628 F60.00
G01 X60.0423 Y16.3958 F60.00
G01 X60.0303 Y16.2686 F60.00
G01 X59.9865 Y16.1346 F60.00
G01 X59.9865 Y14.0643 F60.00
G01 X60.0327 Y13.9228 F60.00
G01 X60.0423 Y13.8558 F60.00
G01 X60.0303 Y13.7286 F60.00
G01 X59.9865 Y13.5946 F60.00
G01 X59.9865 Y11.5243 F60.00
G01 X60.0327 Y11.3828 F60.00
G01 X60.0423 Y11.3158 F60.00
G01 X60.0303 Y11.1886 F60.00
G01 X59.9865 Y11.0546 F60.00
G01 X59.9865 Y8.9843 F60.00
G01 X60.0327 Y8.8428 F60.00
G01 X60.0423 Y8.7758 F60.00
G01 X60.0303 Y8.6486 F60.00
G01 X59.9865 Y8.5146 F60.00
G01 X59.9865 Y6.4443 F60.00
G01 X60.0327 Y6.3028 F60.00
G01 X60.0423 Y6.2358 F60.00
G01 X60.0303 Y6.1086 F60.00
G01 X59.9865 Y5.9746 F60.00
G01 X59.9865 Y3.9043 F60.00
G01 X60.0283 Y3.7761 F60.00
G01 X60.0422 Y3.6916 F60.00
G01 X60.0273 Y3.5742 F60.00
G01 X60.0139 Y3.5308 F60.00
G01 X59.9743 Y3.4670 F60.00
G01 X59.8824 Y3.3731 F60.00
G01 X59.8159 Y3.3418 F60.00
G01 X59.6997 Y3.3132 F60.00
G01 X58.1953 Y3.3125 F60.00
G01 X58.1210 Y3.3202 F60.00
G01 X58.0773 Y3.3337 F60.00
G01 X57.9778 Y3.3875 F60.00
G01 X57.9397 Y3.4184 F60.00
G01 X56.0084 Y5.3497 F60.00
G01 X55.9427 Y5.4418 F60.00
G01 X55.9071 Y5.5587 F60.00
G01 X55.9025 Y5.6053 F60.00
G01 X55.9025 Y20.9447 F60.00
G01 X55.8732 Y21.0921 F60.00
G01 X55.8157 Y21.2309 F60.00
G01 X55.7322 Y21.3559 F60.00
G01 X54.2359 Y22.8522 F60.00
G01 X54.1109 Y22.9357 F60.00
G01 X53.9721 Y22.9932 F60.00
G01 X53.8247 Y23.0225 F60.00
G01 X24.6053 Y23.0225 F60.00
G01 X24.5310 Y23.0302 F60.00
G01 X24.4907 Y23.0423 F60.00
G01 X24.3591 Y23.1194 F60.00
G01 X24.1897 Y23.2957 F60.00
G01 X24.1627 Y23.3418 F60.00
G01 X24.1321 Y23.4384 F60.00
G01 X24.1225 Y23.5053 F60.00
G01 X24.1225 Y23.6737 F60.00
G01 X24.1302 Y23.7480 F60.00
G01 X24.1596 Y23.8278 F60.00
G01 X24.2194 Y23.9199 F60.00
G01 X26.9192 Y26.6142 F60.00
G01 X26.9888 Y26.6531 F60.00
G01 X27.1176 Y26.6858 F60.00
G01 X28.2219 Y26.6884 F60.00
G01 X28.2968 Y26.7163 F60.00
G01 X28.3574 Y26.7616 F60.00
G01 X28.4027 Y26.8222 F60.00
G01 X28.4325 Y26.9144 F60.00
G01 X28.4325 Y28.9847 F60.00
G01 X28.3841 Y29.1386 F60.00
G01 X28.3778 Y29.2193 F60.00
G01 X28.4051 Y29.3582 F60.00
G01 X28.4360 Y29.4113 F60.00
G01 X28.4973 Y29.4824 F60.00
G01 X28.5366 Y29.5159 F60.00
G01 X28.5775 Y29.5381 F60.00
G01 X28.7018 Y29.5739 F60.00
G01 X59.6325 Y29.5765 F60.00
G01 X59.7232 Y29.5645 F60.00
G01 X59.7682 Y29.5497 F60.00
G01 X59.8920 Y29.4656 F60.00
G01 X59.9410 Y29.4001 F60.00
G01 X60.0163 Y29.2122 F60.00
G01 X60.0616 Y29.1516 F60.00
G01 X60.1222 Y29.1063 F60.00
G01 X60.1971 Y29.0784 F60.00
G01 X62.2846 Y29.0765 F60.00
G01 X62.3768 Y29.1063 F60.00
G01 X62.4374 Y29.1516 F60.00
G01 X62.4827 Y29.2122 F60.00
G01 X62.5125 Y29.3044 F60.00
G01 X62.5125 Y31.3747 F60.00
G01 X62.4663 Y31.5162 F60.00
G01 X62.4567 Y31.5831 F60.00
G01 X62.4687 Y31.7104 F60.00
G01 X62.5125 Y31.8444 F60.00
G01 X62.5125 Y33.9147 F60.00
G01 X62.4663 Y34.0562 F60.00
G01 X62.4567 Y34.1231 F60.00
G01 X62.4687 Y34.2504 F60.00
G01 X62.5125 Y34.3844 F60.00
G01 X62.5125 Y36.4547 F60.00
G01 X62.4663 Y36.5962 F60.00
G01 X62.4567 Y36.6631 F60.00
G01 X62.4687 Y36.7904 F60.00
G01 X62.5125 Y36.9244 F60.00
G01 X62.5125 Y38.9947 F60.00
G01 X62.4663 Y39.1362 F60.00
G01 X62.4567 Y39.2031 F60.00
G01 X62.4687 Y39.3304 F60.00
G01 X62.5125 Y39.4644 F60.00
G01 X62.5125 Y41.5347 F60.00
G01 X62.4827 Y41.6268 F60.00
G01 X62.4374 Y41.6874 F60.00
G01 X62.3768 Y41.7327 F60.00
G01 X62.2846 Y41.7625 F60.00
G01 X60.2143 Y41.7625 F60.00
G01 X60.1222 Y41.7327 F60.00
G01 X60.0616 Y41.6874 F60.00
G01 X60.0163 Y41.6268 F60.00
G01 X59.9884 Y41.5519 F60.00
G01 X59.9865 Y39.4644 F60.00
G01 X60.0327 Y39.3228 F60.00
G01 X60.0423 Y39.2559 F60.00
G01 X60.0303 Y39.1286 F60.00
G01 X59.9865 Y38.9946 F60.00
G01 X59.9865 Y36.9244 F60.00
G01 X60.0327 Y36.7828 F60.00
G01 X60.0423 Y36.7159 F60.00
G01 X60.0303 Y36.5886 F60.00
G01 X59.9865 Y36.4546 F60.00
G01 X59.9865 Y34.3844 F60.00
G01 X60.0327 Y34.2428 F60.00
G01 X60.0423 Y34.1759 F60.00
G01 X60.0303 Y34.0486 F60.00
G01 X59.9865 Y33.9146 F60.00
G01 X59.9865 Y31.8444 F60.00
G01 X60.0316 Y31.7072 F60.00
G01 X60.0423 Y31.6359 F60.00
G01 X60.0371 Y31.5457 F60.00
G01 X60.0260 Y31.4933 F60.00
G01 X59.9656 Y31.3237 F60.00
G01 X59.9313 Y31.2648 F60.00
G01 X59.8722 Y31.1966 F60.00
G01 X59.8091 Y31.1490 F60.00
G01 X59.6994 Y31.1121 F60.00
G01 X59.6325 Y31.1025 F60.00
G01 X28.4404 Y31.1025 F60.00
G01 X28.3932 Y31.1072 F60.00
G01 X28.2927 Y31.1347 F60.00
G01 X28.2130 Y31.1872 F60.00
G01 X28.1546 Y31.2461 F60.00
G01 X28.1191 Y31.2984 F60.00
G01 X28.0995 Y31.3541 F60.00
G01 X28.0802 Y31.4512 F60.00
G01 X28.0862 Y31.5304 F60.00
G01 X28.1406 Y31.6657 F60.00
G01 X28.1986 Y31.7283 F60.00
G01 X28.3574 Y31.8416 F60.00
G01 X28.4027 Y31.9022 F60.00
G01 X28.4325 Y31.9944 F60.00
G01 X28.4325 Y34.0647 F60.00
G01 X28.4027 Y34.1568 F60.00
G01 X28.3574 Y34.2174 F60.00
G01 X28.2968 Y34.2627 F60.00
G01 X28.2219 Y34.2906 F60.00
G01 X26.1343 Y34.2925 F60.00
G01 X26.0422 Y34.2627 F60.00
G01 X25.9816 Y34.2174 F60.00
G01 X25.9363 Y34.1568 F60.00
G01 X25.9084 Y34.0819 F60.00
G01 X25.9065 Y33.4140 F60.00
G01 X25.8813 Y33.2822 F60.00
G01 X25.8534 Y33.2278 F60.00
G01 X25.7647 Y33.1277 F60.00
G01 X25.7045 Y33.0909 F60.00
G01 X25.5916 Y33.0571 F60.00
G01 X22.4935 Y33.0525 F60.00
G01 X22.4197 Y33.0605 F60.00
G01 X22.3636 Y33.0777 F60.00
G01 X22.2522 Y33.1462 F60.00
G01 X22.2025 Y33.2011 F60.00
G01 X22.1568 Y33.2917 F60.00
G01 X22.1382 Y33.3476 F60.00
G01 X22.1336 Y33.3942 F60.00
G01 X22.1441 Y33.4931 F60.00
G01 X22.1584 Y33.5495 F60.00
G01 X22.1891 Y33.6051 F60.00
G01 X22.2566 Y33.6850 F60.00
G01 X22.3559 Y33.7568 F60.00
G01 X33.1497 Y44.5501 F60.00
G01 X33.2318 Y44.6063 F60.00
G01 X33.3601 Y44.6439 F60.00
G01 X34.4646 Y44.6465 F60.00
G01 X34.5568 Y44.6763 F60.00
G01 X34.6174 Y44.7216 F60.00
G01 X34.6627 Y44.7822 F60.00
G01 X34.6925 Y44.8744 F60.00
G01 X34.6925 Y46.9447 F60.00
G01 X34.6627 Y47.0368 F60.00
G01 X34.6174 Y47.0974 F60.00
G01 X34.5568 Y47.1427 F60.00
G01 X34.4819 Y47.1706 F60.00
G01 X32.3943 Y47.1725 F60.00
G01 X32.3022 Y47.1427 F60.00
G01 X32.2416 Y47.0974 F60.00
G01 X32.1963 Y47.0368 F60.00
G01 X32.1665 Y46.9446 F60.00
G01 X32.1623 Y45.8235 F60.00
G01 X32.1453 Y45.7573 F60.00
G01 X32.0696 Y45.6291 F60.00
G01 X21.6593 Y35.2184 F60.00
G01 X21.5672 Y35.1527 F60.00
G01 X21.4503 Y35.1171 F60.00
G01 X16.2623 Y35.1125 F60.00
G01 X16.1149 Y35.0832 F60.00
G01 X16.0271 Y35.0468 F60.00
G01 X15.9761 Y35.0257 F60.00
G01 X15.8511 Y34.9422 F60.00
G01 X14.8314 Y33.9280 F60.00
G01 X14.7210 Y33.8735 F60.00
G01 X14.6316 Y33.8560 F60.00
G01 X14.4942 Y33.8760 F60.00
G01 X14.4177 Y33.9153 F60.00
G01 X14.3466 Y33.9766 F60.00
G01 X14.3083 Y34.0234 F60.00
G01 X14.2877 Y34.0649 F60.00
G01 X14.2551 Y34.1811 F60.00
G01 X14.2525 Y35.4386 F60.00
G01 X14.2063 Y35.5802 F60.00
G01 X14.1967 Y35.6471 F60.00
G01 X14.2087 Y35.7744 F60.00
G01 X14.2525 Y35.9084 F60.00
G01 X14.2525 Y37.9787 F60.00
G01 X14.2063 Y38.1202 F60.00
G01 X14.1967 Y38.1871 F60.00
G01 X14.2087 Y38.3144 F60.00
G01 X14.2525 Y38.4484 F60.00
G01 X14.2525 Y40.5187 F60.00
G01 X14.2227 Y40.6108 F60.00
G01 X14.1774 Y40.6714 F60.00
G01 X14.1168 Y40.7167 F60.00
G01 X14.0419 Y40.7446 F60.00
G01 X11.9371 Y40.7446 F60.00
G01 X11.8622 Y40.7167 F60.00
G01 X11.8016 Y40.6714 F60.00
G01 X11.7563 Y40.6108 F60.00
G01 X11.7024 Y40.4600 F60.00
G01 X11.6815 Y40.4226 F60.00
G01 X11.5922 Y40.3217 F60.00
G01 X11.5239 Y40.2817 F60.00
G01 X11.3902 Y40.2472 F60.00
G01 X4.6783 Y40.2465 F60.00
G01 X4.5074 Y40.2074 F60.00
G01 X4.3921 Y40.1597 F60.00
G01 X4.2671 Y40.0762 F60.00
G01 X4.1068 Y39.9159 F60.00
G01 X4.0233 Y39.7909 F60.00
G01 X3.9658 Y39.6521 F60.00
G01 X3.9365 Y39.5046 F60.00
G01 X3.9365 Y39.3544 F60.00
G01 X3.9658 Y39.2069 F60.00
G01 X4.0273 Y39.0551 F60.00
G01 X4.0465 Y38.9403 F60.00
G01 X4.0450 Y34.3097 F60.00
G01 X4.0197 Y34.2008 F60.00
G01 X3.9356 Y34.0770 F60.00
G01 X3.8701 Y34.0280 F60.00
G01 X3.6822 Y33.9527 F60.00
G01 X3.6216 Y33.9074 F60.00
G01 X3.5763 Y33.8468 F60.00
G01 X3.5465 Y33.7546 F60.00
G01 X3.5465 Y31.6844 F60.00
G01 X3.5763 Y31.5922 F60.00
G01 X3.6216 Y31.5316 F60.00
G01 X3.6822 Y31.4863 F60.00
G01 X3.7571 Y31.4584 F60.00
G01 X5.8446 Y31.4565 F60.00
G01 X5.9368 Y31.4863 F60.00
G01 X5.9974 Y31.5316 F60.00
G01 X6.0427 Y31.5922 F60.00
G01 X6.0706 Y31.6671 F60.00
G01 X6.0706 Y33.7719 F60.00
G01 X6.0427 Y33.8468 F60.00
G01 X5.9974 Y33.9074 F60.00
G01 X5.9368 Y33.9527 F60.00
G01 X5.7860 Y34.0067 F60.00
G01 X5.7486 Y34.0275 F60.00
G01 X5.6477 Y34.1168 F60.00
G01 X5.6077 Y34.1851 F60.00
G01 X5.5732 Y34.3188 F60.00
G01 X5.5725 Y38.3590 F60.00
G01 X5.5891 Y38.4610 F60.00
G01 X5.6057 Y38.5104 F60.00
G01 X5.6417 Y38.5660 F60.00
G01 X5.7143 Y38.6453 F60.00
G01 X5.7826 Y38.6853 F60.00
G01 X5.8874 Y38.7159 F60.00
G01 X5.9340 Y38.7205 F60.00
G01 X11.3725 Y38.7205 F60.00
G01 X11.4632 Y38.7085 F60.00
G01 X11.5082 Y38.6937 F60.00
G01 X11.6320 Y38.6096 F60.00
G01 X11.6847 Y38.5363 F60.00
G01 X11.7716 Y38.3112 F60.00
G01 X11.7823 Y38.2399 F60.00
G01 X11.7731 Y38.1237 F60.00
G01 X11.7056 Y37.9277 F60.00
G01 X11.6713 Y37.8688 F60.00
G01 X11.6122 Y37.8006 F60.00
G01 X11.5729 Y37.7671 F60.00
G01 X11.5239 Y37.7417 F60.00
G01 X11.4191 Y37.7111 F60.00
G01 X11.3725 Y37.7065 F60.00
G01 X8.9183 Y37.7065 F60.00
G01 X8.7709 Y37.6772 F60.00
G01 X8.6321 Y37.6197 F60.00
G01 X8.5071 Y37.5362 F60.00
G01 X8.2968 Y37.3259 F60.00
G01 X8.2133 Y37.2009 F60.00
G01 X8.1558 Y37.0621 F60.00
G01 X8.1265 Y36.9147 F60.00
G01 X8.1265 Y28.7853 F60.00
G01 X8.1188 Y28.7110 F60.00
G01 X8.1067 Y28.6707 F60.00
G01 X8.0296 Y28.5391 F60.00
G01 X7.9598 Y28.4748 F60.00
G01 X7.9094 Y28.4427 F60.00
G01 X7.7614 Y28.4032 F60.00
G01 X6.4265 Y28.4025 F60.00
G01 X6.3493 Y28.4119 F60.00
G01 X6.2628 Y28.4441 F60.00
G01 X6.1670 Y28.5134 F60.00
G01 X6.1180 Y28.5789 F60.00
G01 X6.0427 Y28.7668 F60.00
G01 X5.9974 Y28.8274 F60.00
G01 X5.9368 Y28.8727 F60.00
G01 X5.8446 Y28.9025 F60.00
G01 X3.7743 Y28.9025 F60.00
G01 X3.6822 Y28.8727 F60.00
G01 X3.6216 Y28.8274 F60.00
G01 X3.5763 Y28.7668 F60.00
G01 X3.5465 Y28.6746 F60.00
G01 X3.5465 Y26.6044 F60.00
G01 X3.5761 Y26.5127 F60.00
G01 X3.6756 Y26.3828 F60.00
G01 X3.7205 Y26.2974 F60.00
G01 X3.7367 Y26.2339 F60.00
G01 X3.7319 Y26.1144 F60.00
G01 X3.6965 Y25.9846 F60.00
G01 X3.6965 Y24.2144 F60.00
G01 X3.7263 Y24.1222 F60.00
G01 X3.7716 Y24.0616 F60.00
G01 X3.8322 Y24.0163 F60.00
G01 X3.9244 Y23.9865 F60.00
G01 X5.6946 Y23.9865 F60.00
G01 X5.8258 Y24.0065 F60.00
G01 X11.3650 Y24.0065 F60.00
G01 X11.4670 Y23.9899 F60.00
G01 X11.5342 Y23.9641 F60.00
G01 X11.6324 Y23.8847 F60.00
G01 X11.6707 Y23.8379 F60.00
G01 X11.6972 Y23.7790 F60.00
G01 X11.7258 Y23.6627 F60.00
G01 X11.7265 Y21.6843 F60.00
G01 X11.7727 Y21.5428 F60.00
G01 X11.7823 Y21.4758 F60.00
G01 X11.7703 Y21.3486 F60.00
G01 X11.7265 Y21.2146 F60.00
G01 X11.7265 Y19.1443 F60.00
G01 X11.7727 Y19.0028 F60.00
G01 X11.7823 Y18.9358 F60.00
G01 X11.7703 Y18.8086 F60.00
G01 X11.7265 Y18.6746 F60.00
G01 X11.7265 Y16.6043 F60.00
G01 X11.7727 Y16.4628 F60.00
G01 X11.7823 Y16.3958 F60.00
G01 X11.7703 Y16.2686 F60.00
G01 X11.7265 Y16.1346 F60.00
G01 X11.7260 Y14.4270 F60.00
G01 X11.7138 Y14.3598 F60.00
G01 X11.6647 Y14.2426 F60.00
G01 X11.6322 Y14.2020 F60.00
G01 X11.5356 Y14.1276 F60.00
G01 X11.4659 Y14.0977 F60.00
G01 X11.3556 Y14.0862 F60.00
G01 X11.3124 Y14.0871 F60.00
G01 X11.2408 Y14.1067 F60.00
G01 X11.1475 Y14.1577 F60.00
G01 X11.1094 Y14.1887 F60.00
G01 X10.0259 Y15.2722 F60.00
G01 X9.9009 Y15.3557 F60.00
G01 X9.7938 Y15.4001 F60.00
G01 X9.7621 Y15.4132 F60.00
G01 X9.6147 Y15.4425 F60.00
G01 X5.8497 Y15.4440 F60.00
G01 X5.7408 Y15.4693 F60.00
G01 X5.6170 Y15.5534 F60.00
G01 X5.5680 Y15.6189 F60.00
G01 X5.4927 Y15.8068 F60.00
G01 X5.4474 Y15.8674 F60.00
G01 X5.3868 Y15.9127 F60.00
G01 X5.3119 Y15.9406 F60.00
G01 X3.2243 Y15.9425 F60.00
G01 X3.1322 Y15.9127 F60.00
G01 X3.0716 Y15.8674 F60.00
G01 X3.0263 Y15.8068 F60.00
G01 X2.9965 Y15.7146 F60.00
G01 X2.9984 Y13.6271 F60.00
G01 X3.0263 Y13.5522 F60.00
G01 X3.0716 Y13.4916 F60.00
G01 X3.1322 Y13.4463 F60.00
G01 X3.2244 Y13.4165 F60.00
G01 X5.2946 Y13.4165 F60.00
G01 X5.3868 Y13.4463 F60.00
G01 X5.4474 Y13.4916 F60.00
G01 X5.4927 Y13.5522 F60.00
G01 X5.5467 Y13.7030 F60.00
G01 X5.5675 Y13.7404 F60.00
G01 X5.6568 Y13.8413 F60.00
G01 X5.7251 Y13.8813 F60.00
G01 X5.8413 Y13.9139 F60.00
G01 X9.0737 Y13.9165 F60.00
G01 X9.1700 Y13.9031 F60.00
G01 X9.2752 Y13.8511 F60.00
G01 X9.3293 Y13.8106 F60.00
G01 X11.1731 Y11.9668 F60.00
G01 X11.2981 Y11.8833 F60.00
G01 X11.5257 Y11.7947 F60.00
G01 X11.5915 Y11.7552 F60.00
G01 X11.6251 Y11.7247 F60.00
G01 X11.6710 Y11.6672 F60.00
G01 X11.7138 Y11.5782 F60.00
G01 X11.7284 Y11.5071 F60.00
G01 X11.7747 Y11.3756 F60.00
G01 X11.7852 Y11.2906 F60.00
G01 X11.7703 Y11.1886 F60.00
G01 X11.7284 Y11.0719 F60.00
G01 X11.7255 Y10.7026 F60.00
G01 X11.6933 Y10.5726 F60.00
G01 X11.6573 Y10.5170 F60.00
G01 X11.5654 Y10.4231 F60.00
G01 X11.4990 Y10.3918 F60.00
G01 X11.3827 Y10.3632 F60.00
G01 X5.8497 Y10.3640 F60.00
G01 X5.7408 Y10.3893 F60.00
G01 X5.6170 Y10.4734 F60.00
G01 X5.5680 Y10.5389 F60.00
G01 X5.4927 Y10.7268 F60.00
G01 X5.4474 Y10.7874 F60.00
G01 X5.3868 Y10.8327 F60.00
G01 X5.3119 Y10.8606 F60.00
G01 X3.2243 Y10.8625 F60.00
G01 X3.1322 Y10.8327 F60.00
G01 X3.0716 Y10.7874 F60.00
G01 X3.0263 Y10.7268 F60.00
G01 X2.9965 Y10.6346 F60.00
G01 X2.9965 Y8.5644 F60.00
G01 X3.0261 Y8.4727 F60.00
G01 X3.1107 Y8.3666 F60.00
G01 X3.1591 Y8.2815 F60.00
G01 X3.1871 Y8.1893 F60.00
G01 X3.1819 Y8.0744 F60.00
G01 X3.1465 Y7.9446 F60.00
G01 X3.1484 Y6.1571 F60.00
G01 X3.1763 Y6.0822 F60.00
G01 X3.2216 Y6.0216 F60.00
G01 X3.2822 Y5.9763 F60.00
G01 X3.3571 Y5.9484 F60.00
G01 X4.1653 Y5.9455 F60.00
G01 X4.2583 Y5.9267 F60.00
G01 X4.3739 Y5.8627 F60.00
G01 X8.6331 Y1.6068 F60.00
G01 X8.7581 Y1.5233 F60.00
G01 X8.8969 Y1.4658 F60.00
G01 X9.0444 Y1.4365 F60.00
G01 X18.0547 Y1.4365 F60.00
G01 X18.2021 Y1.4658 F60.00
G01 X18.3409 Y1.5233 F60.00
G01 X18.4659 Y1.6068 F60.00
G01 X18.5722 Y1.7131 F60.00
G01 X18.6557 Y1.8381 F60.00
G01 X18.7132 Y1.9769 F60.00
G01 X18.7425 Y2.1243 F60.00
G01 X18.7467 Y26.8655 F60.00
G01 X18.7744 Y26.9539 F60.00
G01 X18.8175 Y27.0312 F60.00
G01 X18.8484 Y27.0693 F60.00
G01 X21.2497 Y29.4706 F60.00
G01 X21.3418 Y29.5363 F60.00
G01 X21.4587 Y29.5719 F60.00
G01 X21.5053 Y29.5765 F60.00
G01 X25.6236 Y29.5755 F60.00
G01 X25.7166 Y29.5567 F60.00
G01 X25.8322 Y29.4927 F60.00
G01 X25.8885 Y29.4325 F60.00
G01 X25.9531 Y29.3008 F60.00
G01 X25.9607 Y29.2414 F60.00
G01 X25.9545 Y29.1480 F60.00
G01 X25.9065 Y28.9846 F60.00
G01 X25.9055 Y27.8937 F60.00
G01 X25.8867 Y27.8007 F60.00
G01 X25.8315 Y27.6978 F60.00
G01 X25.8006 Y27.6597 F60.00
G01 X22.7668 Y24.6259 F60.00
G01 X22.6833 Y24.5009 F60.00
G01 X22.6258 Y24.3621 F60.00
G01 X22.5965 Y24.2146 F60.00
G01 X22.5965 Y22.9644 F60.00
G01 X22.6258 Y22.8169 F60.00
G01 X22.6833 Y22.6781 F60.00
G01 X22.7668 Y22.5531 F60.00
G01 X23.6531 Y21.6668 F60.00
G01 X23.7781 Y21.5833 F60.00
G01 X23.9169 Y21.5258 F60.00
G01 X24.0644 Y21.4965 F60.00
G01 X53.2837 Y21.4965 F60.00
G01 X53.3580 Y21.4888 F60.00
G01 X53.3983 Y21.4767 F60.00
G01 X53.5139 Y21.4127 F60.00
G01 X54.2801 Y20.6493 F60.00
G01 X54.3363 Y20.5672 F60.00
G01 X54.3758 Y20.4214 F60.00
G01 X54.3765 Y5.0644 F60.00
G01 X54.4058 Y4.9169 F60.00
G01 X54.4633 Y4.7781 F60.00
G01 X54.5468 Y4.6531 F60.00
G01 X57.2431 Y1.9568 F60.00
G01 X57.3681 Y1.8733 F60.00
G01 X57.5069 Y1.8158 F60.00
G01 X57.6544 Y1.7865 F60.00
G01 X73.8746 Y1.7865 F60.00
G01 X74.0221 Y1.8158 F60.00
G01 X74.0538 Y1.8290 F60.00
G01 X74.1609 Y1.8733 F60.00
G01 X74.2859 Y1.9568 F60.00
G01 X76.3722 Y4.0431 F60.00
G01 X76.4557 Y4.1681 F60.00
G01 X76.5132 Y4.3069 F60.00
G01 X76.5425 Y4.4543 F60.00
G01 X76.5430 Y7.0937 F60.00
G01 X76.5545 Y7.1732 F60.00
G01 X76.5693 Y7.2182 F60.00
G01 X76.6358 Y7.3241 F60.00
G01 X76.6837 Y7.3691 F60.00
G01 X76.7704 Y7.4183 F60.00
G01 X76.9333 Y7.4760 F60.00
G01 X77.0106 Y7.4928 F60.00
G01 X77.0635 Y7.4941 F60.00
G01 X77.1504 Y7.4803 F60.00
G01 X77.2844 Y7.4365 F60.00
G01 X79.3546 Y7.4365 F60.00
G01 X79.4468 Y7.4663 F60.00
G01 X79.5074 Y7.5116 F60.00
G01 X79.5527 Y7.5722 F60.00
G01 X79.5825 Y7.6644 F60.00
G01 X79.5835 Y8.7553 F60.00
G01 X79.6023 Y8.8483 F60.00
G01 X79.6575 Y8.9512 F60.00
G01 X81.7842 Y11.0851 F60.00
G01 X81.8677 Y11.2101 F60.00
G01 X81.9252 Y11.3489 F60.00
G01 X81.9545 Y11.4963 F60.00
G01 X81.9545 Y14.3257 F60.00
G01 X81.9622 Y14.4000 F60.00
G01 X81.9757 Y14.4437 F60.00
G01 X82.0295 Y14.5432 F60.00
G01 X82.0604 Y14.5813 F60.00
G01 X83.6422 Y16.1631 F60.00
G01 X83.7257 Y16.2881 F60.00
G01 X83.7832 Y16.4269 F60.00
G01 X83.8125 Y16.5743 F60.00
G01 X83.8125 Y55.7147 F60.00
G01 X83.7832 Y55.8621 F60.00
G01 X83.7257 Y56.0009 F60.00
G01 X83.6422 Y56.1259 F60.00
G01 X83.5359 Y56.2322 F60.00
G01 X83.4109 Y56.3157 F60.00
G01 X83.2701 Y56.3768 F60.00
G01 X83.1955 Y56.4301 F60.00
G01 X83.1484 Y56.4821 F60.00
G01 X83.0970 Y56.5880 F60.00
G01 X83.0808 Y56.6525 F60.00
G01 X83.0807 Y56.7014 F60.00
G01 X83.0995 Y56.8148 F60.00
G01 X83.1387 Y56.8913 F60.00
G01 X83.2001 Y56.9624 F60.00
G01 X83.2394 Y56.9959 F60.00
G01 X83.3058 Y57.0272 F60.00
G01 X83.3932 Y57.0519 F60.00
G01 X83.4398 Y57.0565 F60.00
G01 X88.8250 Y57.0565 F60.00
G01 X88.9270 Y57.0399 F60.00
G01 X89.0112 Y57.0034 F60.00
G01 X89.0924 Y56.9347 F60.00
G01 X89.1400 Y56.8716 F60.00
G01 X89.1780 Y56.7581 F60.00
G01 X89.1865 Y56.6950 F60.00
G01 X89.1865 Y0.1240 F60.00
G01 X89.1699 Y0.0220 F60.00
G01 X89.1334 Y-0.0622 F60.00
G01 X89.0647 Y-0.1434 F60.00
G01 X89.0016 Y-0.1910 F60.00
G01 X88.8919 Y-0.2279 F60.00
G01 X88.8250 Y-0.2375 F60.00
G01 X36.5011 Y-0.2375 F60.00
G01 X0.1210 Y0.0673 F60.00
G01 X0.0210 Y0.0841 F60.00
G01 X-0.0527 Y0.1142 F60.00
G01 X-0.1434 Y0.1891 F60.00
G01 X-0.1817 Y0.2359 F60.00
G01 X-0.2023 Y0.2774 F60.00
G01 X-0.2279 Y0.3619 F60.00
G01 X-0.2375 Y0.4288 F60.00
G01 X-0.2375 Y56.6950 F60.00
G01 X-0.2209 Y56.7970 F60.00
G01 X-0.1951 Y56.8642 F60.00
G00 Z2.0000
G00 X5.6595 Y24.0120
G01 F60.00
G01 Z-0.0750
G01 F60.00
G01 X3.9595 Y24.0120 F60.00
G01 X3.8921 Y24.0218 F60.00
G01 X3.8559 Y24.0358 F60.00
G01 X3.8109 Y24.0643 F60.00
G01 X3.7743 Y24.1009 F60.00
G01 X3.7382 Y24.1633 F60.00
G01 X3.7220 Y24.2495 F60.00
G01 X3.7220 Y25.9495 F60.00
G01 X3.7318 Y26.0169 F60.00
G01 X3.7458 Y26.0531 F60.00
G01 X3.7743 Y26.0981 F60.00
G01 X3.8109 Y26.1347 F60.00
G01 X3.8733 Y26.1708 F60.00
G01 X3.9595 Y26.1870 F60.00
G01 X5.6595 Y26.1870 F60.00
G01 X5.7277 Y26.1770 F60.00
G01 X5.7748 Y26.1571 F60.00
G01 X5.8274 Y26.1174 F60.00
G01 X5.8671 Y26.0648 F60.00
G01 X5.8872 Y26.0169 F60.00
G01 X5.8970 Y25.9495 F60.00
G01 X5.8970 Y25.5073 F60.00
G01 X15.1739 Y25.5073 F60.00
G01 X16.3835 Y26.7169 F60.00
G01 X16.4478 Y26.7912 F60.00
G01 X20.5178 Y30.8612 F60.00
G01 X20.6201 Y30.9462 F60.00
G01 X20.7021 Y30.9954 F60.00
G01 X20.8366 Y31.0486 F60.00
G01 X20.9556 Y31.0723 F60.00
G01 X60.0120 Y31.0773 F60.00
G01 X60.0120 Y31.3395 F60.00
G01 X60.0282 Y31.4257 F60.00
G01 X60.0524 Y31.4720 F60.00
G01 X60.1009 Y31.5247 F60.00
G01 X60.1633 Y31.5608 F60.00
G01 X60.2156 Y31.5746 F60.00
G01 X62.2834 Y31.5746 F60.00
G01 X62.3531 Y31.5532 F60.00
G01 X62.4174 Y31.5074 F60.00
G01 X62.4632 Y31.4431 F60.00
G01 X62.4850 Y31.3706 F60.00
G01 X62.4846 Y29.3056 F60.00
G01 X62.4571 Y29.2242 F60.00
G01 X62.3981 Y29.1543 F60.00
G01 X62.3357 Y29.1182 F60.00
G01 X62.2495 Y29.1020 F60.00
G01 X60.2495 Y29.1020 F60.00
G01 X60.1821 Y29.1118 F60.00
G01 X60.1342 Y29.1319 F60.00
G01 X60.0816 Y29.1716 F60.00
G01 X60.0524 Y29.2070 F60.00
G01 X60.0282 Y29.2533 F60.00
G01 X60.0120 Y29.3395 F60.00
G01 X60.0120 Y29.6017 F60.00
G01 X21.3451 Y29.6017 F60.00
G01 X18.7173 Y26.9739 F60.00
G01 X18.7170 Y2.1878 F60.00
G01 X18.7005 Y2.0442 F60.00
G01 X18.6564 Y1.9065 F60.00
G01 X18.5862 Y1.7801 F60.00
G01 X18.5092 Y1.6863 F60.00
G01 X18.3989 Y1.5928 F60.00
G01 X18.3169 Y1.5436 F60.00
G01 X18.1824 Y1.4904 F60.00
G01 X18.0634 Y1.4667 F60.00
G01 X9.1195 Y1.4617 F60.00
G01 X8.9871 Y1.4739 F60.00
G01 X8.8943 Y1.4972 F60.00
G01 X8.8265 Y1.5226 F60.00
G01 X8.7195 Y1.5798 F60.00
G01 X8.5978 Y1.6778 F60.00
G01 X4.3037 Y5.9720 F60.00
G01 X3.3756 Y5.9744 F60.00
G01 X3.2942 Y6.0019 F60.00
G01 X3.2243 Y6.0609 F60.00
G01 X3.1882 Y6.1233 F60.00
G01 X3.1720 Y6.2095 F60.00
G01 X3.1720 Y7.9095 F60.00
G01 X3.1882 Y7.9957 F60.00
G01 X3.2124 Y8.0420 F60.00
G01 X3.2416 Y8.0774 F60.00
G01 X3.2770 Y8.1066 F60.00
G01 X3.3233 Y8.1308 F60.00
G01 X3.4095 Y8.1470 F60.00
G01 X5.1095 Y8.1470 F60.00
G01 X5.1769 Y8.1372 F60.00
G01 X5.2420 Y8.1066 F60.00
G01 X5.2947 Y8.0581 F60.00
G01 X5.3308 Y7.9957 F60.00
G01 X5.3446 Y7.9434 F60.00
G01 X5.3470 Y7.0153 F60.00
G01 X9.4251 Y2.9373 F60.00
G01 X17.2417 Y2.9373 F60.00
G01 X17.2417 Y25.4884 F60.00
G01 X15.9564 Y24.2068 F60.00
G01 X15.8795 Y24.1498 F60.00
G01 X15.7725 Y24.0926 F60.00
G01 X15.6824 Y24.0604 F60.00
G01 X15.5634 Y24.0367 F60.00
G01 X5.7538 Y24.0317 F60.00
G01 X5.6595 Y24.0120 F60.00
G00 Z2.0000
G00 X22.6244 Y24.2002
G01 F60.00
G01 Z-0.0750
G01 F60.00
G01 X22.6385 Y24.2948 F60.00
G01 X22.6826 Y24.4325 F60.00
G01 X22.7528 Y24.5589 F60.00
G01 X22.8298 Y24.6527 F60.00
G01 X25.9320 Y27.7553 F60.00
G01 X25.9320 Y28.9495 F60.00
G01 X25.9482 Y29.0357 F60.00
G01 X25.9724 Y29.0820 F60.00
G01 X26.0016 Y29.1174 F60.00
G01 X26.0370 Y29.1466 F60.00
G01 X26.0833 Y29.1708 F60.00
G01 X26.1695 Y29.1870 F60.00
G01 X28.1695 Y29.1870 F60.00
G01 X28.2557 Y29.1708 F60.00
G01 X28.3181 Y29.1347 F60.00
G01 X28.3771 Y29.0648 F60.00
G01 X28.4046 Y28.9834 F60.00
G01 X28.4070 Y26.9495 F60.00
G01 X28.3972 Y26.8821 F60.00
G01 X28.3771 Y26.8342 F60.00
G01 X28.3374 Y26.7816 F60.00
G01 X28.3020 Y26.7524 F60.00
G01 X28.2557 Y26.7282 F60.00
G01 X28.2034 Y26.7144 F60.00
G01 X26.9753 Y26.7120 F60.00
G01 X24.0973 Y23.8339 F60.00
G01 X24.0973 Y23.3451 F60.00
G01 X24.4451 Y22.9973 F60.00
G01 X53.7495 Y22.9973 F60.00
G01 X53.8819 Y22.9851 F60.00
G01 X54.0209 Y22.9453 F60.00
G01 X54.1495 Y22.8792 F60.00
G01 X54.2627 Y22.7892 F60.00
G01 X55.6692 Y21.3827 F60.00
G01 X55.7462 Y21.2889 F60.00
G01 X55.7954 Y21.2069 F60.00
G01 X55.8486 Y21.0724 F60.00
G01 X55.8723 Y20.9534 F60.00
G01 X55.8773 Y5.4451 F60.00
G01 X58.0351 Y3.2873 F60.00
G01 X73.4939 Y3.2873 F60.00
G01 X75.0417 Y4.8351 F60.00
G01 X75.0417 Y7.4620 F60.00
G01 X74.7795 Y7.4620 F60.00
G01 X74.7121 Y7.4718 F60.00
G01 X74.6759 Y7.4858 F60.00
G01 X74.6309 Y7.5143 F60.00
G01 X74.5824 Y7.5670 F60.00
G01 X74.5520 Y7.6313 F60.00
G01 X74.5420 Y7.6995 F60.00
G01 X74.5444 Y9.7334 F60.00
G01 X74.5719 Y9.8148 F60.00
G01 X74.6309 Y9.8847 F60.00
G01 X74.6933 Y9.9208 F60.00
G01 X74.7795 Y9.9370 F60.00
G01 X76.8134 Y9.9346 F60.00
G01 X76.8657 Y9.9208 F60.00
G01 X76.9281 Y9.8847 F60.00
G01 X76.9766 Y9.8320 F60.00
G01 X77.0072 Y9.7669 F60.00
G01 X77.0170 Y9.6995 F60.00
G01 X77.0146 Y7.6656 F60.00
G01 X77.0008 Y7.6133 F60.00
G01 X76.9647 Y7.5509 F60.00
G01 X76.9120 Y7.5024 F60.00
G01 X76.8657 Y7.4782 F60.00
G01 X76.7795 Y7.4620 F60.00
G01 X76.5173 Y7.4620 F60.00
G01 X76.5173 Y4.5295 F60.00
G01 X76.5051 Y4.3971 F60.00
G01 X76.4653 Y4.2581 F60.00
G01 X76.3992 Y4.1295 F60.00
G01 X76.3012 Y4.0078 F60.00
G01 X74.3127 Y2.0198 F60.00
G01 X74.2189 Y1.9428 F60.00
G01 X74.1369 Y1.8936 F60.00
G01 X74.0024 Y1.8404 F60.00
G01 X73.8834 Y1.8167 F60.00
G01 X57.7295 Y1.8117 F60.00
G01 X57.5971 Y1.8239 F60.00
G01 X57.4581 Y1.8637 F60.00
G01 X57.3295 Y1.9298 F60.00
G01 X57.2078 Y2.0278 F60.00
G01 X54.6178 Y4.6178 F60.00
G01 X54.5328 Y4.7201 F60.00
G01 X54.4836 Y4.8021 F60.00
G01 X54.4372 Y4.9143 F60.00
G01 X54.4144 Y5.0042 F60.00
G01 X54.4017 Y5.1395 F60.00
G01 X54.4017 Y20.5639 F60.00
G01 X53.4439 Y21.5217 F60.00
G01 X24.0788 Y21.5244 F60.00
G01 X23.9842 Y21.5385 F60.00
G01 X23.8681 Y21.5737 F60.00
G01 X23.7816 Y21.6146 F60.00
G01 X23.6652 Y21.6946 F60.00
G01 X22.8378 Y22.5178 F60.00
G01 X22.7820 Y22.5807 F60.00
G01 X22.7146 Y22.6816 F60.00
G01 X22.6504 Y22.8366 F60.00
G01 X22.6244 Y22.9788 F60.00
G01 X22.6244 Y24.2002 F60.00
G00 Z2.0000
G00 X14.2123 Y8.5618
G01 F60.00
G01 Z-0.0750
G01 F60.00
G01 X14.2270 Y8.4795 F60.00
G01 X14.2270 Y6.4795 F60.00
G01 X14.2108 Y6.3933 F60.00
G01 X14.1866 Y6.3470 F60.00
G01 X14.1574 Y6.3116 F60.00
G01 X14.1220 Y6.2824 F60.00
G01 X14.0757 Y6.2582 F60.00
G01 X13.9895 Y6.2420 F60.00
G01 X11.9895 Y6.2420 F60.00
G01 X11.9033 Y6.2582 F60.00
G01 X11.8570 Y6.2824 F60.00
G01 X11.8216 Y6.3116 F60.00
G01 X11.7924 Y6.3470 F60.00
G01 X11.7682 Y6.3933 F60.00
G01 X11.7520 Y6.4795 F60.00
G01 X11.7520 Y8.4795 F60.00
G01 X11.7682 Y8.5657 F60.00
G01 X11.7924 Y8.6119 F60.00
G01 X11.8216 Y8.6474 F60.00
G01 X11.8570 Y8.6766 F60.00
G01 X11.9033 Y8.7008 F60.00
G01 X11.9895 Y8.7170 F60.00
G01 X13.9895 Y8.7170 F60.00
G01 X14.0577 Y8.7070 F60.00
G01 X14.1220 Y8.6766 F60.00
G01 X14.1747 Y8.6281 F60.00
G01 X14.2123 Y8.5618 F60.00
G00 Z2.0000
G00 X14.2123 Y6.0218
G01 F60.00
G01 Z-0.0750
G01 F60.00
G01 X14.2270 Y5.9395 F60.00
G01 X14.2270 Y3.9395 F60.00
G01 X14.2108 Y3.8533 F60.00
G01 X14.1866 Y3.8070 F60.00
G01 X14.1574 Y3.7716 F60.00
G01 X14.1220 Y3.7424 F60.00
G01 X14.0757 Y3.7182 F60.00
G01 X13.9895 Y3.7020 F60.00
G01 X11.9895 Y3.7020 F60.00
G01 X11.9033 Y3.7182 F60.00
G01 X11.8570 Y3.7424 F60.00
G01 X11.8216 Y3.7716 F60.00
G01 X11.7924 Y3.8070 F60.00
G01 X11.7682 Y3.8533 F60.00
G01 X11.7520 Y3.9395 F60.00
G01 X11.7520 Y5.9395 F60.00
G01 X11.7682 Y6.0257 F60.00
G01 X11.7924 Y6.0719 F60.00
G01 X11.8216 Y6.1074 F60.00
G01 X11.8570 Y6.1366 F60.00
G01 X11.9033 Y6.1608 F60.00
G01 X11.9895 Y6.1770 F60.00
G01 X13.9895 Y6.1770 F60.00
G01 X14.0577 Y6.1670 F60.00
G01 X14.1220 Y6.1366 F60.00
G01 X14.1747 Y6.0881 F60.00
G01 X14.2123 Y6.0218 F60.00
G00 Z2.0000
G00 X62.4723 Y6.0218
G01 F60.00
G01 Z-0.0750
G01 F60.00
G01 X62.4870 Y5.9395 F60.00
G01 X62.4870 Y3.9395 F60.00
G01 X62.4708 Y3.8533 F60.00
G01 X62.4466 Y3.8070 F60.00
G01 X62.4174 Y3.7716 F60.00
G01 X62.3820 Y3.7424 F60.00
G01 X62.3357 Y3.7182 F60.00
G01 X62.2495 Y3.7020 F60.00
G01 X60.2495 Y3.7020 F60.00
G01 X60.1633 Y3.7182 F60.00
G01 X60.1170 Y3.7424 F60.00
G01 X60.0816 Y3.7716 F60.00
G01 X60.0524 Y3.8070 F60.00
G01 X60.0282 Y3.8533 F60.00
G01 X60.0120 Y3.9395 F60.00
G01 X60.0120 Y5.9395 F60.00
G01 X60.0282 Y6.0257 F60.00
G01 X60.0524 Y6.0719 F60.00
G01 X60.0816 Y6.1074 F60.00
G01 X60.1170 Y6.1366 F60.00
G01 X60.1633 Y6.1608 F60.00
G01 X60.2495 Y6.1770 F60.00
G01 X62.2495 Y6.1770 F60.00
G01 X62.3177 Y6.1670 F60.00
G01 X62.3820 Y6.1366 F60.00
G01 X62.4347 Y6.0881 F60.00
G01 X62.4723 Y6.0218 F60.00
G00 Z2.0000
G00 X62.4723 Y8.5618
G01 F60.00
G01 Z-0.0750
G01 F60.00
G01 X62.4870 Y8.4795 F60.00
G01 X62.4870 Y6.4795 F60.00
G01 X62.4708 Y6.3933 F60.00
G01 X62.4466 Y6.3470 F60.00
G01 X62.4174 Y6.3116 F60.00
G01 X62.3820 Y6.2824 F60.00
G01 X62.3357 Y6.2582 F60.00
G01 X62.2495 Y6.2420 F60.00
G01 X60.2495 Y6.2420 F60.00
G01 X60.1633 Y6.2582 F60.00
G01 X60.1170 Y6.2824 F60.00
G01 X60.0816 Y6.3116 F60.00
G01 X60.0524 Y6.3470 F60.00
G01 X60.0282 Y6.3933 F60.00
G01 X60.0120 Y6.4795 F60.00
G01 X60.0120 Y8.4795 F60.00
G01 X60.0282 Y8.5657 F60.00
G01 X60.0524 Y8.6119 F60.00
G01 X60.0816 Y8.6474 F60.00
G01 X60.1170 Y8.6766 F60.00
G01 X60.1633 Y8.7008 F60.00
G01 X60.2495 Y8.7170 F60.00
G01 X62.2495 Y8.7170 F60.00
G01 X62.3177 Y8.7070 F60.00
G01 X62.3820 Y8.6766 F60.00
G01 X62.4347 Y8.6281 F60.00
G01 X62.4723 Y8.5618 F60.00
G00 Z2.0000
G00 X62.4723 Y11.1018
G01 F60.00
G01 Z-0.0750
G01 F60.00
G01 X62.4870 Y11.0195 F60.00
G01 X62.4870 Y9.0195 F60.00
G01 X62.4708 Y8.9333 F60.00
G01 X62.4466 Y8.8870 F60.00
G01 X62.4174 Y8.8516 F60.00
G01 X62.3820 Y8.8224 F60.00
G01 X62.3357 Y8.7982 F60.00
G01 X62.2495 Y8.7820 F60.00
G01 X60.2495 Y8.7820 F60.00
G01 X60.1633 Y8.7982 F60.00
G01 X60.1170 Y8.8224 F60.00
G01 X60.0816 Y8.8516 F60.00
G01 X60.0524 Y8.8870 F60.00
G01 X60.0282 Y8.9333 F60.00
G01 X60.0120 Y9.0195 F60.00
G01 X60.0120 Y11.0195 F60.00
G01 X60.0282 Y11.1057 F60.00
G01 X60.0524 Y11.1519 F60.00
G01 X60.0816 Y11.1874 F60.00
G01 X60.1170 Y11.2166 F60.00
G01 X60.1633 Y11.2408 F60.00
G01 X60.2495 Y11.2570 F60.00
G01 X62.2495 Y11.2570 F60.00
G01 X62.3177 Y11.2470 F60.00
G01 X62.3820 Y11.2166 F60.00
G01 X62.4347 Y11.1681 F60.00
G01 X62.4723 Y11.1018 F60.00
G00 Z2.0000
G00 X62.4723 Y13.6418
G01 F60.00
G01 Z-0.0750
G01 F60.00
G01 X62.4870 Y13.5595 F60.00
G01 X62.4870 Y11.5595 F60.00
G01 X62.4708 Y11.4733 F60.00
G01 X62.4466 Y11.4270 F60.00
G01 X62.4174 Y11.3916 F60.00
G01 X62.3820 Y11.3624 F60.00
G01 X62.3357 Y11.3382 F60.00
G01 X62.2495 Y11.3220 F60.00
G01 X60.2495 Y11.3220 F60.00
G01 X60.1633 Y11.3382 F60.00
G01 X60.1170 Y11.3624 F60.00
G01 X60.0816 Y11.3916 F60.00
G01 X60.0524 Y11.4270 F60.00
G01 X60.0282 Y11.4733 F60.00
G01 X60.0120 Y11.5595 F60.00
G01 X60.0120 Y13.5595 F60.00
G01 X60.0282 Y13.6457 F60.00
G01 X60.0524 Y13.6919 F60.00
G01 X60.0816 Y13.7274 F60.00
G01 X60.1170 Y13.7566 F60.00
G01 X60.1633 Y13.7808 F60.00
G01 X60.2495 Y13.7970 F60.00
G01 X62.2495 Y13.7970 F60.00
G01 X62.3177 Y13.7870 F60.00
G01 X62.3820 Y13.7566 F60.00
G01 X62.4347 Y13.7081 F60.00
G01 X62.4723 Y13.6418 F60.00
G00 Z2.0000
G00 X62.4723 Y16.1818
G01 F60.00
G01 Z-0.0750
G01 F60.00
G01 X62.4870 Y16.0995 F60.00
G01 X62.4870 Y14.0995 F60.00
G01 X62.4708 Y14.0133 F60.00
G01 X62.4466 Y13.9670 F60.00
G01 X62.4174 Y13.9316 F60.00
G01 X62.3820 Y13.9024 F60.00
G01 X62.3357 Y13.8782 F60.00
G01 X62.2495 Y13.8620 F60.00
G01 X60.2495 Y13.8620 F60.00
G01 X60.1633 Y13.8782 F60.00
G01 X60.1170 Y13.9024 F60.00
G01 X60.0816 Y13.9316 F60.00
G01 X60.0524 Y13.9670 F60.00
G01 X60.0282 Y14.0133 F60.00
G01 X60.0120 Y14.0995 F60.00
G01 X60.0120 Y16.0995 F60.00
G01 X60.0282 Y16.1857 F60.00
G01 X60.0524 Y16.2319 F60.00
G01 X60.0816 Y16.2674 F60.00
G01 X60.1170 Y16.2966 F60.00
G01 X60.1633 Y16.3208 F60.00
G01 X60.2495 Y16.3370 F60.00
G01 X62.2495 Y16.3370 F60.00
G01 X62.3177 Y16.3270 F60.00
G01 X62.3820 Y16.2966 F60.00
G01 X62.4347 Y16.2481 F60.00
G01 X62.4723 Y16.1818 F60.00
G00 Z2.0000
G00 X62.4741 Y18.7161
G01 F60.00
G01 Z-0.0750
G01 F60.00
G01 X62.4870 Y18.6395 F60.00
G01 X62.4870 Y16.6395 F60.00
G01 X62.4708 Y16.5533 F60.00
G01 X62.4466 Y16.5070 F60.00
G01 X62.4174 Y16.4716 F60.00
G01 X62.3820 Y16.4424 F60.00
G01 X62.3357 Y16.4182 F60.00
G01 X62.2495 Y16.4020 F60.00
G01 X60.2495 Y16.4020 F60.00
G01 X60.1633 Y16.4182 F60.00
G01 X60.1170 Y16.4424 F60.00
G01 X60.0816 Y16.4716 F60.00
G01 X60.0524 Y16.5070 F60.00
G01 X60.0282 Y16.5533 F60.00
G01 X60.0120 Y16.6395 F60.00
G01 X60.0120 Y18.6395 F60.00
G01 X60.0282 Y18.7257 F60.00
G01 X60.0524 Y18.7719 F60.00
G01 X60.0816 Y18.8074 F60.00
G01 X60.1170 Y18.8366 F60.00
G01 X60.1633 Y18.8608 F60.00
G01 X60.2495 Y18.8770 F60.00
G01 X62.2495 Y18.8770 F60.00
G01 X62.3177 Y18.8670 F60.00
G01 X62.3820 Y18.8366 F60.00
G01 X62.4347 Y18.7881 F60.00
G01 X62.4741 Y18.7161 F60.00
G00 Z2.0000
G00 X62.4723 Y23.8018
G01 F60.00
G01 Z-0.0750
G01 F60.00
G01 X62.4870 Y23.7195 F60.00
G01 X62.4870 Y21.7195 F60.00
G01 X62.4708 Y21.6333 F60.00
G01 X62.4466 Y21.5870 F60.00
G01 X62.4174 Y21.5516 F60.00
G01 X62.3820 Y21.5224 F60.00
G01 X62.3357 Y21.4982 F60.00
G01 X62.2495 Y21.4820 F60.00
G01 X60.2495 Y21.4820 F60.00
G01 X60.1633 Y21.4982 F60.00
G01 X60.1170 Y21.5224 F60.00
G01 X60.0816 Y21.5516 F60.00
G01 X60.0524 Y21.5870 F60.00
G01 X60.0282 Y21.6333 F60.00
G01 X60.0120 Y21.7195 F60.00
G01 X60.0120 Y23.7195 F60.00
G01 X60.0282 Y23.8057 F60.00
G01 X60.0524 Y23.8519 F60.00
G01 X60.0816 Y23.8874 F60.00
G01 X60.1170 Y23.9166 F60.00
G01 X60.1633 Y23.9408 F60.00
G01 X60.2495 Y23.9570 F60.00
G01 X62.2495 Y23.9570 F60.00
G01 X62.3177 Y23.9470 F60.00
G01 X62.3820 Y23.9166 F60.00
G01 X62.4347 Y23.8681 F60.00
G01 X62.4723 Y23.8018 F60.00
G00 Z2.0000
G00 X62.4723 Y26.3418
G01 F60.00
G01 Z-0.0750
G01 F60.00
G01 X62.4870 Y26.2595 F60.00
G01 X62.4870 Y24.2595 F60.00
G01 X62.4708 Y24.1733 F60.00
G01 X62.4466 Y24.1270 F60.00
G01 X62.4174 Y24.0916 F60.00
G01 X62.3820 Y24.0624 F60.00
G01 X62.3357 Y24.0382 F60.00
G01 X62.2495 Y24.0220 F60.00
G01 X60.2495 Y24.0220 F60.00
G01 X60.1633 Y24.0382 F60.00
G01 X60.1170 Y24.0624 F60.00
G01 X60.0816 Y24.0916 F60.00
G01 X60.0524 Y24.1270 F60.00
G01 X60.0282 Y24.1733 F60.00
G01 X60.0120 Y24.2595 F60.00
G01 X60.0120 Y26.2595 F60.00
G01 X60.0282 Y26.3457 F60.00
G01 X60.0524 Y26.3920 F60.00
G01 X60.0816 Y26.4274 F60.00
G01 X60.1170 Y26.4566 F60.00
G01 X60.1633 Y26.4808 F60.00
G01 X60.2495 Y26.4970 F60.00
G01 X62.2495 Y26.4970 F60.00
G01 X62.3177 Y26.4870 F60.00
G01 X62.3820 Y26.4566 F60.00
G01 X62.4347 Y26.4081 F60.00
G01 X62.4723 Y26.3418 F60.00
G00 Z2.0000
G00 X60.0163 Y26.3868
G01 F60.00
G01 Z-0.0750
G01 F60.00
G01 X59.9865 Y26.2946 F60.00
G01 X59.9865 Y24.2244 F60.00
G01 X60.0327 Y24.0828 F60.00
G01 X60.0423 Y24.0159 F60.00
G01 X60.0303 Y23.8886 F60.00
G01 X59.9865 Y23.7546 F60.00
G01 X59.9865 Y21.6843 F60.00
G01 X60.0163 Y21.5922 F60.00
G01 X60.0616 Y21.5316 F60.00
G01 X60.1222 Y21.4863 F60.00
G01 X60.2144 Y21.4565 F60.00
G01 X62.2846 Y21.4565 F60.00
G01 X62.3768 Y21.4863 F60.00
G01 X62.4374 Y21.5316 F60.00
G01 X62.4827 Y21.5922 F60.00
G01 X62.5125 Y21.6844 F60.00
G01 X62.5125 Y23.7546 F60.00
G01 X62.4663 Y23.8962 F60.00
G01 X62.4567 Y23.9631 F60.00
G01 X62.4687 Y24.0904 F60.00
G01 X62.5125 Y24.2244 F60.00
G01 X62.5125 Y26.2946 F60.00
G01 X62.4827 Y26.3868 F60.00
G01 X62.4374 Y26.4474 F60.00
G01 X62.3768 Y26.4927 F60.00
G01 X62.2846 Y26.5225 F60.00
G01 X60.2143 Y26.5225 F60.00
G01 X60.1222 Y26.4927 F60.00
G01 X60.0616 Y26.4474 F60.00
G01 X60.0163 Y26.3868 F60.00
G00 Z2.0000
G00 X62.4723 Y33.9618
G01 F60.00
G01 Z-0.0750
G01 F60.00
G01 X62.4870 Y33.8795 F60.00
G01 X62.4870 Y31.8795 F60.00
G01 X62.4708 Y31.7933 F60.00
G01 X62.4466 Y31.7470 F60.00
G01 X62.4174 Y31.7116 F60.00
G01 X62.3820 Y31.6824 F60.00
G01 X62.3357 Y31.6582 F60.00
G01 X62.2495 Y31.6420 F60.00
G01 X60.2495 Y31.6420 F60.00
G01 X60.1633 Y31.6582 F60.00
G01 X60.1170 Y31.6824 F60.00
G01 X60.0816 Y31.7116 F60.00
G01 X60.0524 Y31.7470 F60.00
G01 X60.0282 Y31.7933 F60.00
G01 X60.0120 Y31.8795 F60.00
G01 X60.0120 Y33.8795 F60.00
G01 X60.0282 Y33.9657 F60.00
G01 X60.0524 Y34.0120 F60.00
G01 X60.0816 Y34.0474 F60.00
G01 X60.1170 Y34.0766 F60.00
G01 X60.1633 Y34.1008 F60.00
G01 X60.2495 Y34.1170 F60.00
G01 X62.2495 Y34.1170 F60.00
G01 X62.3177 Y34.1070 F60.00
G01 X62.3820 Y34.0766 F60.00
G01 X62.4347 Y34.0281 F60.00
G01 X62.4723 Y33.9618 F60.00
G00 Z2.0000
G00 X62.4723 Y36.5018
G01 F60.00
G01 Z-0.0750
G01 F60.00
G01 X62.4870 Y36.4195 F60.00
G01 X62.4870 Y34.4195 F60.00
G01 X62.4708 Y34.3333 F60.00
G01 X62.4466 Y34.2870 F60.00
G01 X62.4174 Y34.2516 F60.00
G01 X62.3820 Y34.2224 F60.00
G01 X62.3357 Y34.1982 F60.00
G01 X62.2495 Y34.1820 F60.00
G01 X60.2495 Y34.1820 F60.00
G01 X60.1633 Y34.1982 F60.00
G01 X60.1170 Y34.2224 F60.00
G01 X60.0816 Y34.2516 F60.00
G01 X60.0524 Y34.2870 F60.00
G01 X60.0282 Y34.3333 F60.00
G01 X60.0120 Y34.4195 F60.00
G01 X60.0120 Y36.4195 F60.00
G01 X60.0282 Y36.5057 F60.00
G01 X60.0524 Y36.5520 F60.00
G01 X60.0816 Y36.5874 F60.00
G01 X60.1170 Y36.6166 F60.00
G01 X60.1633 Y36.6408 F60.00
G01 X60.2495 Y36.6570 F60.00
G01 X62.2495 Y36.6570 F60.00
G01 X62.3177 Y36.6470 F60.00
G01 X62.3820 Y36.6166 F60.00
G01 X62.4347 Y36.5681 F60.00
G01 X62.4723 Y36.5018 F60.00
G00 Z2.0000
G00 X62.4723 Y39.0418
G01 F60.00
G01 Z-0.0750
G01 F60.00
G01 X62.4870 Y38.9595 F60.00
G01 X62.4870 Y36.9595 F60.00
G01 X62.4708 Y36.8733 F60.00
G01 X62.4466 Y36.8270 F60.00
G01 X62.4174 Y36.7916 F60.00
G01 X62.3820 Y36.7624 F60.00
G01 X62.3357 Y36.7382 F60.00
G01 X62.2495 Y36.7220 F60.00
G01 X60.2495 Y36.7220 F60.00
G01 X60.1633 Y36.7382 F60.00
G01 X60.1170 Y36.7624 F60.00
G01 X60.0816 Y36.7916 F60.00
G01 X60.0524 Y36.8270 F60.00
G01 X60.0282 Y36.8733 F60.00
G01 X60.0120 Y36.9595 F60.00
G01 X60.0120 Y38.9595 F60.00
G01 X60.0282 Y39.0457 F60.00
G01 X60.0524 Y39.0920 F60.00
G01 X60.0816 Y39.1274 F60.00
G01 X60.1170 Y39.1566 F60.00
G01 X60.1633 Y39.1808 F60.00
G01 X60.2495 Y39.1970 F60.00
G01 X62.2495 Y39.1970 F60.00
G01 X62.3177 Y39.1870 F60.00
G01 X62.3820 Y39.1566 F60.00
G01 X62.4347 Y39.1081 F60.00
G01 X62.4723 Y39.0418 F60.00
G00 Z2.0000
G00 X62.4741 Y41.5762
G01 F60.00
G01 Z-0.0750
G01 F60.00
G01 X62.4870 Y41.4995 F60.00
G01 X62.4870 Y39.4995 F60.00
G01 X62.4708 Y39.4133 F60.00
G01 X62.4466 Y39.3670 F60.00
G01 X62.4174 Y39.3316 F60.00
G01 X62.3820 Y39.3024 F60.00
G01 X62.3357 Y39.2782 F60.00
G01 X62.2495 Y39.2620 F60.00
G01 X60.2495 Y39.2620 F60.00
G01 X60.1633 Y39.2782 F60.00
G01 X60.1170 Y39.3024 F60.00
G01 X60.0816 Y39.3316 F60.00
G01 X60.0524 Y39.3670 F60.00
G01 X60.0282 Y39.4133 F60.00
G01 X60.0120 Y39.4995 F60.00
G01 X60.0120 Y41.4995 F60.00
G01 X60.0282 Y41.5857 F60.00
G01 X60.0524 Y41.6320 F60.00
G01 X60.0816 Y41.6674 F60.00
G01 X60.1170 Y41.6966 F60.00
G01 X60.1633 Y41.7208 F60.00
G01 X60.2495 Y41.7370 F60.00
G01 X62.2495 Y41.7370 F60.00
G01 X62.3177 Y41.7270 F60.00
G01 X62.3820 Y41.6966 F60.00
G01 X62.4347 Y41.6481 F60.00
G01 X62.4741 Y41.5762 F60.00
G00 Z2.0000
G00 X69.0344 Y43.6082
G01 F60.00
G01 Z-0.0750
G01 F60.00
G01 X69.0485 Y43.7028 F60.00
G01 X69.0837 Y43.8189 F60.00
G01 X69.1246 Y43.9054 F60.00
G01 X69.2046 Y44.0218 F60.00
G01 X69.2926 Y44.1102 F60.00
G01 X69.3695 Y44.1672 F60.00
G01 X69.4765 Y44.2244 F60.00
G01 X69.6142 Y44.2685 F60.00
G01 X69.7695 Y44.2853 F60.00
G01 X73.8139 Y44.2853 F60.00
G01 X74.3867 Y44.8581 F60.00
G01 X74.3867 Y48.5550 F60.00
G01 X74.1245 Y48.5550 F60.00
G01 X74.0383 Y48.5712 F60.00
G01 X73.9920 Y48.5954 F60.00
G01 X73.9393 Y48.6439 F60.00
G01 X73.9032 Y48.7063 F60.00
G01 X73.8894 Y48.7586 F60.00
G01 X73.8870 Y50.7925 F60.00
G01 X73.8970 Y50.8607 F60.00
G01 X73.9274 Y50.9250 F60.00
G01 X73.9759 Y50.9777 F60.00
G01 X74.0383 Y51.0138 F60.00
G01 X74.1245 Y51.0300 F60.00
G01 X76.1245 Y51.0300 F60.00
G01 X76.2107 Y51.0138 F60.00
G01 X76.2570 Y50.9896 F60.00
G01 X76.2924 Y50.9604 F60.00
G01 X76.3216 Y50.9250 F60.00
G01 X76.3458 Y50.8787 F60.00
G01 X76.3620 Y50.7925 F60.00
G01 X76.3596 Y48.7586 F60.00
G01 X76.3458 Y48.7063 F60.00
G01 X76.3097 Y48.6439 F60.00
G01 X76.2570 Y48.5954 F60.00
G01 X76.2107 Y48.5712 F60.00
G01 X76.1245 Y48.5550 F60.00
G01 X75.8623 Y48.5550 F60.00
G01 X75.8620 Y44.5408 F60.00
G01 X75.8501 Y44.4201 F60.00
G01 X75.8268 Y44.3273 F60.00
G01 X75.7804 Y44.2151 F60.00
G01 X75.7312 Y44.1331 F60.00
G01 X75.6462 Y44.0308 F60.00
G01 X74.6327 Y43.0178 F60.00
G01 X74.5389 Y42.9408 F60.00
G01 X74.4774 Y42.9026 F60.00
G01 X74.3224 Y42.8384 F60.00
G01 X74.2034 Y42.8147 F60.00
G01 X74.1195 Y42.8097 F60.00
G01 X70.5073 Y42.8097 F60.00
G01 X70.5073 Y28.9597 F60.00
G01 X71.7499 Y27.7170 F60.00
G01 X72.9780 Y27.7146 F60.00
G01 X73.0303 Y27.7008 F60.00
G01 X73.0766 Y27.6766 F60.00
G01 X73.1412 Y27.6120 F60.00
G01 X73.1716 Y27.5477 F60.00
G01 X73.1816 Y27.4795 F60.00
G01 X73.1816 Y25.4795 F60.00
G01 X73.1654 Y25.3933 F60.00
G01 X73.1293 Y25.3309 F60.00
G01 X73.0594 Y25.2719 F60.00
G01 X72.9780 Y25.2444 F60.00
G01 X70.9441 Y25.2420 F60.00
G01 X70.8579 Y25.2582 F60.00
G01 X70.7955 Y25.2943 F60.00
G01 X70.7589 Y25.3309 F60.00
G01 X70.7304 Y25.3759 F60.00
G01 X70.7164 Y25.4121 F60.00
G01 X70.7066 Y25.4795 F60.00
G01 X70.7066 Y26.6737 F60.00
G01 X69.2398 Y28.1409 F60.00
G01 X69.1628 Y28.2347 F60.00
G01 X69.1246 Y28.2962 F60.00
G01 X69.0837 Y28.3827 F60.00
G01 X69.0485 Y28.4988 F60.00
G01 X69.0317 Y28.6541 F60.00
G01 X69.0344 Y43.6082 F60.00
G00 Z2.0000
G00 X71.1344 Y39.0382
G01 F60.00
G01 Z-0.0750
G01 F60.00
G01 X71.1485 Y39.1328 F60.00
G01 X71.1926 Y39.2705 F60.00
G01 X71.2628 Y39.3969 F60.00
G01 X71.3398 Y39.4907 F60.00
G01 X71.5063 Y39.6572 F60.00
G01 X71.6195 Y39.7472 F60.00
G01 X71.7481 Y39.8133 F60.00
G01 X71.8842 Y39.8526 F60.00
G01 X72.0195 Y39.8653 F60.00
G01 X74.1770 Y39.8653 F60.00
G01 X74.1794 Y39.9964 F60.00
G01 X74.1932 Y40.0487 F60.00
G01 X74.2174 Y40.0950 F60.00
G01 X74.2466 Y40.1304 F60.00
G01 X74.2992 Y40.1701 F60.00
G01 X74.3471 Y40.1902 F60.00
G01 X74.4145 Y40.2000 F60.00
G01 X76.1145 Y40.2000 F60.00
G01 X76.1827 Y40.1900 F60.00
G01 X76.2470 Y40.1596 F60.00
G01 X76.2997 Y40.1111 F60.00
G01 X76.3282 Y40.0661 F60.00
G01 X76.3422 Y40.0299 F60.00
G01 X76.3520 Y39.9625 F60.00
G01 X76.3520 Y38.2625 F60.00
G01 X76.3420 Y38.1943 F60.00
G01 X76.3116 Y38.1300 F60.00
G01 X76.2631 Y38.0773 F60.00
G01 X76.2181 Y38.0488 F60.00
G01 X76.1819 Y38.0348 F60.00
G01 X76.1145 Y38.0250 F60.00
G01 X74.3806 Y38.0274 F60.00
G01 X74.3283 Y38.0412 F60.00
G01 X74.2820 Y38.0654 F60.00
G01 X74.2466 Y38.0946 F60.00
G01 X74.2069 Y38.1472 F60.00
G01 X74.1794 Y38.2286 F60.00
G01 X74.1770 Y38.3897 F60.00
G01 X72.6073 Y38.3897 F60.00
G01 X72.6073 Y34.2453 F60.00
G01 X76.0595 Y34.2453 F60.00
G01 X76.1434 Y34.2403 F60.00
G01 X76.2624 Y34.2166 F60.00
G01 X76.4174 Y34.1524 F60.00
G01 X76.4789 Y34.1142 F60.00
G01 X76.5727 Y34.0372 F60.00
G01 X77.5966 Y33.0138 F60.00
G01 X77.6946 Y32.8921 F60.00
G01 X77.7518 Y32.7851 F60.00
G01 X77.7840 Y32.6950 F60.00
G01 X77.8077 Y32.5760 F60.00
G01 X77.8127 Y32.4921 F60.00
G01 X77.8127 Y27.7170 F60.00
G01 X78.0749 Y27.7170 F60.00
G01 X78.1611 Y27.7008 F60.00
G01 X78.2074 Y27.6766 F60.00
G01 X78.2601 Y27.6281 F60.00
G01 X78.2962 Y27.5657 F60.00
G01 X78.3115 Y27.5005 F60.00
G01 X78.3124 Y25.4795 F60.00
G01 X78.3024 Y25.4113 F60.00
G01 X78.2720 Y25.3470 F60.00
G01 X78.2235 Y25.2943 F60.00
G01 X78.1785 Y25.2658 F60.00
G01 X78.1423 Y25.2518 F60.00
G01 X78.0749 Y25.2420 F60.00
G01 X76.0749 Y25.2420 F60.00
G01 X75.9887 Y25.2582 F60.00
G01 X75.9263 Y25.2943 F60.00
G01 X75.8778 Y25.3470 F60.00
G01 X75.8472 Y25.4121 F60.00
G01 X75.8374 Y25.4795 F60.00
G01 X75.8398 Y27.5134 F60.00
G01 X75.8536 Y27.5657 F60.00
G01 X75.8897 Y27.6281 F60.00
G01 X75.9424 Y27.6766 F60.00
G01 X75.9887 Y27.7008 F60.00
G01 X76.0749 Y27.7170 F60.00
G01 X76.3371 Y27.7170 F60.00
G01 X76.3371 Y32.1865 F60.00
G01 X75.7539 Y32.7697 F60.00
G01 X71.8088 Y32.7724 F60.00
G01 X71.7142 Y32.7865 F60.00
G01 X71.5981 Y32.8217 F60.00
G01 X71.4501 Y32.9008 F60.00
G01 X71.3563 Y32.9778 F60.00
G01 X71.3068 Y33.0306 F60.00
G01 X71.2136 Y33.1701 F60.00
G01 X71.1672 Y33.2823 F60.00
G01 X71.1485 Y33.3522 F60.00
G01 X71.1317 Y33.5075 F60.00
G01 X71.1344 Y39.0382 F60.00
G00 Z2.0000
G00 X78.5388 Y37.1374
G01 F60.00
G01 Z-0.0750
G01 F60.00
G01 X81.1018 Y34.5786 F60.00
G01 X81.1576 Y34.5157 F60.00
G01 X81.2250 Y34.4148 F60.00
G01 X81.2892 Y34.2598 F60.00
G01 X81.3129 Y34.1408 F60.00
G01 X81.3179 Y34.0569 F60.00
G01 X81.3179 Y27.7170 F60.00
G01 X81.5801 Y27.7170 F60.00
G01 X81.6475 Y27.7072 F60.00
G01 X81.6837 Y27.6932 F60.00
G01 X81.7287 Y27.6647 F60.00
G01 X81.7772 Y27.6120 F60.00
G01 X81.8076 Y27.5477 F60.00
G01 X81.8176 Y27.4795 F60.00
G01 X81.8152 Y25.4456 F60.00
G01 X81.8014 Y25.3933 F60.00
G01 X81.7653 Y25.3309 F60.00
G01 X81.7126 Y25.2824 F60.00
G01 X81.6475 Y25.2518 F60.00
G01 X81.5801 Y25.2420 F60.00
G01 X79.5462 Y25.2444 F60.00
G01 X79.4765 Y25.2658 F60.00
G01 X79.4122 Y25.3116 F60.00
G01 X79.3664 Y25.3759 F60.00
G01 X79.3450 Y25.4456 F60.00
G01 X79.3426 Y27.4795 F60.00
G01 X79.3524 Y27.5469 F60.00
G01 X79.3725 Y27.5948 F60.00
G01 X79.4122 Y27.6474 F60.00
G01 X79.4476 Y27.6766 F60.00
G01 X79.4939 Y27.7008 F60.00
G01 X79.5801 Y27.7170 F60.00
G01 X79.8423 Y27.7170 F60.00
G01 X79.8423 Y33.7513 F60.00
G01 X77.7589 Y35.8347 F60.00
G01 X76.5020 Y35.8347 F60.00
G01 X76.5020 Y35.5725 F60.00
G01 X76.4858 Y35.4863 F60.00
G01 X76.4616 Y35.4400 F60.00
G01 X76.4131 Y35.3873 F60.00
G01 X76.3507 Y35.3512 F60.00
G01 X76.2984 Y35.3374 F60.00
G01 X74.2306 Y35.3374 F60.00
G01 X74.1783 Y35.3512 F60.00
G01 X74.1159 Y35.3873 F60.00
G01 X74.0674 Y35.4400 F60.00
G01 X74.0368 Y35.5051 F60.00
G01 X74.0270 Y35.5725 F60.00
G01 X74.0270 Y37.5725 F60.00
G01 X74.0370 Y37.6407 F60.00
G01 X74.0674 Y37.7050 F60.00
G01 X74.1159 Y37.7577 F60.00
G01 X74.1783 Y37.7938 F60.00
G01 X74.2645 Y37.8100 F60.00
G01 X76.2984 Y37.8076 F60.00
G01 X76.3507 Y37.7938 F60.00
G01 X76.4131 Y37.7577 F60.00
G01 X76.4616 Y37.7050 F60.00
G01 X76.4858 Y37.6587 F60.00
G01 X76.5020 Y37.5725 F60.00
G01 X76.5020 Y37.3103 F60.00
G01 X78.1252 Y37.3076 F60.00
G01 X78.2198 Y37.2935 F60.00
G01 X78.3359 Y37.2583 F60.00
G01 X78.4224 Y37.2174 F60.00
G01 X78.5388 Y37.1374 F60.00
G00 Z2.0000
G00 X74.4623 Y9.7818
G01 F60.00
G01 Z-0.0750
G01 F60.00
G01 X74.4770 Y9.6995 F60.00
G01 X74.4770 Y7.6995 F60.00
G01 X74.4608 Y7.6133 F60.00
G01 X74.4366 Y7.5670 F60.00
G01 X74.4074 Y7.5316 F60.00
G01 X74.3720 Y7.5024 F60.00
G01 X74.3257 Y7.4782 F60.00
G01 X74.2395 Y7.4620 F60.00
G01 X72.2395 Y7.4620 F60.00
G01 X72.1533 Y7.4782 F60.00
G01 X72.1070 Y7.5024 F60.00
G01 X72.0716 Y7.5316 F60.00
G01 X72.0424 Y7.5670 F60.00
G01 X72.0182 Y7.6133 F60.00
G01 X72.0020 Y7.6995 F60.00
G01 X72.0020 Y9.6995 F60.00
G01 X72.0182 Y9.7857 F60.00
G01 X72.0424 Y9.8320 F60.00
G01 X72.0716 Y9.8674 F60.00
G01 X72.1070 Y9.8966 F60.00
G01 X72.1533 Y9.9208 F60.00
G01 X72.2395 Y9.9370 F60.00
G01 X74.2395 Y9.9370 F60.00
G01 X74.3077 Y9.9270 F60.00
G01 X74.3720 Y9.8966 F60.00
G01 X74.4247 Y9.8481 F60.00
G01 X74.4623 Y9.7818 F60.00
G00 Z2.0000
G00 X37.6795 Y56.2592
G01 F60.00
G01 Z-0.0750
G01 F60.00
G01 X37.7865 Y56.3164 F60.00
G01 X37.8766 Y56.3486 F60.00
G01 X37.9956 Y56.3723 F60.00
G01 X38.0795 Y56.3773 F60.00
G01 X83.0495 Y56.3773 F60.00
G01 X83.2048 Y56.3605 F60.00
G01 X83.3425 Y56.3164 F60.00
G01 X83.4689 Y56.2462 F60.00
G01 X83.5627 Y56.1692 F60.00
G01 X83.6122 Y56.1164 F60.00
G01 X83.6944 Y55.9974 F60.00
G01 X83.7353 Y55.9109 F60.00
G01 X83.7746 Y55.7748 F60.00
G01 X83.7873 Y55.6395 F60.00
G01 X83.7846 Y16.5888 F60.00
G01 X83.7705 Y16.4942 F60.00
G01 X83.7353 Y16.3781 F60.00
G01 X83.6944 Y16.2916 F60.00
G01 X83.6144 Y16.1752 F60.00
G01 X81.9293 Y14.4859 F60.00
G01 X81.9293 Y11.5715 F60.00
G01 X81.9171 Y11.4391 F60.00
G01 X81.8938 Y11.3463 F60.00
G01 X81.8684 Y11.2785 F60.00
G01 X81.8112 Y11.1715 F60.00
G01 X81.7132 Y11.0498 F60.00
G01 X79.5570 Y8.8937 F60.00
G01 X79.5570 Y7.6995 F60.00
G01 X79.5472 Y7.6321 F60.00
G01 X79.5332 Y7.5959 F60.00
G01 X79.5047 Y7.5509 F60.00
G01 X79.4681 Y7.5143 F60.00
G01 X79.4057 Y7.4782 F60.00
G01 X79.3195 Y7.4620 F60.00
G01 X77.3195 Y7.4620 F60.00
G01 X77.2333 Y7.4782 F60.00
G01 X77.1870 Y7.5024 F60.00
G01 X77.1516 Y7.5316 F60.00
G01 X77.1224 Y7.5670 F60.00
G01 X77.0982 Y7.6133 F60.00
G01 X77.0820 Y7.6995 F60.00
G01 X77.0820 Y9.6995 F60.00
G01 X77.0982 Y9.7857 F60.00
G01 X77.1343 Y9.8481 F60.00
G01 X77.2042 Y9.9071 F60.00
G01 X77.2856 Y9.9346 F60.00
G01 X78.5137 Y9.9370 F60.00
G01 X80.4537 Y11.8771 F60.00
G01 X80.4537 Y14.7915 F60.00
G01 X80.4659 Y14.9239 F60.00
G01 X80.5057 Y15.0629 F60.00
G01 X80.5718 Y15.1915 F60.00
G01 X80.6698 Y15.3132 F60.00
G01 X82.3117 Y16.9551 F60.00
G01 X82.3117 Y54.9017 F60.00
G01 X38.3851 Y54.9017 F60.00
G01 X34.6670 Y51.1837 F60.00
G01 X34.6670 Y49.9895 F60.00
G01 X34.6572 Y49.9221 F60.00
G01 X34.6432 Y49.8859 F60.00
G01 X34.6147 Y49.8409 F60.00
G01 X34.5781 Y49.8043 F60.00
G01 X34.5157 Y49.7682 F60.00
G01 X34.4295 Y49.7520 F60.00
G01 X32.4295 Y49.7520 F60.00
G01 X32.3433 Y49.7682 F60.00
G01 X32.2809 Y49.8043 F60.00
G01 X32.2443 Y49.8409 F60.00
G01 X32.2158 Y49.8859 F60.00
G01 X32.2018 Y49.9221 F60.00
G01 X32.1920 Y49.9895 F60.00
G01 X32.1920 Y51.9895 F60.00
G01 X32.2082 Y52.0757 F60.00
G01 X32.2443 Y52.1381 F60.00
G01 X32.2809 Y52.1747 F60.00
G01 X32.3259 Y52.2032 F60.00
G01 X32.3621 Y52.2172 F60.00
G01 X32.4295 Y52.2270 F60.00
G01 X33.6237 Y52.2270 F60.00
G01 X37.5578 Y56.1612 F60.00
G01 X37.6795 Y56.2592 F60.00
G00 Z2.0000
M05
G00 Z2.0000
G00 Z15.00


